JLDominguezM/dreamteam-T3001B/M1-Kinematics/Lab2/src/xarm_ros2/xarm_perturbations/xarm_perturbations/results/challenge/trial_ctc_nopert_2026-03-04_16-27-23/trial_ctc_nopert_2026-03-04_16-27-23.csv
time,time_abs,q1,q2,q3,q4,q5,q6,qd1,qd2,qd3,qd4,qd5,qd6,q_des1,q_des2,q_des3,q_des4,q_des5,q_des6,qd_des1,qd_des2,qd_des3,qd_des4,qd_des5,qd_des6,qdd_des1,qdd_des2,qdd_des3,qdd_des4,qdd_des5,qdd_des6,px,py,pz,px_des,py_des,pz_des,cmd_x,cmd_y,cmd_z,sat1,sat2,sat3,sat4,sat5,sat6,pert_enabled
0.020415065,1772663246.5835679,-0.0744076520204544,0.8505942821502686,1.9492504596710205,-0.012080098502337933,1.1143730878829956,-0.20536167919635773,-7.236274995589596e-16,2.9500211494670964e-15,1.6494741626377533e-15,4.123685406594383e-16,1.427429557712722e-15,1.2212453270876722e-15,0.0,0.0,0.0,0.0,0.0,0.0,-6.706266598904588,-6.706266598904588,-1.008671833142239,-0.3055517028306486,-56.156005834371676,0.0,0.0,0.0,0.0,0.0,0.0,0.0,0.3906460577063917,-0.029794963611359807,0.28701468720541085,0.3,0.0,0.3,-0.25,0.25,0.12985312794589138,False,False,False,False,False,False,0
2.96265439,1772663249.5258071,-0.0744076520204544,0.8505942821502686,1.9492504596710205,-0.012080098502337933,1.1143730878829956,-0.20536167919635773,-7.236274995589596e-16,2.9500211494670964e-15,1.6494741626377533e-15,4.123685406594383e-16,1.427429557712722e-15,1.2212453270876722e-15,-0.13412533197809176,-0.13412533197809176,-0.020173436662844782,-0.006111034056612972,-1.1231201166874336,0.0,-2.7706801850983225,-2.7706801850983225,-1.286991232289155,-0.20347079906298338,-19.74767486686323,0.0,196.77932069031328,196.77932069031328,-13.915969957345798,5.10404518838326,1820.4165483754223,0.0,0.3906460577063917,-0.029794963611359807,0.28701468720541085,0.3,0.0,0.3,-0.25,0.25,0.12985312794589138,False,False,False,False,False,False,0
2.980210446,1772663249.5433633,-0.0744076520204544,0.8505942821502686,1.9492504596710205,-0.012080098502337933,1.1142932176589966,-0.20536167919635773,-7.236274995589596e-16,2.9500211494670964e-15,1.6494741626377533e-15,4.123685406594383e-16,1.427429557712722e-15,1.2212453270876722e-15,-0.1895389356800582,-0.1895389356800582,-0.045913261308627884,-0.01018045003787264,-1.5180736140246982,0.0,-1.8624031286513205,-1.8624031286513205,-1.1387834104547307,-0.16421721064676886,-12.668336528778083,0.0,45.413852822350094,45.413852822350094,7.4103910917212135,1.9626794208107257,353.9669169042573,0.0,0.390651037081689,-0.029795308031836477,0.28701460877098883,0.3,0.0,0.3,-0.25,0.25,0.1298539122901115,False,False,False,False,False,False,0
3.000218217,1772663249.563371,-0.0744076520204544,0.8505942821502686,1.9492504596710205,-0.012080098502337933,1.1142932176589966,-0.20536167919635773,-7.236274995589596e-16,2.9500211494670964e-15,1.6494741626377533e-15,4.123685406594383e-16,1.427429557712722e-15,1.2212453270876722e-15,-0.2267869982530846,-0.2267869982530846,-0.061087,-0.013464794250808015,-1.7714403446002598,0.0,-1.3489083741165457,-1.3489083741165457,-0.9991136711118641,-0.1747646819347278,-8.36616269369577,0.0,25.674737726738744,25.674737726738744,6.983486967143333,-0.5273735643979469,215.10869175411565,0.0,0.390651037081689,-0.029795308031836477,0.28701460877098883,0.3,0.0,0.3,-0.25,0.25,0.1298539122901115,False,False,False,False,False,False,0
6.034839996,1772663252.5979927,-0.0744076520204544,0.8505942821502686,1.9492504596710205,-0.012080098502337933,1.1142932176589966,-0.20536167919635773,-7.236274995589596e-16,2.9500211494670964e-15,1.6494741626377533e-15,4.123685406594383e-16,1.427429557712722e-15,1.2212453270876722e-15,-0.2537651657354155,-0.2537651657354155,-0.061087,-0.01696008788950257,-1.9387635984741753,0.0,-1.0484504885513708,-1.0484504885513708,-0.9661828195309077,-0.21628475265485977,-5.11546159253905,0.0,15.022894278258745,15.022894278258745,1.6465425790478214,-2.0760035360065983,162.535055057836,0.0,0.390651037081689,-0.029795308031836477,0.28701460877098883,0.3,0.0,0.3,-0.25,0.25,0.1298539122901115,False,False,False,False,False,False,0
6.044537677,1772663252.6076906,-0.046159397810697556,0.7695003747940063,1.844985842704773,-0.012080098502337933,1.0912835597991943,-0.1769830286502838,-8.197807739071365e-16,2.9817418980670595e-15,-3.4240641980431974e-05,4.163336342344337e-16,1.427429557712722e-15,1.1934897514720433e-15,-0.27473417550644297,-0.27473417550644297,-0.061087,-0.021285782942599765,-2.0410728303249566,0.0,-0.8855127294351262,-0.8855127294351262,-0.9532257526198267,-0.260528344642196,-2.4293089426200707,0.0,8.14688795581223,8.14688795581223,0.6478533455540502,-2.2121795993668103,134.30763249594892,0.0,0.39061699045267473,-0.029786720781905765,0.28700059853800414,0.3,0.0,0.3,-0.25,0.25,0.1299949506163225,False,False,False,False,False,False,0
6.060214975,1772663252.6233678,-0.04615173116326332,0.7694888710975647,1.8449569940567017,-0.012080098502337933,1.0912835597991943,-0.17679128050804138,-8.197807739071365e-16,-3.4240641980431974e-05,1.6177535199169086e-15,4.163336342344337e-16,1.427429557712722e-15,1.1934897514720433e-15,-0.2924444300951455,-0.2924444300951455,-0.061087,-0.026496349835443682,-2.089659009177358,0.0,-0.7500762465363273,-0.7500762465363273,-0.9513021264441445,-0.2850905809778859,-0.7084805468377373,0.0,6.771824144939945,6.771824144939945,0.09618130878411017,-1.2281118167844973,86.04141978911672,0.0,0.3794780027886525,-0.01819142904827698,0.2931620548305483,0.3,0.0,0.3,-0.25,0.18191184535337537,0.06837945169451683,False,False,False,False,False,False,0
9.092962987,1772663255.6561158,-0.04615173116326332,0.7694888710975647,1.8449569940567017,-0.012080098502337933,1.0912835597991943,-0.17679128050804138,-8.197807739071365e-16,-3.4240641980431974e-05,1.6177535199169086e-15,4.163336342344337e-16,1.427429557712722e-15,1.1934897514720433e-15,-0.307445955025872,-0.307445955025872,-0.061087,-0.03219816145500141,-2.103828620114113,0.0,-0.6003807699894653,-0.6003807699894653,-0.9506396521141098,-0.2948292692531237,0.0339306521745657,0.0,7.484773827343093,7.484773827343093,0.03312371650173171,-0.4869344137618882,37.12055995061512,0.0,0.3794780027886525,-0.01819142904827698,0.2931620548305483,0.3,0.0,0.3,-0.25,0.18191184535337537,0.06837945169451683,False,False,False,False,False,False,0
9.101871794,1772663255.6650245,-0.021009784191846848,0.6859195232391357,1.7310091257095337,-0.012080098502337933,1.0616425275802612,-0.15205584466457367,-6.848128396086395e-05,0.00017120320990215987,1.2688263441084984e-15,4.183161677870416e-16,1.427429557712722e-15,1.2569310369137327e-15,-0.3194535704256613,-0.3194535704256613,-0.061087,-0.03809474684006388,-2.1031500070706217,0.0,-0.4607861819384921,-0.4607861819384921,-0.9481855648540949,-0.30284138811235745,0.2722342672987914,0.0,6.979729402548665,6.979729402548665,0.12270436300074744,-0.40060594296168783,11.915180756211292,0.0,0.37915984825503174,-0.018023002726794864,0.2931947415100847,0.3,0.0,0.3,-0.25,0.18023621544974472,0.0680525848991531,False,False,False,False,False,False,0
9.120250428,1772663255.6834033,-0.021090317517518997,0.6860230565071106,1.7310186624526978,-0.012080098502337933,1.0616425275802612,-0.15186409652233124,-0.00010272192594129592,6.848128396086395e-05,3.4240641980431974e-05,4.183161677870416e-16,1.427429557712722e-15,1.2569310369137327e-15,-0.32866929406443113,-0.32866929406443113,-0.061087,-0.044151574602311026,-2.097705321724646,0.0,-0.3458056176468841,-0.3458056176468841,-0.9440228876962582,-0.3133759646800669,0.31093408294537284,0.0,5.7490282145804015,5.7490282145804015,0.2081338578918347,-0.5267288283854729,1.9349907823290722,0.0,0.3662166374090901,-0.008379341104232944,0.29692839091645606,0.3,0.0,0.3,-0.25,0.08379348832398856,0.030715548095618737,False,False,True,False,False,False,0
12.165268839,1772663258.7284217,-0.021090317517518997,0.6860230565071106,1.7310186624526978,-0.012080098502337933,1.0616425275802612,-0.15186409652233124,-0.00010272192594129592,6.848128396086395e-05,3.4240641980431974e-05,4.183161677870416e-16,1.427429557712722e-15,1.2569310369137327e-15,-0.33558540641736884,-0.33558540641736884,-0.061087,-0.05041909389591237,-2.0914866400657384,0.0,-0.25648971609401255,-0.2564897160940125,-0.9386210729584017,-0.326630657797493,0.27980483703175807,0.0,4.465795077643574,4.465795077643577,0.2700907368928249,-0.6627346558713049,-1.556462295680737,0.0,0.3662166374090901,-0.008379341104232944,0.29692839091645606,0.3,0.0,0.3,-0.25,0.08379348832398856,0.030715548095618737,False,False,True,False,False,False,0
12.182614505,1772663258.745767,-0.0035013111773878336,0.5901358127593994,1.5977234840393066,-0.012463593855500221,1.024731159210205,-0.13441506028175354,6.848128396086395e-05,3.219646771412954e-15,1.2371057013876537e-15,4.3021142204224816e-16,1.427429557712722e-15,1.304512053934559e-15,-0.3407152007392491,-0.3407152007392491,-0.061087,-0.05695170705186223,-2.085890543325103,0.0,-0.1892034729263804,-0.1892034729263804,-0.9323354997945626,-0.3420582161471644,0.2311832629547359,0.0,3.3643121583816096,3.3643121583816065,0.3142786581919523,-0.7713779174835709,-2.4310787038511097,0.0,0.36616571599160264,-0.008369838993180142,0.29692388234361666,0.3,0.0,0.3,-0.25,0.08370147454673534,0.03076117656383327,True,True,True,False,False,False,0
12.200232771,1772663258.7633855,-0.0034687139559537172,0.5901204943656921,1.5977234840393066,-0.012463593855500221,1.024811029434204,-0.13460680842399597,-7.859536661255888e-16,-3.4240641980431974e-05,1.2371057013876537e-15,4.3021142204224816e-16,1.427429557712722e-15,-0.0034240642562508583,-0.3444992701977767,-0.3444992701977767,-0.061087,-0.06379287137480551,-2.0812668780660086,0.0,-0.13942803035853935,-0.13942803035853935,-0.9253913536442288,-0.3591484937966116,0.18502506976728483,0.0,2.488772128392054,2.488772128392054,0.347207307516695,-0.8545138824723607,-2.3079096593725548,0.0,0.34923071838662934,-0.001872712335116755,0.2993962647186784,0.3,0.0,0.3,-0.25,0.01872558102992594,0.006037352813215724,True,True,True,False,False,False,0
15.249352392,1772663261.812505,-0.0034687139559537172,0.5901204943656921,1.5977234840393066,-0.012463593855500221,1.024811029434204,-0.13460680842399597,-7.859536661255888e-16,-3.4240641980431974e-05,1.2371057013876537e-15,4.3021142204224816e-16,1.427429557712722e-15,-0.0034240642562508583,-0.3472878308049475,-0.3472878308049475,-0.061087,-0.07097584125073775,-2.077566376670663,0.0,-0.1030488458009748,-0.1030488458009748,-0.9179281614234291,-0.37751459424540124,0.1476659687057571,0.0,1.8189592278782256,1.8189592278782256,0.3731596110399801,-0.9183050224394799,-1.867955053076385,0.0,0.34923071838662934,-0.001872712335116755,0.2993962647186784,0.3,0.0,0.3,-0.25,0.01872558102992594,0.006037352813215724,True,True,True,False,True,False,0
15.260202552,1772663261.8233554,0.012751215137541294,0.5037937760353088,1.482291340827942,-0.012655341066420078,0.9966880083084106,-0.11869176477193832,-0.00010272192594129592,0.00017120320990215987,1.3322676295501878e-15,4.351677823935475e-16,1.427429557712722e-15,1.3223549088475892e-15,-0.349348807720967,-0.349348807720967,-0.061087,-0.07852613313564578,-2.0746130572965478,0.0,-0.07670126921354498,-0.07670126921354495,-0.9100360180325039,-0.3968575239518736,0.11992427650090542,0.0,1.31737882937149,1.3173788293714914,0.3946071695462624,-0.9671464853236186,-1.3870846102425824,0.0,0.3328936095480736,0.0036439447407194125,0.30153020324158486,0.3,0.0,0.3,-0.25,-0.03643736131575646,-0.01530203241584868,True,True,True,False,True,False,0
15.280277454,1772663261.84343,0.012720535509288311,0.5038302540779114,1.482291340827942,-0.012655341066420078,0.9967679381370544,-0.11869176477193832,-3.4240641980431974e-05,0.00010272192594129592,1.3322676295501878e-15,4.351677823935475e-16,1.427429557712722e-15,1.3223549088475892e-15,-0.3508828331052379,-0.3508828331052379,-0.061087,-0.08646328361468324,-2.0722145717665295,0.0,-0.057771375701391944,-0.05777137570139197,-0.9017781647477766,-0.4169283632114163,0.10063064506051633,0.0,0.9464946756076533,0.9464946756076505,0.4128926642363647,-1.0035419629771356,-0.9646815720194564,0.0,0.3328989884731817,0.0035746626841434495,0.30143893672450445,0.3,0.0,0.3,-0.25,-0.03574454076849167,-0.014389367245044552,True,True,True,False,True,False,0
18.319469807,1772663264.8826225,0.012720535509288311,0.5038302540779114,1.482291340827942,-0.012655341066420078,0.9967679381370544,-0.11869176477193832,-3.4240641980431974e-05,0.00010272192594129592,1.3322676295501878e-15,4.351677823935475e-16,1.427429557712722e-15,1.3223549088475892e-15,-0.35203826061926574,-0.35203826061926574,-0.061087,-0.09480185087891158,-2.070201958865319,0.0,-0.044284910244930725,-0.044284910244930725,-0.8932042648750292,-0.4375026931488606,0.08812174506105297,0.0,0.6743232728230604,0.6743232728230617,0.4286949936373681,-1.0287164968722136,-0.6254449999731676,0.0,0.3328989884731817,0.0035746626841434495,0.30143893672450445,0.3,0.0,0.3,-0.25,-0.03574454076849167,-0.014389367245044552,True,True,True,False,True,False,0
18.325913408,1772663264.8890662,0.005746675655245781,0.421773761510849,1.364782691001892,-0.012655341066420078,0.9618538618087769,-0.1252111792564392,-3.4240641980431974e-05,3.0293229150878858e-15,-3.4240641980431974e-05,4.3814158272245933e-16,1.5225915917543745e-15,1.3005469868293431e-15,-0.35292395882416433,-0.35292395882416433,-0.061087,-0.1035519047418888,-2.068439523964098,0.0,-0.03477550771834681,-0.03477550771834681,-0.8843581771472055,-0.45836485959386264,0.08082389599124018,0.0,0.47547012632919533,0.47547012632919533,0.44230438639118425,-1.0431083222501016,-0.36489245349063915,0.0,0.331692622502113,0.0035098420580173878,0.3012406046593405,0.3,0.0,0.3,-0.25,-0.03510028852503179,-0.012406775371726316,True,True,True,False,True,False,0
18.340351823,1772663264.9035046,0.00572174834087491,0.421773761510849,1.36476731300354,-0.01284708920866251,0.9620136618614197,-0.1252111792564392,-7.821124775889089e-16,3.0293229150878858e-15,1.173664310066846e-15,4.3814158272245933e-16,1.5225915917543745e-15,1.3005469868293431e-15,-0.35361946897853125,-0.35361946897853125,-0.061087,-0.11271920193376604,-2.066823046044273,0.0,-0.028165171767174063,-0.028165171767174063,-0.8752825168753288,-0.47929864077860534,0.0774377672508455,0.0,0.33051679755863794,0.33051679755863794,0.45378301359384005,-1.0466890592371372,-0.16930643701973425,0.0,0.31608023302012644,0.0011534753466043487,0.3003880608466315,0.3,0.0,0.3,-0.16080233020126428,-0.011534753466043381,-0.0038806084663150606,True,True,True,False,True,False,0
21.391099977,1772663267.9542527,0.00572174834087491,0.421773761510849,1.36476731300354,-0.01284708920866251,0.9620136618614197,-0.1252111792564392,-7.821124775889089e-16,3.0293229150878858e-15,1.173664310066846e-15,4.3814158272245933e-16,1.5225915917543745e-15,1.3005469868293431e-15,-0.35418277241387475,-0.35418277241387475,-0.061087,-0.12230517474933816,-2.0652742906992563,0.0,-0.023666342246298072,-0.023666342246298072,-0.8660212874190019,-0.5000820647007131,0.07695803722900996,0.0,0.22494147604379935,0.22494147604379935,0.46306147281634474,-1.039171196105389,-0.023986501091777225,0.0,0.31608023302012644,0.0011534753466043487,0.3003880608466315,0.3,0.0,0.3,-0.16080233020126428,-0.011534753466043381,-0.0038806084663150606,True,True,True,False,True,False,0
21.400112787,1772663267.9632654,-0.0020900487434118986,0.339713454246521,1.2526812553405762,-0.013230584561824799,0.9328520894050598,-0.13211409747600555,-7.989640921954148e-16,3.4240641980431974e-05,6.026924763938453e-16,4.3814158272245933e-16,1.4432899320127035e-15,1.2926168526189116e-15,-0.3546560992588007,-0.3546560992588007,-0.061087,-0.13230681604335243,-2.0637351299546762,0.0,-0.02070555429745813,-0.02070555429745813,-0.856621202365911,-0.5204857174538019,0.0786326657163654,0.0,0.14803939744199704,0.14803939744199704,0.47000425265454293,-1.0201826376544367,0.08373142436777219,0.0,0.29877414267355784,-0.0012860309818291406,0.29947324493499283,0.3,0.0,0.3,0.012261505027526735,0.012860171408568821,0.005267550650071603,True,True,True,False,True,False,0
