JLDominguezM/dreamteam-T3001B/M1-Kinematics/Lab2/src/xarm_ros2/xarm_perturbations/xarm_perturbations/results/challenge/trial_ctc_nopert_2026-03-04_16-26-32/trial_ctc_nopert_2026-03-04_16-26-32.csv
time,time_abs,q1,q2,q3,q4,q5,q6,qd1,qd2,qd3,qd4,qd5,qd6,q_des1,q_des2,q_des3,q_des4,q_des5,q_des6,qd_des1,qd_des2,qd_des3,qd_des4,qd_des5,qd_des6,qdd_des1,qdd_des2,qdd_des3,qdd_des4,qdd_des5,qdd_des6,px,py,pz,px_des,py_des,pz_des,cmd_x,cmd_y,cmd_z,sat1,sat2,sat3,sat4,sat5,sat6,pert_enabled
0.020218537,1772663192.8953717,0.0017218934372067451,-0.4300073981285095,0.5143284201622009,-0.010354369878768921,0.9744772911071777,-0.13345633447170258,-6.530924190631339e-16,4.4488224444692945e-15,2.7914178299837545e-15,4.0642094000161463e-16,1.173664310066846e-15,1.2569310369137327e-15,0.0,0.0,0.0,0.0,0.0,0.0,-6.959996380865218,-6.959996380865218,-1.008671869702779,-0.30555171499793077,-16.02316529057437,0.0,0.0,0.0,0.0,0.0,0.0,0.0,0.3781584354363655,0.11614687473986551,0.07802574519564906,0.5,0.0,0.3,0.25,-0.25,0.25,False,False,False,False,False,False,0
0.040316871,1772663192.9154701,0.0017218934372067451,-0.4300073981285095,0.5143284201622009,-0.010354369878768921,0.9744772911071777,-0.13345633447170258,-6.530924190631339e-16,4.4488224444692945e-15,2.7914178299837545e-15,4.0642094000161463e-16,1.173664310066846e-15,1.2569310369137327e-15,-0.13919992761730435,-0.13919992761730435,-0.02017343739405558,-0.006111034299958616,-0.32046330581148735,0.0,-4.274211281116906,-4.274211281116906,-0.9579262409016807,-0.20678577695937211,8.692973472726456,0.0,134.2892549874156,134.2892549874156,2.537281440054917,4.938296901927933,1235.8069381650412,0.0,0.3781584354363655,0.11614687473986551,0.07802574519564906,0.5,0.0,0.3,0.25,-0.25,0.25,False,False,False,False,False,False,0
0.060274025,1772663192.9354272,0.0017218934372067451,-0.4300073981285095,0.5143284201622009,-0.010354369878768921,0.9744772911071777,-0.13345633447170258,-6.530924190631339e-16,4.4488224444692945e-15,2.7914178299837545e-15,4.0642094000161463e-16,1.173664310066846e-15,1.2569310369137327e-15,-0.22468415323964247,-0.22468415323964247,-0.03933196221208919,-0.010246749839146058,-0.14660383635695823,0.0,-2.2098003721911956,-2.2098003721911956,-0.691085767898652,-0.053686004528164646,17.64330891176676,0.0,103.22054544628551,103.22054544628551,13.342023650151436,7.654988621560374,447.5167719520152,0.0,0.3781584354363655,0.11614687473986551,0.07802574519564906,0.5,0.0,0.3,0.25,-0.25,0.25,False,False,False,False,False,False,0
0.080393681,1772663192.9555469,0.0017218934372067451,-0.4300073981285095,0.5143284201622009,-0.010354369878768921,0.9744772911071777,-0.13345633447170258,-6.530924190631339e-16,4.4488224444692945e-15,2.7914178299837545e-15,4.0642094000161463e-16,1.173664310066846e-15,1.2569310369137327e-15,-0.2688801606834664,-0.2688801606834664,-0.05315367757006223,-0.01132046992970935,0.2062623418783769,0.0,-0.4292050184452781,-0.4292050184452781,-0.4853832444484714,0.20386089014849076,24.018322136048923,0.0,89.02976768729589,89.02976768729589,10.285126172509027,12.877344733832773,318.7506612141082,0.0,0.3781584354363655,0.11614687473986551,0.07802574519564906,0.5,0.0,0.3,0.25,-0.25,0.25,False,False,False,False,False,False,0
0.100402798,1772663192.9755561,0.0017218934372067451,-0.4300073981285095,0.5143284201622009,-0.010354369878768921,0.9744772911071777,-0.13345633447170258,-6.530924190631339e-16,4.4488224444692945e-15,2.7914178299837545e-15,4.0642094000161463e-16,1.173664310066846e-15,1.2569310369137327e-15,-0.27746426105237193,-0.27746426105237193,-0.061087,-0.007243252126739535,0.6866287845993555,0.0,0.9396964471966567,0.9396964471966567,-0.6415052535580638,0.8956053512540408,29.873148585670386,0.0,68.44507328209673,68.44507328209673,-7.806100455479616,34.5872230552775,292.7413224810731,0.0,0.3781584354363655,0.11614687473986551,0.07802574519564906,0.5,0.0,0.3,0.25,-0.25,0.25,False,False,False,False,False,False,0
0.120332509,1772663192.9954858,0.0017218934372067451,-0.4300073981285095,0.5143284201622009,-0.010354369878768921,0.9744772911071777,-0.13345633447170258,-6.530924190631339e-16,4.4488224444692945e-15,2.7914178299837545e-15,4.0642094000161463e-16,1.173664310066846e-15,1.2569310369137327e-15,-0.2586703321084388,-0.2586703321084388,-0.061087,0.010668854898341285,1.2840917563127632,0.0,-3.1417980902264384,-3.1417980902264384,-0.1299265208798436,-1.2845661184771184,-33.3877941954986,0.0,-204.07472687115472,-204.07472687115472,25.578936633911002,-109.00857348655795,-3163.0471390584485,0.0,0.3781584354363655,0.11614687473986551,0.07802574519564906,0.5,0.0,0.3,0.25,-0.25,0.25,False,False,False,False,False,False,0
0.140394696,1772663193.015548,0.0017218934372067451,-0.4300073981285095,0.5143284201622009,-0.010354369878768921,0.9744772911071777,-0.13345633447170258,-6.530924190631339e-16,4.4488224444692945e-15,2.7914178299837545e-15,4.0642094000161463e-16,1.173664310066846e-15,1.2569310369137327e-15,-0.32150629391296753,-0.32150629391296753,-0.061087,-0.015022467471201072,0.6163358724027915,0.0,1.8146767391213694,1.8146767391213694,-0.8250210826691344,1.6707976822394175,33.578389226103475,0.0,247.82374146739053,247.82374146739053,-34.75472808946456,147.76819003582688,3348.309171080105,0.0,0.3781584354363655,0.11614687473986551,0.07802574519564906,0.5,0.0,0.3,0.25,-0.25,0.25,False,False,False,False,False,False,0
0.160416455,1772663193.0355697,0.0017218934372067451,-0.4300073981285095,0.5143284201622009,-0.010354369878768921,0.9744772911071777,-0.13345633447170258,-6.530924190631339e-16,4.4488224444692945e-15,2.7914178299837545e-15,4.0642094000161463e-16,1.173664310066846e-15,1.2569310369137327e-15,-0.2852127591305401,-0.2852127591305401,-0.061087,0.01839348617358731,1.2879036569248616,0.0,-2.7476698982147996,-2.7476698982147996,0.18333024813090323,-2.0375330493040136,-34.12121435368942,0.0,-228.11733186680826,-228.11733186680826,50.417566540001836,-185.4165365771714,-3384.9801789896414,0.0,0.3781584354363655,0.11614687473986551,0.07802574519564906,0.5,0.0,0.3,0.25,-0.25,0.25,False,False,False,False,False,False,0
0.180293025,1772663193.0554464,0.0017218934372067451,-0.4300073981285095,0.5143284201622009,-0.010354369878768921,0.9744772911071777,-0.13345633447170258,-6.530924190631339e-16,4.4488224444692945e-15,2.7914178299837545e-15,4.0642094000161463e-16,1.173664310066846e-15,1.2569310369137327e-15,-0.3401661570948361,-0.3401661570948361,-0.05742039503738194,-0.022357174812492945,0.6054793698510736,0.0,2.1350588728594344,2.1350588728594344,-1.1049216816245677,2.4709452478391465,34.00384342259122,0.0,244.13643855371183,244.13643855371183,-64.41259648777357,225.4239148571581,3406.2528888140337,0.0,0.3781584354363655,0.11614687473986551,0.07802574519564906,0.5,0.0,0.3,0.25,-0.25,0.25,False,False,False,False,False,False,0
0.200359045,1772663193.0755124,0.0017218934372067451,-0.4300073981285095,0.5143284201622009,-0.010354369878768921,0.9744772911071777,-0.13345633447170258,-6.530924190631339e-16,4.4488224444692945e-15,2.7914178299837545e-15,4.0642094000161463e-16,1.173664310066846e-15,1.2569310369137327e-15,-0.29746497963764745,-0.29746497963764745,-0.061087,0.027061730144289958,1.2855562383028976,0.0,-2.553954970826373,-2.553954970826373,0.5374185307893414,-2.889571413759198,-34.22848703411664,0.0,-234.4506921842905,-234.4506921842905,82.1170106206955,-268.0258330799174,-3411.6165228353943,0.0,0.3781584354363655,0.11614687473986551,0.07802574519564906,0.5,0.0,0.3,0.25,-0.25,0.25,False,False,False,False,False,False,0
0.220346434,1772663193.0954995,0.0017218934372067451,-0.4300073981285095,0.5143284201622009,-0.010354369878768921,0.9744772911071777,-0.13345633447170258,-6.530924190631339e-16,4.4488224444692945e-15,2.7914178299837545e-15,4.0642094000161463e-16,1.173664310066846e-15,1.2569310369137327e-15,-0.34854407905417495,-0.34854407905417495,-0.050338629384213164,-0.030729698130894056,0.6009864976205641,0.0,2.267538158115712,2.267538158115712,-1.45924299851157,3.370537918199163,33.99177790178658,0.0,241.07465644710408,241.07465644710408,-99.8330764650455,313.0054665979178,3411.013246795158,0.0,0.3781584354363655,0.11614687473986551,0.07802574519564906,0.5,0.0,0.3,0.25,-0.25,0.25,False,False,False,False,False,False,0
0.240398299,1772663193.1155515,0.0017218934372067451,-0.4300073981285095,0.5143284201622009,-0.010354369878768921,0.9744772911071777,-0.13345633447170258,-6.530924190631339e-16,4.4488224444692945e-15,2.7914178299837545e-15,4.0642094000161463e-16,1.173664310066846e-15,1.2569310369137327e-15,-0.3031933158918607,-0.3031933158918607,-0.061087,0.036681060233089174,1.2808220556562953,0.0,-2.459662429921434,-2.459662429921434,0.937580434092366,-3.8524320999445085,-34.17962252134451,0.0,-236.36002940185742,-236.36002940185742,119.84117163019687,-361.14850090718375,-3408.5700211565563,0.0,0.3781584354363655,0.11614687473986551,0.07802574519564906,0.5,0.0,0.3,0.25,-0.25,0.25,False,False,False,False,False,False,0
0.260307019,1772663193.1354601,0.0017218934372067451,-0.4300073981285095,0.5143284201622009,-0.010354369878768921,0.9744772911071777,-0.13345633447170258,-6.530924190631339e-16,4.4488224444692945e-15,2.7914178299837545e-15,4.0642094000161463e-16,1.173664310066846e-15,1.2569310369137327e-15,-0.3523865644902894,-0.3523865644902894,-0.04233539131815269,-0.040367581765800964,0.5972296052294054,0.0,2.319458557683344,2.319458557683344,-1.855780756121633,4.377144445202609,33.85692772137167,0.0,238.956049380239,238.956049380239,-139.66805951070003,411.4788272573561,3401.8275121358106,0.0,0.3781584354363655,0.11614687473986551,0.07802574519564906,0.5,0.0,0.3,0.25,-0.25,0.25,False,False,False,False,False,False,0
0.280333019,1772663193.155486,0.0017218934372067451,-0.4300073981285095,0.5143284201622009,-0.010354369878768921,0.9744772911071777,-0.13345633447170258,-6.530924190631339e-16,4.4488224444692945e-15,2.7914178299837545e-15,4.0642094000161463e-16,1.173664310066846e-15,1.2569310369137327e-15,-0.30599739333662246,-0.30599739333662246,-0.061087,0.0471753071382513,1.2743681596568393,0.0,-2.4100852139102176,-2.4100852139102176,1.3854924636561312,-4.929799560178675,-34.06136094656398,0.0,-236.4771885796779,-236.4771885796779,162.06366098888807,-465.3472002690638,-3395.9144333967797,0.0,0.3781584354363655,0.11614687473986551,0.07802574519564906,0.5,0.0,0.3,0.25,-0.25,0.25,False,False,False,False,False,False,0
0.300415079,1772663193.175568,0.0017218934372067451,-0.4300073981285095,0.5143284201622009,-0.010354369878768921,0.9744772911071777,-0.13345633447170258,-6.530924190631339e-16,4.4488224444692945e-15,2.7914178299837545e-15,4.0642094000161463e-16,1.173664310066846e-15,1.2569310369137327e-15,-0.3541990976148269,-0.3541990976148269,-0.03337715072687736,-0.051420684065322284,0.593140940725559,0.0,2.3338508012682926,2.3338508012682926,-2.290586434409144,5.485540263263683,33.64502782604347,0.0,237.19680075892532,237.19680075892532,-183.80394490326358,520.7669911721175,3385.31943863037,0.0,0.3781584354363655,0.11614687473986551,0.07802574519564906,0.5,0.0,0.3,0.25,-0.25,0.25,False,False,False,False,False,False,0
0.320414984,1772663193.195568,0.0017218934372067451,-0.4300073981285095,0.5143284201622009,-0.010354369878768921,0.9744772911071777,-0.13345633447170258,-6.530924190631339e-16,4.4488224444692945e-15,2.7914178299837545e-15,4.0642094000161463e-16,1.173664310066846e-15,1.2569310369137327e-15,-0.3075220815894611,-0.3075220815894611,-0.061087,0.05829012119995117,1.2660414972464271,0.0,-2.378995076649461,-2.378995076649461,1.8772044742617746,-6.112218527896173,-33.88640531814235,0.0,-235.64229389588814,-235.64229389588814,208.3895454335463,-579.887939557994,-3376.571657209298,0.0,0.3781584354363655,0.11614687473986551,0.07802574519564906,0.5,0.0,0.3,0.25,-0.25,0.25,False,False,False,False,False,False,0
0.340379573,1772663193.2155328,0.0017218934372067451,-0.4300073981285095,0.5143284201622009,-0.010354369878768921,0.9744772911071777,-0.13345633447170258,-6.530924190631339e-16,4.4488224444692945e-15,2.7914178299837545e-15,4.0642094000161463e-16,1.173664310066846e-15,1.2569310369137327e-15,-0.35510198312245034,-0.35510198312245034,-0.023542910514764474,-0.0639542493579724,0.5883133908835795,0.0,2.3288404171535486,2.3288404171535486,-2.7542611183356134,6.675756222174544,33.35641199285713,0.0,235.3917746901503,235.3917746901503,-231.5732796298692,639.3987375035352,3362.1408655499713,0.0,0.3781584354363655,0.11614687473986551,0.07802574519564906,0.5,0.0,0.3,0.25,-0.25,0.25,False,False,False,False,False,False,0
0.36044913,1772663193.2356024,0.0017218934372067451,-0.4300073981285095,0.5143284201622009,-0.010354369878768921,0.9744772911071777,-0.13345633447170258,-6.530924190631339e-16,4.4488224444692945e-15,2.7914178299837545e-15,4.0642094000161463e-16,1.173664310066846e-15,1.2569310369137327e-15,-0.30852517477937935,-0.30852517477937935,-0.061087,0.0695608750855186,1.2554416307407226,0.0,-2.35464649330522,-2.35464649330522,2.403177011062629,-7.377026035716025,-33.6570501136829,0.0,-234.1743455229382,-234.1743455229382,257.8719064699119,-702.6391128945279,-3350.6731053269987,0.0,0.3781584354363655,0.11614687473986551,0.07802574519564906,0.5,0.0,0.3,0.25,-0.25,0.25,False,False,False,False,False,False,0
0.380304944,1772663193.255458,0.0017218934372067451,-0.4300073981285095,0.5143284201622009,-0.010354369878768921,0.9744772911071777,-0.13345633447170258,-6.530924190631339e-16,4.4488224444692945e-15,2.7914178299837545e-15,4.0642094000161463e-16,1.173664310066846e-15,1.2569310369137327e-15,-0.35561810464548366,-0.35561810464548366,-0.013023459778747512,-0.07797964562880162,0.5823006284670659,0.0,2.3121159894480736,2.3121159894480736,-3.230372118809651,7.911555902089592,32.985113109141444,0.0,233.33812413766512,233.33812413766512,-281.67745649361456,764.4290968902823,3332.1081611412233,0.0,0.3781584354363655,0.11614687473986551,0.07802574519564906,0.5,0.0,0.3,0.25,-0.25,0.25,False,False,False,False,False,False,0
0.400308042,1772663193.2754612,0.0017218934372067451,-0.4300073981285095,0.5143284201622009,-0.010354369878768921,0.9744772911071777,-0.13345633447170258,-6.530924190631339e-16,4.4488224444692945e-15,2.7914178299837545e-15,4.0642094000161463e-16,1.173664310066846e-15,1.2569310369137327e-15,-0.3093757848565222,-0.3093757848565222,-0.061087,0.08025147241299037,1.2420028906498954,0.0,-2.332711280729967,-2.332711280729967,2.9476234186039942,-8.686733356230416,-33.38165124450359,0.0,-232.24136350890186,-232.24136350890186,308.899776870682,-829.9144629159997,-3318.338217682249,0.0,0.3781584354363655,0.11614687473986551,0.07802574519564906,0.5,0.0,0.3,0.25,-0.25,0.25,False,False,False,False,False,False,0
0.420474637,1772663193.2956278,0.0017218934372067451,-0.4300073981285095,0.5143284201622009,-0.010354369878768921,0.9744772911071777,-0.13345633447170258,-6.530924190631339e-16,4.4488224444692945e-15,2.7914178299837545e-15,4.0642094000161463e-16,1.173664310066846e-15,1.2569310369137327e-15,-0.35603001047112154,-0.35603001047112154,-0.002134531627920065,-0.0934831947116181,0.5743698657598231,0.0,2.2869436486581036,2.2869436486581036,-3.693754029621205,9.137893778880937,32.52839234526933,0.0,230.98274646940334,230.98274646940334,-332.0688724112597,891.2313567555668,3295.5021794886434,0.0,0.3781584354363655,0.11614687473986551,0.07802574519564906,0.5,0.0,0.3,0.25,-0.25,0.25,False,False,False,False,False,False,0
0.440394417,1772663193.3155477,0.0017218934372067451,-0.4300073981285095,0.5143284201622009,-0.010546118021011353,0.9744772911071777,-0.13345633447170258,-6.530924190631339e-16,4.4488224444692945e-15,2.7914178299837545e-15,-0.0034240642562508583,1.173664310066846e-15,1.2569310369137327e-15,-0.31029113749795956,-0.31029113749795956,-0.061087,0.08927468086600028,1.2249377126652083,0.0,-2.3130016253232846,-2.3130016253232846,3.4874849410502393,-9.986639331595159,-33.07962146818163,0.0,-229.99726369906986,-229.99726369906986,359.0619485335729,-956.2266555238065,-3280.400690672554,0.0,0.3781701176921164,0.1161415412347271,0.07804903747732686,0.5,0.0,0.3,0.25,-0.25,0.25,False,False,False,False,False,False,0
0.460510735,1772663193.3356638,0.0017218934372067451,-0.4300073981285095,0.5143284201622009,-0.010546118021011353,0.9744772911071777,-0.13345633447170258,-6.530924190631339e-16,4.4488224444692945e-15,2.7914178299837545e-15,-0.0034240642562508583,1.173664310066846e-15,1.2569310369137327e-15,-0.35655117000442527,-0.35655117000442527,0.008662698821004844,-0.11045810576590308,0.5633452833015752,0.0,2.254748344045035,2.254748344045035,-4.108873332342571,10.278657663318192,31.98929954564541,0.0,228.3874984684158,228.3874984684158,-379.81791366964023,1013.2648497456665,3253.446050691349,0.0,0.3781701176921164,0.1161415412347271,0.07804903747732686,0.5,0.0,0.3,0.25,-0.25,0.25,False,False,False,False,False,False,0
0.48042123,1772663193.3555746,0.0017218934372067451,-0.4300073981285095,0.5143284201622009,-0.010546118021011353,0.9744772911071777,-0.13345633447170258,-6.530924190631339e-16,4.4488224444692945e-15,2.7914178299837545e-15,-0.0034240642562508583,1.173664310066846e-15,1.2569310369137327e-15,-0.3114562031235245,-0.3114562031235245,-0.061087,0.09511504750046094,1.203131274214484,0.0,-2.2974123310160994,-2.2974123310160994,3.9896440515813723,-11.198688366238772,-32.77496935456752,0.0,-227.60803375305653,-227.60803375305653,404.92586919619686,-1073.8673014778471,-3238.213445010643,0.0,0.3781701176921164,0.1161415412347271,0.07804903747732686,0.5,0.0,0.3,0.25,-0.25,0.25,False,False,False,False,False,False,0
0.500395595,1772663193.3755486,0.0017218934372067451,-0.4300073981285095,0.5143284201622009,-0.010546118021011353,0.9744772911071777,-0.13345633447170258,-6.530924190631339e-16,4.4488224444692945e-15,2.7914178299837545e-15,-0.0034240642562508583,1.173664310066846e-15,1.2569310369137327e-15,-0.35740444974384644,-0.35740444974384644,0.01870588103162729,-0.12885871982431407,0.5476318871231348,0.0,2.2163005115781584,2.2163005115781584,-4.429555853327272,11.236763070335241,31.37790070113829,0.0,225.6856421297133,225.6856421297133,-420.95999524543305,1121.7725718287027,3207.6435027852963,0.0,0.3781701176921164,0.1161415412347271,0.07804903747732686,0.5,0.0,0.3,0.25,-0.25,0.25,False,False,False,False,False,False,0
0.520407632,1772663193.3955607,0.0017218934372067451,-0.4300073981285095,0.5143284201622009,-0.010546118021011353,0.9744772911071777,-0.13345633447170258,-6.530924190631339e-16,4.4488224444692945e-15,2.7914178299837545e-15,-0.0034240642562508583,1.173664310066846e-15,1.2569310369137327e-15,-0.31307843951228326,-0.31307843951228326,-0.061087,0.09587654158239095,1.175189901145901,0.0,-2.286308967973103,-2.286308967973103,4.40187319349642,-12.201512387541452,-32.45791814558005,0.0,-225.13047397756287,-225.13047397756287,441.57145234118417,-1171.9137728938335,-3191.790942335914,0.0,0.3781701176921164,0.1161415412347271,0.07804903747732686,0.5,0.0,0.3,0.25,-0.25,0.25,False,False,False,False,False,False,0
0.540319337,1772663193.4154727,0.0017218934372067451,-0.4300073981285095,0.5143284201622009,-0.010546118021011353,0.9744772911071777,-0.13345633447170258,-6.530924190631339e-16,4.4488224444692945e-15,2.7914178299837545e-15,4.0642094000161463e-16,1.173664310066846e-15,1.2569310369137327e-15,-0.35880461887174536,-0.35880461887174536,0.02695046386992847,-0.14815370616843831,0.5260315382342994,0.0,2.1732092997550834,2.1732092997550834,-4.605706907219665,11.905240573357958,30.722977772920043,0.0,222.97591338640913,222.97591338640913,-450.37900503580386,1205.3376480449695,3159.0447959250023,0.0,0.3781701176921164,0.1161415412347271,0.07804903747732686,0.5,0.0,0.3,0.25,-0.25,0.25,False,False,False,False,False,False,0
0.560312551,1772663193.4354658,0.0017218934372067451,-0.4300073981285095,0.5143284201622009,-0.010546118021011353,0.9744772911071777,-0.13345633447170258,-6.530924190631339e-16,4.4488224444692945e-15,2.7914178299837545e-15,4.0642094000161463e-16,1.173664310066846e-15,1.2569310369137327e-15,-0.31534043287664365,-0.31534043287664365,-0.061087,0.08995110529872105,1.1404910936927006,0.0,-2.2693965829282075,-2.2693965829282075,4.6328426793426765,-12.784524041777797,-31.977170041892368,0.0,-222.13029413416433,-222.13029413416433,461.9274793281167,-1234.4882307567866,-3135.0073907406177,0.0,0.3781701176921164,0.1161415412347271,0.07804903747732686,0.5,0.0,0.3,0.25,-0.25,0.25,False,False,False,False,False,False,0
0.580307679,1772663193.4554608,0.0017218934372067451,-0.4300073981285095,0.5143284201622009,-0.010546118021011353,0.9744772911071777,-0.13345633447170258,-6.530924190631339e-16,4.4488224444692945e-15,2.7914178299837545e-15,4.0642094000161463e-16,1.173664310066846e-15,1.2569310369137327e-15,-0.36072836453520785,-0.36072836453520785,0.0315698535868536,-0.16573937553683513,0.5009476928548527,0.0,2.1327418749044007,2.1327418749044007,-4.612397735125123,12.213247860725946,30.124936705249773,0.0,220.1069228916302,220.1069228916302,-462.2620207233896,1249.888595125186,3105.1053373571044,0.0,0.3781701176921164,0.1161415412347271,0.07804903747732686,0.5,0.0,0.3,0.25,-0.25,0.25,False,False,False,False,False,False,0
0.600402066,1772663193.4755554,0.0017218934372067451,-0.4300073981285095,0.5143284201622009,-0.010546118021011353,0.9744772911071777,-0.13345633447170258,-6.530924190631339e-16,4.4488224444692945e-15,2.7914178299837545e-15,4.0642094000161463e-16,1.173664310066846e-15,1.2569310369137327e-15,-0.31807352703712005,-0.31807352703712005,-0.06067810111564843,0.07852558167768267,1.1034464269598454,0.0,-2.2187143971229983,-2.2187143971229983,4.567936518221116,-12.679813628313893,-31.00095888787646,0.0,-217.57281360137094,-217.57281360137094,459.01671266731404,-1244.6530744519978,-3056.2947796563258,0.0,0.3781701176921164,0.1161415412347271,0.07804903747732686,0.5,0.0,0.3,0.25,-0.25,0.25,False,False,False,False,False,False,0
0.620319637,1772663193.495473,0.0017218934372067451,-0.4300073981285095,0.5143284201622009,-0.010546118021011353,0.9744772911071777,-0.13345633447170258,-6.530924190631339e-16,4.4488224444692945e-15,2.7914178299837545e-15,4.0642094000161463e-16,1.173664310066846e-15,1.2569310369137327e-15,-0.36244781497958006,-0.36244781497958006,0.030680629248773975,-0.17507069088859542,0.4834272492023156,0.0,2.114008156433551,2.114008156433551,-4.511093574799538,12.213975675005623,29.817656608445095,0.0,216.6361276778273,216.6361276778273,-453.9515046510324,1244.6894651659748,3040.930774816075,0.0,0.3781701176921164,0.1161415412347271,0.07804903747732686,0.5,0.0,0.3,0.25,-0.25,0.25,False,False,False,False,False,False,0
0.640301903,1772663193.515455,0.0017218934372067451,-0.4300073981285095,0.5143284201622009,-0.010546118021011353,0.9744772911071777,-0.13345633447170258,-6.530924190631339e-16,4.4488224444692945e-15,2.7914178299837545e-15,4.0642094000161463e-16,1.173664310066846e-15,1.2569310369137327e-15,-0.320167651850909,-0.320167651850909,-0.05954124224721688,0.06920882261151726,1.0797803813712181,0.0,-2.1504895309864245,-2.1504895309864245,4.327911094929236,-12.149704131629314,-29.931065015304494,0.0,-213.22488437099858,-213.22488437099858,441.9502334864383,-1218.1839903317457,-2987.4360811874767,0.0,0.3781701176921164,0.1161415412347271,0.07804903747732686,0.5,0.0,0.3,0.25,-0.25,0.25,False,False,False,False,False,False,0
0.660429187,1772663193.5355825,0.0017218934372067451,-0.4300073981285095,0.5143284201622009,-0.010546118021011353,0.9744772911071777,-0.13345633447170258,-6.530924190631339e-16,4.4488224444692945e-15,2.7914178299837545e-15,4.0642094000161463e-16,1.173664310066846e-15,1.2569310369137327e-15,-0.36317744247063755,-0.36317744247063755,0.02701697965136793,-0.17378526002106923,0.4811590810651277,0.0,2.123456481695072,2.123456481695072,-4.425303382996478,12.079844336477171,29.874147004185296,0.0,213.69730063407462,213.69730063407462,-437.6607238962853,1211.4774234053232,2990.260600974487,0.0,0.3781701176921164,0.1161415412347271,0.07804903747732686,0.5,0.0,0.3,0.25,-0.25,0.25,False,False,False,False,False,False,0
0.680424118,1772663193.5555773,0.0017218934372067451,-0.4300073981285095,0.5143284201622009,-0.010546118021011353,0.9744772911071777,-0.13345633447170258,-6.530924190631339e-16,4.4488224444692945e-15,2.7914178299837545e-15,4.0642094000161463e-16,1.173664310066846e-15,1.2569310369137327e-15,-0.32070831283673606,-0.32070831283673606,-0.061087,0.0678116267084744,1.0786420211488341,0.0,-2.144989003851658,-2.144989003851658,4.261256970703777,-11.978451558366263,-29.924033170689114,0.0,-213.4222742773363,-213.4222742773363,434.32801768501236,-1202.9147947421704,-2989.909008743718,0.0,0.3781701176921164,0.1161415412347271,0.07804903747732686,0.5,0.0,0.3,0.25,-0.25,0.25,False,False,False,False,False,False,0
0.700429205,1772663193.5755825,0.0017218934372067451,-0.4300073981285095,0.5143284201622009,-0.010546118021011353,0.9744772911071777,-0.13345633447170258,-6.530924190631339e-16,4.4488224444692945e-15,2.7914178299837545e-15,4.0642094000161463e-16,1.173664310066846e-15,1.2569310369137327e-15,-0.3636080929137693,-0.3636080929137693,0.024138139414075624,-0.17175740445885107,0.4801613577350513,0.0,2.1311957769165217,2.1311957769165217,-4.352836230867512,11.937767228963137,29.94917210034542,0.0,213.8092390384088,213.8092390384088,-430.70466007856413,1195.8109393664688,2993.6602635517243,0.0,0.3781701176921164,0.1161415412347271,0.07804903747732686,0.5,0.0,0.3,0.25,-0.25,0.25,False,False,False,False,False,False,0
0.72029821,1772663193.5954514,0.0017218934372067451,-0.4300073981285095,0.5143284201622009,-0.010546118021011353,0.9744772911071777,-0.13345633447170258,-6.530924190631339e-16,4.4488224444692945e-15,2.7914178299837545e-15,4.0642094000161463e-16,1.173664310066846e-15,1.2569310369137327e-15,-0.32098417737543883,-0.32098417737543883,-0.061087,0.06699794012041188,1.0791447997419603,0.0,-2.1463180577844825,-2.1463180577844825,4.203109833261225,-11.837890345979867,-29.998650053544367,0.0,-213.87569173505003,-213.87569173505003,427.7973032064364,-1188.7828787471492,-2997.391107694487,0.0,0.3781701176921164,0.1161415412347271,0.07804903747732686,0.5,0.0,0.3,0.25,-0.25,0.25,False,False,False,False,False,False,0
0.740373913,1772663193.6155272,0.0017218934372067451,-0.4300073981285095,0.5143284201622009,-0.010546118021011353,0.9744772911071777,-0.13345633447170258,-6.530924190631339e-16,4.4488224444692945e-15,2.7914178299837545e-15,4.0642094000161463e-16,1.173664310066846e-15,1.2569310369137327e-15,-0.36391053853112826,-0.36391053853112826,0.0229751966652241,-0.16975986679918434,0.47917179867107573,0.0,2.1362177712042643,2.1362177712042643,-4.297282287590283,11.787934579435177,30.01126831473095,0.0,214.12679144943837,214.12679144943837,-425.0196060425774,1181.2912462707577,3000.4959184137797,0.0,0.3781701176921164,0.1161415412347271,0.07804903747732686,0.5,0.0,0.3,0.25,-0.25,0.25,False,False,False,False,False,False,0
0.760263426,1772663193.6354165,0.0017218934372067451,-0.4300073981285095,0.5143284201622009,-0.010546118021011353,0.9744772911071777,-0.13345633447170258,-6.530924190631339e-16,4.4488224444692945e-15,2.7914178299837545e-15,4.0642094000161463e-16,1.173664310066846e-15,1.2569310369137327e-15,-0.32118618310704294,-0.32118618310704294,-0.061087,0.0659988247895194,1.0793971649656953,0.0,-2.1486113544404883,-2.1486113544404883,4.1361177953005575,-11.67650963410965,-30.06212280069887,0.0,-214.24145628223744,-214.24145628223744,421.6700041445417,-1173.2222106772404,-3003.669555771488,0.0,0.3781701176921164,0.1161415412347271,0.07804903747732686,0.5,0.0,0.3,0.25,-0.25,0.25,False,False,False,False,False,False,0
0.780363543,1772663193.6555166,0.0017218934372067451,-0.4300073981285095,0.5143284201622009,-0.010546118021011353,0.9744772911071777,-0.13345633447170258,-6.530924190631339e-16,4.4488224444692945e-15,2.7914178299837545e-15,4.0642094000161463e-16,1.173664310066846e-15,1.2569310369137327e-15,-0.36415841019585277,-0.36415841019585277,0.02163535590601122,-0.16753136789267378,0.4781547089517173,0.0,2.1404851592505807,2.1404851592505807,-4.236057408814129,11.62359777637376,30.079694717580296,0.0,214.45482568455327,214.45482568455327,-418.608760205734,1165.0053705241694,3007.0908759139556,0.0,0.3781701176921164,0.1161415412347271,0.07804903747732686,0.5,0.0,0.3,0.25,-0.25,0.25,False,False,False,False,False,False,0
0.800312095,1772663193.675465,0.0017218934372067451,-0.4300073981285095,0.5143284201622009,-0.010546118021011353,0.9744772911071777,-0.13345633447170258,-6.530924190631339e-16,4.4488224444692945e-15,2.7914178299837545e-15,4.0642094000161463e-16,1.173664310066846e-15,1.2569310369137327e-15,-0.3213487070108411,-0.3213487070108411,-0.061087,0.06494058763480162,1.0797486033033237,0.0,-2.152151437833549,-2.152151437833549,4.063843402066665,-11.502323831490854,-30.13484264111442,0.0,-214.6318298542063,-214.6318298542063,414.9950405440393,-1156.2960803932297,-3010.726867934733,0.0,0.3781701176921164,0.1161415412347271,0.07804903747732686,0.5,0.0,0.3,0.25,-0.25,0.25,False,False,False,False,False,False,0
0.820272359,1772663193.6954255,0.0017218934372067451,-0.4300073981285095,0.5143284201622009,-0.010546118021011353,0.9744772911071777,-0.13345633447170258,-6.530924190631339e-16,4.4488224444692945e-15,2.7914178299837545e-15,4.0642094000161463e-16,1.173664310066846e-15,1.2569310369137327e-15,-0.36439173576751216,-0.36439173576751216,0.020189868041333367,-0.16510588899501566,0.47705175048103476,0.0,2.1444629751340734,2.1444629751340734,-4.169609427488297,11.44455000045066,30.152548048123595,0.0,214.83072064838095,214.83072064838095,-411.67264147774773,1147.3436915970747,3014.369534461898,0.0,0.3781701176921164,0.1161415412347271,0.07804903747732686,0.5,0.0,0.3,0.25,-0.25,0.25,False,False,False,False,False,False,0
0.84026286,1772663193.715416,0.0017218934372067451,-0.4300073981285095,0.5143284201622009,-0.010546118021011353,0.9744772911071777,-0.13345633447170258,-6.530924190631339e-16,4.4488224444692945e-15,2.7914178299837545e-15,4.0642094000161463e-16,1.173664310066846e-15,1.2569310369137327e-15,-0.32150247626483064,-0.32150247626483064,-0.061087,0.06378511101399773,1.0801027114435073,0.0,-2.1562069476986876,-2.1562069476986876,3.9849989971256403,-11.31240103736105,-30.21126265849916,0.0,-215.03349614163784,-215.03349614163784,407.7304212306965,-1137.8475518905846,-3018.1905353311354,0.0,0.3781701176921164,0.1161415412347271,0.07804903747732686,0.5,0.0,0.3,0.25,-0.25,0.25,False,False,False,False,False,False,0
0.860293592,1772663193.7354467,0.0017218934372067451,-0.4300073981285095,0.5143284201622009,-0.010546118021011353,0.9744772911071777,-0.13345633447170258,-6.530924190631339e-16,4.4488224444692945e-15,2.7914178299837545e-15,4.0642094000161463e-16,1.173664310066846e-15,1.2569310369137327e-15,-0.3646266152188042,-0.3646266152188042,0.01861297994251243,-0.16246290973322222,0.475877458273527,0.0,2.1484632331230413,2.1484632331230413,-4.0975724291782205,11.250087420085254,30.23026496780919,0.0,215.23350904108744,215.23350904108744,-404.12857131519496,1128.1244228723206,3022.0763813154317,0.0,0.3781701176921164,0.1161415412347271,0.07804903747732686,0.5,0.0,0.3,0.25,-0.25,0.25,False,False,False,False,False,False,0
0.880287905,1772663193.7554412,0.0017218934372067451,-0.4300073981285095,0.5143284201622009,-0.010546118021011353,0.9744772911071777,-0.13345633447170258,-6.530924190631339e-16,4.4488224444692945e-15,2.7914178299837545e-15,4.0642094000161463e-16,1.173664310066846e-15,1.2569310369137327e-15,-0.3216573505563433,-0.3216573505563433,-0.061087,0.06253883866848306,1.0804827576297114,0.0,-2.1606651915853305,-2.1606651915853305,3.899641211785042,-11.106852121827577,-30.292665970344316,0.0,-215.4564212354184,-215.4564212354184,399.86068204816274,-1117.8469770956406,-3026.1465469076725,0.0,0.3781701176921164,0.1161415412347271,0.07804903747732686,0.5,0.0,0.3,0.25,-0.25,0.25,False,False,False,False,False,False,0
0.900285886,1772663193.775439,0.0017218934372067451,-0.4300073981285095,0.5143284201622009,-0.010546118021011353,0.9744772911071777,-0.13345633447170258,-6.530924190631339e-16,4.4488224444692945e-15,2.7914178299837545e-15,4.0642094000161463e-16,1.173664310066846e-15,1.2569310369137327e-15,-0.36487065438804994,-0.36487065438804994,0.016905824235700903,-0.15959820376806869,0.47462943822282444,0.0,2.152592609493368,2.152592609493368,-4.019866900227195,11.03980996933471,30.312528044316064,0.0,215.66289005393475,215.66289005393475,-395.9754056006115,1107.3331045581133,3030.2597007330164,0.0,0.3781701176921164,0.1161415412347271,0.07804903747732686,0.5,0.0,0.3,0.25,-0.25,0.25,False,False,False,False,False,False,0
0.920379939,1772663193.795533,0.0017218934372067451,-0.4300073981285095,0.5143284201622009,-0.010546118021011353,0.9744772911071777,-0.13345633447170258,-6.530924190631339e-16,4.4488224444692945e-15,2.7914178299837545e-15,4.0642094000161463e-16,1.173664310066846e-15,1.2569310369137327e-15,-0.32181880219818254,-0.32181880219818254,-0.061087,0.06119799561862571,1.0808799991091462,0.0,-2.165398890793455,-2.1653988907934547,3.80755832555205,-10.88519337687222,-30.378382249237468,0.0,-215.89957501434094,-215.89957501434094,391.37126128896193,-1096.2501673103454,-3034.545514677674,0.0,0.3781701176921164,0.1161415412347271,0.07804903747732686,0.5,0.0,0.3,0.25,-0.25,0.25,False,False,False,False,False,False,0
0.940379909,1772663193.8155332,0.0017218934372067451,-0.4300073981285095,0.5143284201622009,-0.010546118021011353,0.9744772911071777,-0.13345633447170258,-6.530924190631339e-16,4.4488224444692945e-15,2.7914178299837545e-15,4.0642094000161463e-16,1.173664310066846e-15,1.2569310369137327e-15,-0.3651267800140517,-0.3651267800140517,0.01506416651104106,-0.15650587191881887,0.4733123541243963,0.0,2.1568983001151274,2.1568983001151274,-3.936425420425815,10.813456739116788,30.39908577455342,0.0,216.1148595454289,216.1148595454289,-387.19918729889287,1084.9325057994495,3038.8734011895417,0.0,0.3781701176921164,0.1161415412347271,0.07804903747732686,0.5,0.0,0.3,0.25,-0.25,0.25,False,False,False,False,False,False,0
0.960324415,1772663193.8354776,0.0017218934372067451,-0.4300073981285095,0.5143284201622009,-0.010546118021011353,0.9744772911071777,-0.13345633447170258,-6.530924190631339e-16,4.4488224444692945e-15,2.7914178299837545e-15,4.0642094000161463e-16,1.173664310066846e-15,1.2569310369137327e-15,-0.3219888140117491,-0.3219888140117491,-0.061087,0.059763262863517075,1.0812940696154651,0.0,-2.170349325643653,-2.170349325643653,3.7087200315653357,-10.647364054415059,-30.468139674803133,0.0,-216.3623812879388,-216.3623812879388,382.2572725995572,-1073.0410396765913,-3043.361272467825,0.0,0.3781701176921164,0.1161415412347271,0.07804903747732686,0.5,0.0,0.3,0.25,-0.25,0.25,False,False,False,False,False,False,0
0.980334413,1772663193.8554876,0.0017218934372067451,-0.4300073981285095,0.5143284201622009,-0.010546118021011353,0.9744772911071777,-0.13345633447170258,-6.530924190631339e-16,4.4488224444692945e-15,2.7914178299837545e-15,4.0642094000161463e-16,1.173664310066846e-15,1.2569310369137327e-15,-0.36539580052462195,-0.36539580052462195,0.013087400631306367,-0.15318401822478311,0.47193127611940533,0.0,2.1613877494644878,2.1613877494644878,-3.847282340485166,10.571003900400758,30.489523327839663,0.0,216.58685375540804,216.58685375540804,-377.8001186025269,1060.9183977407959,3047.8831501321542,0.0,0.3781701176921164,0.1161415412347271,0.07804903747732686,0.5,0.0,0.3,0.25,-0.25,0.25,False,False,False,False,False,False,0
1.000438721,1772663193.875592,0.0017218934372067451,-0.4300073981285095,0.5143284201622009,-0.010546118021011353,0.9744772911071777,-0.13345633447170258,-6.530924190631339e-16,4.4488224444692945e-15,2.7914178299837545e-15,4.0642094000161463e-16,1.173664310066846e-15,1.2569310369137327e-15,-0.3221680455353322,-0.3221680455353322,-0.061087,0.058236059783232236,1.0817217426761991,0.0,-2.1754633074272913,-2.1754633074272913,3.6031759769620137,-10.393499265059832,-30.561409367766178,0.0,-216.8425528445888,-216.8425528445888,372.5229158723587,-1048.2251582730287,-3052.546634780289,0.0,0.3781701176921164,0.1161415412347271,0.07804903747732686,0.5,0.0,0.3,0.25,-0.25,0.25,False,False,False,False,False,False,0
1.020243183,1772663193.8953965,0.0017218934372067451,-0.4300073981285095,0.5143284201622009,-0.010546118021011353,0.9744772911071777,-0.13345633447170258,-6.530924190631339e-16,4.4488224444692945e-15,2.7914178299837545e-15,4.0642094000161463e-16,1.173664310066846e-15,1.2569310369137327e-15,-0.36567731168387807,-0.36567731168387807,0.010976519539240337,-0.1496339255179646,0.470493555320875,0.0,2.16605019597566,2.16605019597566,-3.752564757540751,10.312684831176053,30.583323437182482,0.0,217.07567517014738,217.07567517014738,-367.7870367251379,1035.3092048117935,3057.2366402474304,0.0,0.3781701176921164,0.1161415412347271,0.07804903747732686,0.5,0.0,0.3,0.25,-0.25,0.25,False,False,False,False,False,False,0
1.040269051,1772663193.9154222,0.0017218934372067451,-0.4300073981285095,0.5143284201622009,-0.010546118021011353,0.9744772911071777,-0.13345633447170258,-6.530924190631339e-16,4.4488224444692945e-15,2.7914178299837545e-15,4.0642094000161463e-16,1.173664310066846e-15,1.2569310369137327e-15,-0.32235630776436486,-0.32235630776436486,-0.061087,0.05661977110555666,1.082160024064525,0.0,-2.1808818945773596,-2.1808818945773596,3.4913632131141847,-10.124664435301455,-30.659452548535953,0.0,-217.3466045276508,-217.3466045276508,362.19639853274646,-1021.8674633238745,-3062.138799285919,0.0,0.3781701176921164,0.1161415412347271,0.07804903747732686,0.500000394024,-2.955180000000008e-07,0.3,0.25,-0.25,0.25,False,False,False,False,False,False,0
1.060249911,1772663193.935403,0.0017218934372067451,-0.4300073981285095,0.5143284201622009,-0.010546118021011353,0.9744772911071777,-0.13345633447170258,-6.530924190631339e-16,4.4488224444692945e-15,2.7914178299837545e-15,4.0642094000161463e-16,1.173664310066846e-15,1.2569310369137327e-15,-0.36597394565591207,-0.36597394565591207,0.008740264262283748,-0.14587351760047262,0.4689709730938054,0.0,2.1711359928317484,2.1711359928317484,-3.6530546071194183,10.04125929762337,30.68705059192207,0.0,217.6008943704552,217.6008943704552,-357.22089101167984,1008.2961866462404,3067.3251570228986,0.0,0.3781701176921164,0.1161415412347271,0.07804903747732686,0.500003104768,-2.3285760000000057e-06,0.3,0.25,-0.25,0.25,False,False,False,False,False,False,0
1.080285472,1772663193.9554386,0.0017218934372067451,-0.4300073981285095,0.5143284201622009,-0.010546118021011353,0.9744772911071777,-0.13345633447170258,-6.530924190631339e-16,4.4488224444692945e-15,2.7914178299837545e-15,4.0642094000161463e-16,1.173664310066846e-15,1.2569310369137327e-15,-0.3225512257992771,-0.3225512257992771,-0.061087,0.05495166835199494,1.0827119849322475,0.0,-2.188215876240815,-2.188215876240815,3.376374786797505,-9.848170518110784,-30.781304397496417,0.0,-217.96759345362798,-217.96759345362798,351.4714696958459,-994.4714907867068,-3073.4177494709215,0.0,0.3781701176921164,0.1161415412347271,0.07804903747732686,0.500010319832,-7.739874000000021e-06,0.3,0.25,-0.25,0.25,False,False,False,False,False,False,0
1.100451818,1772663193.975605,0.0017218934372067451,-0.4300073981285095,0.5143284201622009,-0.010546118021011353,0.9744772911071777,-0.13345633447170258,-6.530924190631339e-16,4.4488224444692945e-15,2.7914178299837545e-15,4.0642094000161463e-16,1.173664310066846e-15,1.2569310369137327e-15,-0.36631554332409344,-0.36631554332409344,0.006440495735950166,-0.1420117420102209,0.4670858969823186,0.0,2.176772379880628,2.176772379880628,-3.5490108055404264,9.75914600169596,30.806389996774115,0.0,218.24941280607194,218.24941280607194,-346.2692796168963,980.3658259903364,3079.3847197135237,0.0,0.3781701176921164,0.1161415412347271,0.07804903747732686,0.500024088576,-1.8066432000000045e-05,0.3,0.25,-0.25,0.25,False,False,False,False,False,False,0
1.120406589,1772663193.9955597,0.0017218934372067451,-0.4300073981285095,0.5143284201622009,-0.010546118021011353,0.9744772911071777,-0.13345633447170258,-6.530924190631339e-16,4.4488224444692945e-15,2.7914178299837545e-15,4.0642094000161463e-16,1.173664310066846e-15,1.2569310369137327e-15,-0.32278009572648086,-0.32278009572648086,-0.061087,0.05317117802369847,1.0832136969178014,0.0,-2.1973236914241703,-2.1973236914241703,3.2566053676795197,-9.560428099586757,-30.92444966115074,0.0,-218.70480356523973,-218.70480356523973,340.28080866099697,-965.978705064135,-3086.54198289624,0.0,0.3781701176921164,0.1161415412347271,0.07804903747732686,0.500046325,-3.474375000000009e-05,0.3,0.25,-0.25,0.25,False,False,False,False,False,False,0
1.140268728,1772663194.0154219,0.000862864195369184,-0.42929986119270325,0.5154252052307129,-0.010546118021011353,0.9744772911071777,-0.13383983075618744,-0.015339807607233524,0.012634797021746635,0.01958564668893814,4.0642094000161463e-16,1.173664310066846e-15,-0.006848128512501717,-0.3667265695549643,-0.3667265695549643,0.004045107353590455,-0.13803738396803683,0.46472470369478613,0.0,2.183238758890982,2.183238758890982,-3.439274021744847,9.464403528539371,30.9448409531147,0.0,219.0281225157574,219.0281225157574,-334.793969471218,951.2415814063056,3093.464530713269,0.0,0.15023206695134964,-0.0004153699917337001,0.30018948200910645,0.5000788106240001,-5.910796800000016e-05,0.3,0.25,0.0016038581947996173,-0.00015798379304521977,False,False,False,False,False,False,0
1.160347355,1772663194.0355005,0.000862864195369184,-0.42929986119270325,0.5154252052307129,-0.010546118021011353,0.9744772911071777,-0.13383983075618744,-0.015339807607233524,0.012634797021746635,0.01958564668893814,4.0642094000161463e-16,1.173664310066846e-15,-0.006848128512501717,-0.3230617943771446,-0.3230617943771446,-0.061087,0.051250686602750756,1.0836215227570807,0.0,-2.2082839163466703,-2.2082839163466703,3.1307022430740035,-9.258288150991445,-31.091291271524128,0.0,-219.57613376188243,-219.57613376188243,328.4988132409422,-936.1345839765401,-3101.8066112319384,0.0,0.15023206695134964,-0.0004153699917337001,0.30018948200910645,0.5001231973679999,-9.239802600000023e-05,0.3,0.25,0.0006525833647996161,-0.00015798379304521977,False,False,False,False,False,False,0
1.180355819,1772663194.055509,0.000862864195369184,-0.42929986119270325,0.5154252052307129,-0.010546118021011353,0.9744772911071777,-0.13383983075618744,-0.015339807607233524,0.012634797021746635,0.01958564668893814,4.0642094000161463e-16,1.173664310066846e-15,-0.006848128512501717,-0.3672274727040776,-0.3672274727040776,0.0015270448614794208,-0.13391507641707626,0.4617956973266045,0.0,2.190763310124095,2.190763310124095,-3.3226066875083684,9.154022231611878,31.10543264614091,0.0,219.95236132354052,219.95236132354052,-322.6654465291219,920.6155191301756,3109.836195883284,0.0,0.15023206695134964,-0.0004153699917337001,0.30018948200910645,0.5001810104319999,-0.0001357578239999998,0.3,0.25,-0.0004707003652003718,-0.00015798379304521977,False,False,False,False,False,False,0
1.200473932,1772663194.075627,0.000862864195369184,-0.42929986119270325,0.5154252052307129,-0.010546118021011353,0.9744772911071777,-0.13383983075618744,-0.015339807607233524,0.012634797021746635,0.01958564668893814,4.0642094000161463e-16,1.173664310066846e-15,-0.006848128512501717,-0.32341220650159563,-0.32341220650159563,-0.061087,0.04916536821516146,1.0839043502494232,0.0,-2.221172327705613,-2.221172327705613,2.997019483390636,-8.937887749170207,-31.284143151468516,0.0,-220.5967818914852,-220.5967818914852,315.98130854494997,-904.5954990391034,-3119.4787898804684,0.0,0.15023206695134964,-0.0004153699917337001,0.30018948200910645,0.500253651176,-0.00019023838199999982,0.3,0.25,-0.0017705361952003737,-0.00015798379304521977,False,False,False,False,False,False,0
1.220366819,1772663194.09552,0.000862864195369184,-0.42929986119270325,0.5154252052307129,-0.010546118021011353,0.9744772911071777,-0.13383983075618744,-0.015339807607233524,0.012634797021746635,0.01958564668893814,4.0642094000161463e-16,1.173664310066846e-15,-0.006848128512501717,-0.3678356530557079,-0.3678356530557079,-0.0011466103321872353,-0.12959238676824283,0.4582214872200523,0.0,2.1995152092901913,2.1995152092901913,-3.197619510869883,8.824225811910603,31.290508994839026,0.0,221.03437684979002,221.03437684979002,-309.73194971302564,888.1056780540397,3128.7326073153745,0.0,0.15023206695134964,-0.0004153699917337001,0.30018948200910645,0.5003424,-0.00025679999999999985,0.3,0.25,-0.0032507005252003732,-0.00015798379304521977,False,False,False,False,False,False,0
1.240385637,1772663194.1155386,-0.028298109769821167,-0.3958207368850708,0.5593277215957642,-0.010546118021011353,0.9819874167442322,-0.15972575545310974,-0.3188488781452179,0.43376046419143677,0.5237448811531067,0.0616331584751606,0.08560160547494888,-0.27734920382499695,-0.32384534886990407,-0.32384534886990407,-0.061087,0.046892129469969374,1.0840316671168333,0.0,-2.2359990999298716,-2.2359990999298716,2.853659626756718,-8.594766037172898,-31.504371864263128,0.0,-221.77571546100293,-221.77571546100293,302.5639568813298,-870.9495924541743,-3139.7440429551048,0.0,0.15711765764757496,-0.00499517505960098,0.3053288640442396,0.500448419224,-0.0003363144179999999,0.3,0.25,0.017625016846549383,-0.005338922552987145,False,False,False,False,False,False,0
1.260304108,1772663194.1354573,-0.028298109769821167,-0.3958207368850708,0.5593277215957642,-0.010546118021011353,0.9819874167442322,-0.15972575545310974,-0.3188488781452179,0.43376046419143677,0.5237448811531067,0.0616331584751606,0.08560160547494888,-0.27734920382499695,-0.3685653308685015,-0.3685653308685015,-0.004013807464865592,-0.12500319127348872,0.45394422983157023,0.0,2.209611962020852,2.209611962020852,-3.0628996403940203,8.470839059621422,31.501655191872356,0.0,222.28055309753597,222.28055309753597,-295.82796335753665,853.2802548397153,3150.3013528067713,0.0,0.15711765764757496,-0.00499517505960098,0.3053288640442396,0.500572755968,-0.00042956697599999994,0.3,0.25,0.015775825516549383,-0.005338922552987145,False,False,False,False,False,False,0
1.280339942,1772663194.155493,-0.028298109769821167,-0.3958207368850708,0.5593277215957642,-0.010546118021011353,0.9819874167442322,-0.15972575545310974,-0.3188488781452179,0.43376046419143677,0.5237448811531067,0.0616331584751606,0.08560160547494888,-0.27734920382499695,-0.3243730916280844,-0.3243730916280844,-0.061087,0.04441358991893987,1.083977333669018,0.0,-2.2527095676127726,-2.2527095676127726,2.698699015092223,-8.224397619222756,-31.752470597438126,0.0,-223.11607648168106,-223.11607648168106,288.0799327743119,-834.7618339422082,-3162.706289465521,0.0,0.15711765764757496,-0.00499517505960098,0.3053288640442396,0.5007163450319999,-0.000537258774,0.3,0.25,0.01373936128654938,-0.005338922552987145,False,False,False,False,False,False,0
1.300317399,1772663194.1754706,-0.028298109769821167,-0.3958207368850708,0.5593277215957642,-0.010546118021011353,0.9819874167442322,-0.15972575545310974,-0.3188488781452179,0.43376046419143677,0.5237448811531067,0.0616331584751606,0.08560160547494888,-0.27734920382499695,-0.3694272829803399,-0.3694272829803399,-0.007113019698155497,-0.1200743624655154,0.44892792172025486,0.0,2.2211168083816117,2.2211168083816117,-2.9171934358503275,8.089769473523903,31.739551946952087,0.0,223.69131879971906,223.69131879971906,-280.7946225471273,815.7083546373321,3174.601127219508,0.0,0.15711765764757496,-0.00499517505960098,0.3053288640442396,0.5008800117760001,-0.0006600088320000002,0.3,0.25,0.011514698956549382,-0.005338922552987145,False,False,False,False,False,False,0
1.320322944,1772663194.1954763,-0.028298109769821167,-0.3958207368850708,0.5593277215957642,-0.010546118021011353,0.9819874167442322,-0.15972575545310974,-0.3188488781452179,0.43376046419143677,0.5237448811531067,0.0616331584751606,0.08560160547494888,-0.27734920382499695,-0.32500494681270764,-0.32500494681270764,-0.061087,0.0417210270049628,1.0837189606592972,0.0,-2.271173544931355,-2.271173544931355,2.5304148453855824,-7.822733789511489,-32.02788305499436,0.0,-224.61451766564815,-224.61451766564815,272.38041406179525,-795.6251631517689,-3188.37175009732,0.0,0.15711765764757496,-0.00499517505960098,0.3053288640442396,0.501064475,-0.0007983562500000003,0.3,0.25,0.009101572126549384,-0.005338922552987145,False,False,False,False,False,False,0
1.340424495,1772663194.2155776,-0.024104591459035873,-0.34867575764656067,0.5879019498825073,-0.009395631961524487,0.9678459763526917,-0.1595340073108673,0.1838037669658661,0.4121546149253845,0.13744193315505981,-0.017120322212576866,-0.23968449234962463,0.1027219295501709,-0.3704284177113348,-0.3704284177113348,-0.010478703092288308,-0.1147336487852671,0.4431612995594094,0.0,2.2340391578813326,2.2340391578813326,-2.7596062993764168,7.677569058924593,32.00389236039189,0.0,225.26063514063418,225.26063514063418,-264.50105723809975,775.0151424218034,3201.5887707693096,0.0,0.16448818283268055,-0.004448890465681341,0.30439571102993007,0.5012703498240001,-0.0009527623680000004,0.3,0.25,-0.04666603519273428,-0.034296481157208444,False,False,False,False,False,False,0
1.360424717,1772663194.2355778,-0.024104591459035873,-0.34867575764656067,0.5879019498825073,-0.009395631961524487,0.9678459763526917,-0.1595340073108673,0.1838037669658661,0.4121546149253845,0.13744193315505981,-0.017120322212576866,-0.23968449234962463,0.1027219295501709,-0.3257476345537081,-0.3257476345537081,-0.061087,0.03881773239322492,1.0832391467672478,0.0,-2.2911874253517635,-2.2911874253517635,2.3475630596686754,-7.386860569151252,-32.3289837973375,0.0,-226.26132916165457,-226.26132916165457,255.3584679522544,-753.2214814037916,-3216.6438078864667,0.0,0.16448818283268055,-0.004448890465681341,0.30439571102993007,0.5014981505680001,-0.0011236129260000006,0.3,0.25,-0.04945436302273428,-0.034296481157208444,False,False,False,False,False,False,0
1.380322372,1772663194.2554755,-0.024104591459035873,-0.34867575764656067,0.5879019498825073,-0.009395631961524487,0.9678459763526917,-0.1595340073108673,0.1838037669658661,0.4121546149253845,0.13744193315505981,-0.017120322212576866,-0.23968449234962463,0.1027219295501709,-0.3715713830607434,-0.3715713830607434,-0.014135738806626455,-0.10891947898980026,0.43665947082049716,0.0,2.248336350815088,2.248336350815088,-2.5898152503084866,7.232061553762004,32.293344263813516,0.0,226.97618880834239,226.97618880834239,-246.8689154988579,730.9461061456622,3231.1164030575483,0.0,0.16448818283268055,-0.004448890465681341,0.30439571102993007,0.501748293632,-0.001311220224000001,0.3,0.25,-0.05242821775273428,-0.034296481157208444,False,False,False,False,False,False,0
1.400272674,1772663194.275426,-0.024104591459035873,-0.34867575764656067,0.5879019498825073,-0.009395631961524487,0.9678459763526917,-0.1595340073108673,0.1838037669658661,0.4121546149253845,0.13744193315505981,-0.017120322212576866,-0.23968449234962463,0.1027219295501709,-0.32660465604444155,-0.32660465604444155,-0.061087,0.035721752085439956,1.0825263560967682,0.0,-2.312482712698167,-2.312482712698167,2.1496726621033466,-6.915695116806711,-32.65311732085794,0.0,-228.04095317566257,-228.04095317566257,236.97439562059148,-707.3878335284351,-3247.32307923357,0.0,0.16448818283268055,-0.004448890465681341,0.30439571102993007,0.5020211003759999,-0.0015158252820000012,0.3,0.25,-0.05558544658273428,-0.034296481157208444,False,False,False,False,False,False,0
1.420297898,1772663194.2954512,-0.024104591459035873,-0.34867575764656067,0.5879019498825073,-0.009395631961524487,0.9678459763526917,-0.1595340073108673,0.1838037669658661,0.4121546149253845,0.13744193315505981,-0.017120322212576866,-0.23968449234962463,0.1027219295501709,-0.37285431029840493,-0.37285431029840493,-0.01809354675793303,-0.1025921502506944,0.42946400967960885,0.0,2.2639188679543794,2.2639188679543794,-2.408269237727462,6.752985685392932,32.60559576962054,0.0,228.82007903262712,228.82007903262712,-227.89709499154023,683.4340401099815,3262.935654523921,0.0,0.16448818283268055,-0.004448890465681341,0.30439571102993007,0.5023168,-0.0017376000000000017,0.3,0.25,-0.058923345912734286,-0.034296481157208444,False,False,False,False,False,False,0
1.440283985,1772663194.315437,-0.01563318260014057,-0.3150048851966858,0.6058226823806763,-0.01073786523193121,0.9514675736427307,-0.15128885209560394,0.01992805488407612,0.34545382857322693,0.2281111627817154,-0.006848128512501717,-0.11698886007070541,0.037664707750082016,-0.3275759329393178,-0.3275759329393178,-0.061087,0.03246756345716287,1.0815759250720132,0.0,-2.3347444302428917,-2.3347444302428917,1.937321878646276,-6.41063786326364,-32.99675773038276,0.0,-229.93316490986592,-229.93316490986592,217.27955581868912,-658.1811774328353,-3280.1176750001987,0.0,0.16988132617239607,-0.00320183101007259,0.30289944696085425,0.502635532424,-0.001976649317999999,0.3,0.25,-0.048371086131893976,-0.010866422510467752,False,False,False,False,False,False,0
1.460329488,1772663194.3354826,-0.01563318260014057,-0.3150048851966858,0.6058226823806763,-0.01073786523193121,0.9514675736427307,-0.15128885209560394,0.01992805488407612,0.34545382857322693,0.2281111627817154,-0.006848128512501717,-0.11698886007070541,0.037664707750082016,-0.3742708215441757,-0.3742708215441757,-0.022340562427074447,-0.09574519380811003,0.42164077046435733,0.0,2.2806587519779553,2.2806587519779553,-2.216342081609349,6.242559609312025,32.9375009936155,0.0,230.77015911104215,230.77015911104215,-207.68319801278108,632.6598736287826,3296.71293619991,0.0,0.16988132617239607,-0.00320183101007259,0.30289944696085425,0.502977351168,-0.002233013375999999,0.3,0.25,-0.05206012046189399,-0.010866422510467752,False,False,False,False,False,False,0
1.480276935,1772663194.3554301,-0.01563318260014057,-0.3150048851966858,0.6058226823806763,-0.01073786523193121,0.9514675736427307,-0.15128885209560394,0.01992805488407612,0.34545382857322693,0.2281111627817154,-0.006848128512501717,-0.11698886007070541,0.037664707750082016,-0.32865764650461654,-0.32865764650461654,-0.061087,0.029105998378130576,1.080390790336668,0.0,-2.3576382116553183,-2.3576382116553183,1.712340846552844,-5.8760510041894465,-33.35578689622632,0.0,-231.91484818166344,-231.91484818166344,196.43414640810948,-605.930530675073,-3314.664394492088,0.0,0.16988132617239607,-0.00320183101007259,0.30289944696085425,0.503342226232,-0.002506669674,0.3,0.25,-0.05591862569189399,-0.010866422510467752,False,False,False,False,False,False,0
1.50040506,1772663194.3755581,-0.01563318260014057,-0.3150048851966858,0.6058226823806763,-0.01073786523193121,0.9514675736427307,-0.15128885209560394,0.01992805488407612,0.34545382857322693,0.2281111627817154,-0.006848128512501717,-0.11698886007070541,0.037664707750082016,-0.3758104107377229,-0.3758104107377229,-0.02684018306894309,-0.08841502170565846,0.41327505241214113,0.0,2.298400787712533,2.298400787712533,-2.0163982426213227,5.705850001319373,33.28533267172808,0.0,232.80194996839236,232.80194996839236,-186.43695445870816,579.0950502754404,3332.0559783977174,0.0,0.16988132617239607,-0.00320183101007259,0.30289944696085425,0.503730046976,-0.002797535232,0.3,0.25,-0.059941911021893994,-0.010866422510467752,False,False,False,False,False,False,0
1.520236904,1772663194.39539,-0.01563318260014057,-0.3150048851966858,0.6058226823806763,-0.01073786523193121,0.9514675736427307,-0.15128885209560394,0.01992805488407612,0.34545382857322693,0.2281111627817154,-0.006848128512501717,-0.11698886007070541,0.037664707750082016,-0.32984239498347223,-0.32984239498347223,-0.061087,0.025701978320729096,1.0789817058467033,0.0,-2.3808423254286253,-2.3808423254286253,1.4778803008991093,-5.319420681736672,-33.72586443676748,0.0,-233.9621556570577,-233.9621556570577,174.71392717602143,-551.2635341528018,-3350.5598554247754,0.0,0.16988132617239607,-0.00320183101007259,0.30289944696085425,0.504140625,-0.00310546875,0.3,0.25,-0.06412484285189399,-0.010866422510467752,False,False,False,False,False,False,0
1.540325754,1772663194.415479,-0.029120707884430885,-0.2727360427379608,0.636795699596405,-0.009779127314686775,0.9387642741203308,-0.1601092517375946,-0.15442529320716858,0.41249701380729675,0.2877925932407379,0.017120322212576866,-0.12554901838302612,-0.10957005620002747,-0.3774592414920448,-0.3774592414920448,-0.03152939398201779,-0.08068643531400443,0.40446441711135306,0.0,2.3169753001710593,2.3169753001710593,-1.8117364198989399,5.150821506477538,33.64512227030748,0.0,234.89088127998403,234.89088127998403,-164.48083603990233,523.51210941071,3368.549335353745,0.0,0.17721913726467003,-0.00565471457460266,0.30271022852618773,0.504573697024,-0.0034302727680000002,0.3,0.25,-0.03302111532495859,-0.0038414605749258098,False,False,False,False,False,False,0
1.560320224,1772663194.4354734,-0.029120707884430885,-0.2727360427379608,0.636795699596405,-0.009779127314686775,0.9387642741203308,-0.1601092517375946,-0.15442529320716858,0.41249701380729675,0.2877925932407379,0.017120322212576866,-0.12554901838302612,-0.10957005620002747,-0.33111973548862356,-0.33111973548862356,-0.061087,0.022329994815546414,1.0773668625175032,0.0,-2.4040787390998632,-2.4040787390998632,1.2382985108679527,-4.7510903052156985,-34.10283600245785,0.0,-236.05270196354593,-236.05270196354593,152.5017465383445,-495.09559058466135,-3387.3979136382636,0.0,0.17721913726467003,-0.00565471457460266,0.30271022852618773,0.505028927768,-0.003771695826,0.3,0.25,-0.03750627615495859,-0.0038414605749258098,False,False,False,False,False,False,0
1.580383769,1772663194.4555368,-0.029120707884430885,-0.2727360427379608,0.636795699596405,-0.009779127314686775,0.9387642741203308,-0.1601092517375946,-0.15442529320716858,0.41249701380729675,0.2877925932407379,0.017120322212576866,-0.12554901838302612,-0.10957005620002747,-0.3792013102706209,-0.3792013102706209,-0.03632102978264093,-0.07269181128876764,0.3953101424683456,0.0,2.3362110285047604,2.3362110285047604,-1.6063945078639728,4.587980314807244,34.01303863518209,0.0,237.014488380231,237.014488380231,-142.23465093659615,466.9535310011467,3405.7937318819936,0.0,0.17721913726467003,-0.00565471457460266,0.30271022852618773,0.505505912832,-0.0041294346240000005,0.3,0.25,-0.042133241884958594,-0.0038414605749258098,False,False,False,False,False,False,0
1.600337074,1772663194.4754903,-0.029120707884430885,-0.2727360427379608,0.636795699596405,-0.009779127314686775,0.9387642741203308,-0.1601092517375946,-0.15442529320716858,0.41249701380729675,0.2877925932407379,0.017120322212576866,-0.12554901838302612,-0.10957005620002747,-0.33247708970052564,-0.33247708970052564,-0.061087,0.01906779500737732,1.075570915171988,0.0,-2.4271363147459275,-2.4271363147459275,0.9988501022492197,-4.183525801222655,-34.48310487720178,0.0,-238.1673671625342,-238.1673671625342,130.2622305056595,-438.57530580149455,-3424.8071756191903,0.0,0.17721913726467003,-0.00565471457460266,0.30271022852618773,0.5060041815759999,-0.0045031361820000015,0.3,0.25,-0.04689532371495861,-0.0038414605749258098,False,False,False,False,False,False,0
1.620217034,1772663194.4953701,-0.029120707884430885,-0.2727360427379608,0.636795699596405,-0.009779127314686775,0.9387642741203308,-0.1601092517375946,-0.15442529320716858,0.41249701380729675,0.2877925932407379,0.017120322212576866,-0.12554901838302612,-0.10957005620002747,-0.3810198159954442,-0.3810198159954442,-0.04110999795501559,-0.06460272101707586,0.3859088176279518,0.0,2.3559462317167568,2.3559462317167568,-1.4048270462504333,4.02959709208646,34.385730653525094,0.0,239.154127323134,239.154127323134,-120.18385742498255,410.65614466545543,3443.4417765363405,0.0,0.17721913726467003,-0.00565471457460266,0.30271022852618773,0.5065232000000001,-0.004892400000000001,0.3,0.25,-0.051785498044958606,-0.0038414605749258098,False,False,False,False,False,False,0
1.640198685,1772663194.5153518,-0.03582228720188141,-0.2373029887676239,0.6629155278205872,-0.01073786523193121,0.931493878364563,-0.1637524515390396,-0.04184206575155258,0.3534661531448364,0.27070653438568115,-0.013696257025003433,-0.07846813648939133,-0.010272192768752575,-0.333900891361109,-0.333900891361109,-0.061087,0.015989220824653413,1.0736234306984542,0.0,-2.4498797325507957,-2.4498797325507957,0.765214453838096,-3.630200533250729,-34.863879097113234,0.0,-240.29129821337742,-240.29129821337742,108.50207500442636,-382.98988126685913,-3462.4804875319132,0.0,0.1832359274137383,-0.007104725813827486,0.3023363876403305,0.5070623736240001,-0.005296780218000003,0.3,0.25,-0.04514001182561406,-0.0026767596017451024,False,False,False,False,False,False,0
1.660245726,1772663194.535399,-0.03582228720188141,-0.2373029887676239,0.6629155278205872,-0.01073786523193121,0.931493878364563,-0.1637524515390396,-0.04184206575155258,0.3534661531448364,0.27070653438568115,-0.013696257025003433,-0.07846813648939133,-0.010272192768752575,-0.38289848601212495,-0.38289848601212495,-0.04578271092323807,-0.056614789840361224,0.3763458487561889,0.0,2.3760368913045453,2.3760368913045453,-1.2115035354036978,3.488613142067731,34.76056065846258,0.0,241.29583119276683,241.29583119276683,-98.8358994620896,355.9406837659227,3481.221987778788,0.0,0.1832359274137383,-0.007104725813827486,0.3023363876403305,0.507621050368,-0.005715787776000002,0.3,0.25,-0.050264069155614044,-0.0026767596017451024,False,False,False,False,False,False,0
1.680388003,1772663194.5555413,-0.03582228720188141,-0.2373029887676239,0.6629155278205872,-0.01073786523193121,0.931493878364563,-0.1637524515390396,-0.04184206575155258,0.3534661531448364,0.27070653438568115,-0.013696257025003433,-0.07846813648939133,-0.010272192768752575,-0.335377748186034,-0.335377748186034,-0.061087,0.013157473000993458,1.071557061925441,0.0,-2.472243168184324,-2.472243168184324,0.5429422323076629,-3.1042847649298673,-35.24325601896923,0.0,-242.41400297444326,-242.41400297444326,87.72228838556796,-329.6448953498796,-3500.1908338715875,0.0,0.1832359274137383,-0.007104725813827486,0.3023363876403305,0.508198523432,-0.006148892574000004,0.3,0.25,-0.05549335538561406,-0.0026767596017451024,False,False,False,False,False,False,0
1.700298866,1772663194.575452,-0.03582228720188141,-0.2373029887676239,0.6629155278205872,-0.01073786523193121,0.931493878364563,-0.1637524515390396,-0.04184206575155258,0.3534661531448364,0.27070653438568115,-0.013696257025003433,-0.07846813648939133,-0.010272192768752575,-0.38482261154972,-0.38482261154972,-0.05022815535384685,-0.048928222297603255,0.36669194154606377,0.0,2.396360950091764,2.396360950091764,-1.0304935931110635,2.9774057836211956,35.13567846891705,0.0,243.43020591380687,243.43020591380687,-78.67179127093712,304.0845274275562,3518.94672439435,0.0,0.1832359274137383,-0.007104725813827486,0.3023363876403305,0.508794034176,-0.006595525631999999,0.3,0.25,-0.06081972371561399,-0.0026767596017451024,False,False,False,False,False,False,0
1.720374321,1772663194.5955274,-0.03582228720188141,-0.2373029887676239,0.6629155278205872,-0.01073786523193121,0.931493878364563,-0.1637524515390396,-0.04184206575155258,0.3534661531448364,0.27070653438568115,-0.013696257025003433,-0.07846813648939133,-0.010272192768752575,-0.33689539254788464,-0.33689539254788464,-0.061087,0.010619893374820707,1.0694055109244054,0.0,-2.494210633530611,-2.494210633530611,0.3369202807768977,-2.6173756763281726,-35.6201250653779,0.0,-244.52857918111852,-244.52857918111852,68.370693694398,-279.73907299746816,-3537.7901767147446,0.0,0.1832359274137383,-0.007104725813827486,0.3023363876403305,0.509406775,-0.0070550812499999985,0.3,0.25,-0.066234800545614,-0.0026767596017451024,False,False,False,False,False,False,0
1.740294495,1772663194.6154475,-0.03800245746970177,-0.20004068315029144,0.6933593153953552,-0.010162622667849064,0.9239837527275085,-0.16413594782352448,-0.030029043555259705,0.3616154193878174,0.29991379380226135,-0.006848128512501717,-0.055641043931245804,-0.0034240642562508583,-0.3867796052184969,-0.3867796052184969,-0.054348594384462046,-0.04172762015174279,0.35700300961684683,0.0,2.416818909485111,2.416818909485111,-0.865110999398299,2.506635048833737,35.509937112249645,0.0,245.5514771507859,245.5514771507859,-60.10156400875978,256.2005362580952,3556.5031088813735,0.0,0.1900360598382831,-0.007731490921797439,0.3023701452119978,0.510035892224,-0.007526919168,0.3,0.25,-0.06580791557861582,-0.0009115189571575789,False,False,False,False,False,False,0
1.760327957,1772663194.635481,-0.03800245746970177,-0.20004068315029144,0.6933593153953552,-0.010162622667849064,0.9239837527275085,-0.16413594782352448,-0.030029043555259705,0.3616154193878174,0.29991379380226135,-0.006848128512501717,-0.055641043931245804,-0.0034240642562508583,-0.33844322702879465,-0.33844322702879465,-0.061087,0.008405080824931986,1.0672017518618404,0.0,-2.515791121573524,-2.515791121573524,0.1509512412385002,-2.178496655615908,-35.99395557463541,0.0,-246.63050155293155,-246.63050155293155,50.803112031839916,-234.25658522248207,-3575.1946343442496,0.0,0.1900360598382831,-0.007731490921797439,0.3023701452119978,0.510680488968,-0.008010366726,0.3,0.25,-0.0713744894086158,-0.0009115189571575789,False,False,False,False,False,False,0
1.780393864,1772663194.6555471,-0.03800245746970177,-0.20004068315029144,0.6933593153953552,-0.010162622667849064,0.9239837527275085,-0.16413594782352448,-0.030029043555259705,0.3616154193878174,0.29991379380226135,-0.006848128512501717,-0.055641043931245804,-0.0034240642562508583,-0.3887590494602652,-0.3887590494602652,-0.05806797517523,-0.035164852287386215,0.34732264036913163,0.0,2.437330824708531,2.437330824708531,-0.7176720206687602,2.084365877229913,35.88268750835172,0.0,247.6560973141025,247.6560973141025,-43.43116309536298,213.14312664229087,3593.8321541493533,0.0,0.1900360598382831,-0.007731490921797439,0.3023701452119978,0.511339628032,-0.008504721024000001,0.3,0.25,-0.07700350613861581,-0.0009115189571575789,False,False,False,False,False,False,0
1.80039143,1772663194.6755445,-0.03800245746970177,-0.20004068315029144,0.6933593153953552,-0.010162622667849064,0.9239837527275085,-0.16413594782352448,-0.030029043555259705,0.3616154193878174,0.29991379380226135,-0.006848128512501717,-0.055641043931245804,-0.0034240642562508583,-0.3400124329660945,-0.3400124329660945,-0.061087,0.006522465257212083,1.0649763905361667,0.0,-2.5369938451358887,-2.5369938451358887,-0.01250088046054322,-1.7934884814146963,-36.36451048444879,0.0,-248.71623349222074,-248.71623349222074,35.25855701041082,-193.89271793223028,-3612.359899640023,0.0,0.1900360598382831,-0.007731490921797439,0.3023701452119978,0.512012334776,-0.009009251082,0.3,0.25,-0.08268590096861583,-0.0009115189571575789,False,False,True,False,False,False,0
1.820395649,1772663194.695549,-0.03800245746970177,-0.20004068315029144,0.6933593153953552,-0.010162622667849064,0.9239837527275085,-0.16413594782352448,-0.030029043555259705,0.3616154193878174,0.29991379380226135,-0.006848128512501717,-0.055641043931245804,-0.0034240642562508583,-0.3907523098688123,-0.3907523098688123,-0.061087,-0.029347304371081878,0.33768618084719015,0.0,2.457747038905471,2.457747038905471,-0.5922485634733922,1.7146156113695095,36.25190460348466,0.0,249.73704420206775,249.73704420206775,-28.987384150642423,175.40520463921013,3630.82075439667,0.0,0.1900360598382831,-0.007731490921797439,0.3023701452119978,0.5126976,-0.009523200000000004,0.3,0.25,-0.08841249029861586,-0.0009115189571575789,False,False,True,False,False,False,0
1.840257083,1772663194.7154102,-0.04514122009277344,-0.16627201437950134,0.7218798398971558,-0.010162622667849064,0.9189503788948059,-0.17008012533187866,-0.07998614013195038,0.3508296310901642,0.29881808161735535,4.103860071068304e-16,-0.05421435087919235,-0.05478502810001373,-0.3415973690907029,-0.3415973690907029,-0.061087,0.004945007856308345,1.062724272916884,0.0,-2.5575870673720327,-2.5575870673720327,-0.154196336456918,-1.4604860928922914,-36.728130384107395,0.0,-250.76670531387495,-250.76670531387495,21.90261135082369,-158.7550852130899,-3649.0017493796,0.0,0.19620733407574614,-0.009367337548860676,0.30238585167272736,0.5133943828240001,-0.010045787117999999,0.3,0.25,-0.07075971139784928,-0.0015122596443703472,False,False,True,False,False,False,0
1.860294616,1772663194.735448,-0.04514122009277344,-0.16627201437950134,0.7218798398971558,-0.010162622667849064,0.9189503788948059,-0.17008012533187866,-0.07998614013195038,0.3508296310901642,0.29881808161735535,4.103860071068304e-16,-0.05421435087919235,-0.05478502810001373,-0.3927491104381436,-0.3927491104381436,-0.061087,-0.02426471400153751,0.32816166523473544,0.0,2.477334243316813,2.477334243316813,-0.5147946072581716,1.3864796171502654,36.60338163600016,0.0,251.74606553444207,251.74606553444207,-18.029913540062665,142.3482855021277,3666.575601005374,0.0,0.19620733407574614,-0.009367337548860676,0.30238585167272736,0.5141016135680001,-0.010576210176,0.3,0.25,-0.0765467717278493,-0.0015122596443703472,False,False,True,False,False,False,0
1.880316206,1772663194.7554693,-0.04514122009277344,-0.16627201437950134,0.7218798398971558,-0.010162622667849064,0.9189503788948059,-0.17008012533187866,-0.07998614013195038,0.3508296310901642,0.29881808161735535,4.103860071068304e-16,-0.05421435087919235,-0.05478502810001373,-0.3432024255718073,-0.3432024255718073,-0.061087,0.003464878341467824,1.0602292979547392,0.0,-2.5757989961261853,-2.5757989961261853,-0.29289146520549375,-1.1344765552273801,-37.05726510807791,0.0,-252.65666197214966,-252.65666197214966,11.095157102633884,-126.04780861888216,-3683.0323372039,0.0,0.19620733407574614,-0.009367337548860676,0.30238585167272736,0.514818196632,-0.011113647474,0.3,0.25,-0.08234997895784929,-0.0015122596443703472,False,False,True,False,False,False,0
1.900407691,1772663194.7755609,-0.04514122009277344,-0.16627201437950134,0.7218798398971558,-0.010162622667849064,0.9189503788948059,-0.17008012533187866,-0.07998614013195038,0.3508296310901642,0.29881808161735535,4.103860071068304e-16,-0.05421435087919235,-0.05478502810001373,-0.39471840549433107,-0.39471840549433107,-0.061087,-0.0192246527630798,0.31908399579318036,0.0,2.497714547654626,2.497714547654626,-0.4420966662126785,1.068450544997688,36.9634000333561,0.0,253.6756771890403,253.6756771890403,-7.460260050359231,110.1463550112533,3701.0332570716973,0.0,0.19620733407574614,-0.009367337548860676,0.30238585167272736,0.5155430133760001,-0.011657260032000004,0.3,0.25,-0.08815989028784932,-0.0015122596443703472,False,False,True,False,False,False,0
1.920502117,1772663194.7956553,-0.04514122009277344,-0.16627201437950134,0.7218798398971558,-0.010162622667849064,0.9189503788948059,-0.17008012533187866,-0.07998614013195038,0.3508296310901642,0.29881808161735535,4.103860071068304e-16,-0.05421435087919235,-0.05478502810001373,-0.3447641145412385,-0.3447641145412385,-0.061087,0.00214435813687398,1.0583519964603032,0.0,-2.5982815899612794,-2.5982815899612794,-0.42260589041224084,-0.8300463305608556,-37.44847280585875,0.0,-254.79980688079507,-254.79980688079507,0.9745387900218829,-94.9248437779271,-3720.593641960739,0.0,0.19620733407574614,-0.009367337548860676,0.30238585167272736,0.516274925,-0.012206193750000004,0.3,0.25,-0.09396705211784934,-0.0015122596443703472,False,False,True,False,False,False,0
1.940228354,1772663194.8153815,-0.0536835752427578,-0.12941236793994904,0.7536044716835022,-0.009587380103766918,0.9146360158920288,-0.17736652493476868,-0.08447166532278061,0.3461044132709503,0.30176278948783875,0.010272192768752575,-0.03424064442515373,-0.0821775421500206,-0.39672974634046354,-0.39672974634046354,-0.061087,-0.014456568474342964,0.30938254034313584,0.0,2.5161235569859826,2.5161235569859826,-0.37568967136527376,0.7705908038048481,37.30392639496961,0.0,255.7202573473657,255.7202573473657,2.3458109523483777,80.03185671828601,3737.6199600414566,0.0,0.20296511494612365,-0.011380542364737425,0.3022864512797604,0.517012775424,-0.012759581568,0.3,0.25,-0.07709014233405308,-0.0005105593689600021,False,False,True,False,False,False,0
1.960330382,1772663194.8354836,-0.0536835752427578,-0.12941236793994904,0.7536044716835022,-0.009587380103766918,0.9146360158920288,-0.17736652493476868,-0.08447166532278061,0.3461044132709503,0.30176278948783875,0.010272192768752575,-0.03424064442515373,-0.0821775421500206,-0.3464072752007438,-0.3464072752007438,-0.061087,0.0009552476017540123,1.0554610682425287,0.0,-2.610669255421775,-2.610669255421775,-0.543963023595746,-0.5448562038549281,-37.70015847637191,0.0,-256.3396406203876,-256.3396406203876,-8.413667611523605,-65.77235038298875,-3750.204243567073,0.0,0.20296511494612365,-0.011380542364737425,0.3022864512797604,0.517755394168,-0.013316545626000001,0.3,0.25,-0.08286350916405308,-0.0005105593689600021,False,False,True,False,False,False,0
1.980337545,1772663194.855491,-0.0536835752427578,-0.12941236793994904,0.7536044716835022,-0.009587380103766918,0.9146360158920288,-0.17736652493476868,-0.08447166532278061,0.3461044132709503,0.30176278948783875,0.010272192768752575,-0.03424064442515373,-0.0821775421500206,-0.39862066030917936,-0.39862066030917936,-0.061087,-0.009941876475344558,0.3014578987150899,0.0,2.5384718027508817,2.5384718027508817,-0.31630621585948604,0.4962104838874333,37.6791686270066,0.0,257.4570529086326,257.4570529086326,11.382840386812989,52.05333438711802,3768.966355168922,0.0,0.20296511494612365,-0.011380542364737425,0.3022864512797604,0.5185015992320001,-0.013876199424,0.3,0.25,-0.08860591689405309,-0.0005105593689600021,False,False,True,False,False,False,0
2.000284697,1772663194.8754377,-0.0536835752427578,-0.12941236793994904,0.7536044716835022,-0.009587380103766918,0.9146360158920288,-0.17736652493476868,-0.08447166532278061,0.3461044132709503,0.30176278948783875,0.010272192768752575,-0.03424064442515373,-0.0821775421500206,-0.3478512242541617,-0.3478512242541617,-0.061087,-1.7666797595882952e-05,1.0550412712552224,0.0,-2.6442298640822792,-2.6442298640822792,-0.6486050994461051,-0.3010666651431414,-38.25206895238092,0.0,-259.13508334165783,-259.13508334165783,-16.61494417933094,-39.863857451528695,-3796.561878969372,0.0,0.20296511494612365,-0.011380542364737425,0.3022864512797604,0.5192501999760001,-0.014437649982000006,0.3,0.25,-0.09430808472405312,-0.0005105593689600021,False,False,True,False,False,False,0
2.020315051,1772663194.8954682,-0.0536835752427578,-0.12941236793994904,0.7536044716835022,-0.009587380103766918,0.9146360158920288,-0.17736652493476868,-0.08447166532278061,0.3461044132709503,0.30176278948783875,0.010272192768752575,-0.03424064442515373,-0.0821775421500206,-0.40073582153580734,-0.40073582153580734,-0.061087,-0.006039000100458716,0.28999989220760336,0.0,2.5510777307262327,2.5510777307262327,-0.2659873942550203,0.25791231640943724,37.96031995738863,0.0,259.7653797404253,259.7653797404253,19.130885259554223,27.948949077628907,3810.619445488474,0.0,0.20296511494612365,-0.011380542364737425,0.3022864512797604,0.52,-0.015000000000000001,0.3,0.25,-0.09996082905405308,-0.0005105593689600021,False,False,True,False,False,False,0
2.040374922,1772663194.9155283,-0.061967071145772934,-0.09895134717226028,0.7811605334281921,-0.010162622667849064,0.9125587940216064,-0.18388594686985016,-0.08022582530975342,0.3158356845378876,0.28916221857070923,-0.010272192768752575,-0.025680482387542725,-0.0616331584751606,-0.34971426692128266,-0.34971426692128266,-0.061087,-0.0008807537722699665,1.0492062913553766,0.0,-2.6241389043843264,-2.6241389043843264,-0.7447621097436713,-0.07298347155739998,-38.054241174706895,0.0,-258.7608317555277,-258.7608317555277,-23.938735774432526,-16.544789398341845,-3800.728056604773,0.0,0.20863245937807412,-0.013446938724512731,0.30231208123538433,0.5207498000240001,-0.015562350018000009,0.3,0.25,-0.08108789275880504,-0.0028062562185348153,False,False,True,False,False,False,0
2.060326567,1772663194.9354799,-0.061967071145772934,-0.09895134717226028,0.7811605334281921,-0.010162622667849064,0.9125587940216064,-0.18388594686985016,-0.08022582530975342,0.3158356845378876,0.28916221857070923,-0.010272192768752575,-0.025680482387542725,-0.0616331584751606,-0.40219704500896925,-0.40219704500896925,-0.061087,-0.0023404232034179677,0.28812146786123805,0.0,2.5874104082295006,2.5874104082295006,-0.22016881765643967,0.04180545719286796,38.45981517961147,0.0,260.5774656306911,260.5774656306911,26.229664604361556,5.739446437513392,3825.702817715915,0.0,0.20863245937807412,-0.013446938724512731,0.30231208123538433,0.521498400768,-0.016123800576,0.3,0.25,-0.08661473608880496,-0.0028062562185348153,False,False,True,False,False,False,0
2.0804128,1772663194.9555662,-0.061967071145772934,-0.09895134717226028,0.7811605334281921,-0.010162622667849064,0.9125587940216064,-0.18388594686985016,-0.08022582530975342,0.3158356845378876,0.28916221857070923,-0.010272192768752575,-0.025680482387542725,-0.0616331584751606,-0.35044883684437916,-0.35044883684437916,-0.061087,-0.0015043140595606078,1.057317771453468,0.0,-2.738720140653919,-2.738720140653919,-0.817378499288443,0.08703338813087749,-39.745736887136665,0.0,-266.30652744417074,-266.30652744417074,-29.860484081600138,2.2613965469004746,-3910.2776033374034,0.0,0.20863245937807412,-0.013446938724512731,0.30231208123538433,0.522244605832,-0.016683454373999998,0.3,0.25,-0.09206540431880499,-0.0028062562185348153,False,False,True,False,False,False,0
2.100410668,1772663194.9755638,-0.061967071145772934,-0.09895134717226028,0.7811605334281921,-0.010162622667849064,0.9125587940216064,-0.18388594686985016,-0.08022582530975342,0.3158356845378876,0.28916221857070923,-0.010272192768752575,-0.025680482387542725,-0.0616331584751606,-0.4052232396574576,-0.4052232396574576,-0.061087,0.00023635370305694352,0.26240303371073403,0.0,2.5610544669563198,2.5610544669563198,-0.19338316370913122,-0.11122003404661723,38.37204024104786,0.0,264.9887303805117,264.9887303805117,31.19976677896556,-9.912671108874727,3905.888856409223,0.0,0.20863245937807412,-0.013446938724512731,0.30231208123538433,0.522987224576,-0.017240418432,0.3,0.25,-0.09743131864880497,-0.0028062562185348153,False,False,True,False,False,False,0
2.12037542,1772663194.9955287,-0.061967071145772934,-0.09895134717226028,0.7811605334281921,-0.010162622667849064,0.9125587940216064,-0.18388594686985016,-0.08022582530975342,0.3158356845378876,0.28916221857070923,-0.010272192768752575,-0.025680482387542725,-0.0616331584751606,-0.35400215031833115,-0.35400215031833115,-0.061087,-0.0019880469778754033,1.029843838531692,0.0,-2.469763200297712,-2.469763200297712,-0.8811429102341188,0.26563115274615157,-36.084166302250274,0.0,-251.5408833627014,-251.5408833627014,-34.38798732624935,18.842559339638424,-3722.8103271649034,0.0,0.20863245937807412,-0.013446938724512731,0.30231208123538433,0.5237250750000001,-0.01779380625000001,0.3,0.25,-0.10270410547880506,-0.0028062562185348153,False,False,True,False,False,False,0
2.140384636,1772663195.015538,-0.07014702260494232,-0.06231030076742172,0.8150461912155151,-0.009587380103766918,0.9107211828231812,-0.1913641095161438,-0.08399229496717453,0.35870498418807983,0.33288753032684326,0.017120322212576866,-0.009986854158341885,-0.07875347882509232,-0.40339741432428544,-0.40339741432428544,-0.061087,0.003324576077047633,0.30816051248668574,0.0,2.7213250500384984,2.7213250500384984,-0.13544475825215924,-0.3075983081869441,40.03508864964839,0.0,259.5544125168103,259.5544125168103,37.28490759909795,-28.66147304665476,3805.962747594929,0.0,0.21553837721916622,-0.015617199509227943,0.30226868077606145,0.524456986624,-0.018342739968000003,0.3,0.25,-0.08804412322412453,0.00086258773057565,False,False,True,False,False,False,0
2.160283235,1772663195.0354364,-0.07014702260494232,-0.06231030076742172,0.8150461912155151,-0.009587380103766918,0.9107211828231812,-0.1913641095161438,-0.08399229496717453,0.35870498418807983,0.33288753032684326,0.017120322212576866,-0.009986854158341885,-0.07875347882509232,-0.34897091332351543,-0.34897091332351543,-0.061087,-0.002827390086691255,1.1088622854796542,0.0,-3.1657055333939854,-3.1657055333939854,-0.9355229020756887,0.34446959487271134,-45.99915256768767,0.0,-294.35152917162395,-294.35152917162395,-40.00390719117643,32.60339515298274,-4301.712060866799,0.0,0.21553837721916622,-0.015617199509227943,0.30226868077606145,0.525181803368,-0.018886352526,0.3,0.25,-0.09310646305412454,0.00086258773057565,False,False,True,False,False,False,0
2.180278889,1772663195.055432,-0.07014702260494232,-0.06231030076742172,0.8150461912155151,-0.009587380103766918,0.9107211828231812,-0.1913641095161438,-0.08399229496717453,0.35870498418807983,0.33288753032684326,0.017120322212576866,-0.009986854158341885,-0.07875347882509232,-0.4122850239913952,-0.4122850239913952,-0.061087,0.0040620018107629784,0.1888792341258999,0.0,2.444970559905715,2.444970559905715,-0.17859216735063044,-0.2996572257237082,37.71190480062241,0.0,280.53380466498476,280.53380466498476,37.84653673625288,-32.20634102982095,4185.552868415501,0.0,0.21553837721916622,-0.015617199509227943,0.30226868077606145,0.5258983864320002,-0.019423789824000004,0.3,0.25,-0.0980520017841246,0.00086258773057565,False,False,True,False,False,False,0
2.200308701,1772663195.0754619,-0.07014702260494232,-0.06231030076742172,0.8150461912155151,-0.009587380103766918,0.9107211828231812,-0.1913641095161438,-0.08399229496717453,0.35870498418807983,0.33288753032684326,0.017120322212576866,-0.009986854158341885,-0.07875347882509232,-0.36338561279328085,-0.36338561279328085,-0.061087,-0.0019311427037111903,0.9431173301383489,0.0,-0.9386557582012671,-0.9386557582012671,-0.8249370896906282,0.3966328123488719,-15.212134485947358,0.0,-169.18131590534895,-169.18131590534895,-32.31724611699986,34.81450190362897,-2646.201964328486,0.0,0.21553837721916622,-0.015617199509227943,0.30226868077606145,0.5266056171760001,-0.019954212882000003,0.3,0.25,-0.10287340261412453,0.00086258773057565,False,False,True,False,False,False,0
2.220394127,1772663195.0955474,-0.07014702260494232,-0.06231030076742172,0.8150461912155151,-0.009587380103766918,0.9107211828231812,-0.1913641095161438,-0.08399229496717453,0.35870498418807983,0.33288753032684326,0.017120322212576866,-0.009986854158341885,-0.07875347882509232,-0.3821587279573062,-0.3821587279573062,-0.061087,0.006001513543266255,0.6388746404194015,0.0,3.514952336588891,3.514952336588891,0.23260780385287008,-1.1892902129855492,47.697777853796296,0.0,222.6804047395077,222.6804047395077,52.87724467717487,-79.29615126672098,3145.49561698718,0.0,0.21553837721916622,-0.015617199509227943,0.30226868077606145,0.5273024000000001,-0.020476800000000003,0.3,0.25,-0.10756364194412457,0.00086258773057565,False,False,True,False,False,False,0
2.24027737,1772663195.1154306,-0.07893289625644684,-0.03175915405154228,0.8441726565361023,-0.010354369878768921,0.9103217124938965,-0.19807526469230652,-0.08563584834337234,0.30960389971733093,0.29963985085487366,-0.006848128512501717,-0.0042800805531442165,-0.06505721807479858,-0.3118596812255283,-0.3118596812255283,-0.056434843922942596,-0.01778429071644475,1.5928301974953283,0.0,-2.396377472806138,-2.396377472806138,-0.9367166241284597,0.9522779309788093,-39.28402667035816,0.0,-295.5664904697512,-295.5664904697512,-58.466221399066434,107.07840719821783,-4349.090226207719,0.0,0.22130477057301737,-0.018015593543010956,0.30223015313981894,0.527987665224,-0.020990748918000006,0.3,0.25,-0.08236805532907489,-0.0023327980084127953,False,False,True,False,False,False,0
2.260308522,1772663195.1354616,-0.07893289625644684,-0.03175915405154228,0.8441726565361023,-0.010354369878768921,0.9103217124938965,-0.19807526469230652,-0.08563584834337234,0.30960389971733093,0.29963985085487366,-0.006848128512501717,-0.0042800805531442165,-0.06505721807479858,-0.35978723068165114,-0.35978723068165114,-0.061087,0.001261267903131455,0.8071496640881644,0.0,1.9365185951326058,1.9365185951326058,-0.1478977613297046,-0.5527159882010344,27.792602515326827,0.0,216.64480339693702,216.64480339693702,39.44094313993772,-75.2496959589921,3353.8314592842466,0.0,0.22130477057301737,-0.018015593543010956,0.30223015313981894,0.5286603719680001,-0.021495278976000013,0.3,0.25,-0.08677626165907497,-0.0023327980084127953,False,False,True,False,False,False,0
2.280367443,1772663195.1555204,-0.07893289625644684,-0.03175915405154228,0.8441726565361023,-0.010354369878768921,0.9103217124938965,-0.19807526469230652,-0.08563584834337234,0.30960389971733093,0.29963985085487366,-0.006848128512501717,-0.0042800805531442165,-0.06505721807479858,-0.321056858778999,-0.321056858778999,-0.061087,-0.009793051860889242,1.3630017143947013,0.0,-3.2430272711834434,-3.2430272711834434,-1.008196139616203,0.8291794366895227,-46.48119813591954,0.0,-258.9772933158022,-258.9772933158022,-43.01491891432488,69.09477124452779,-3713.6900325623155,0.0,0.22130477057301737,-0.018015593543010956,0.30223015313981894,0.529319511032,-0.021989633274000015,0.3,0.25,-0.09103433088907499,-0.0023327980084127953,False,False,True,False,False,False,0
2.300338475,1772663195.1754916,-0.07893289625644684,-0.03175915405154228,0.8441726565361023,-0.010354369878768921,0.9103217124938965,-0.19807526469230652,-0.08563584834337234,0.30960389971733093,0.29963985085487366,-0.006848128512501717,-0.0042800805531442165,-0.06505721807479858,-0.3859174042026679,-0.3859174042026679,-0.061087,0.006790536872901227,0.43337775167630965,0.0,3.0111058487274702,3.0111058487274702,0.03952440741781507,-0.7249757888287164,45.782692858767234,0.0,312.7066559955454,312.7066559955454,52.386027351700854,-77.70776127591188,4613.194549734335,0.0,0.22130477057301737,-0.018015593543010956,0.30223015313981894,0.5299641077759999,-0.022473080832000003,0.3,0.25,-0.09513670821907486,-0.0023327980084127953,False,False,True,False,False,False,0
2.320410771,1772663195.195564,-0.07893289625644684,-0.03175915405154228,0.8441726565361023,-0.010354369878768921,0.9103217124938965,-0.19807526469230652,-0.08563584834337234,0.30960389971733093,0.29963985085487366,-0.006848128512501717,-0.0042800805531442165,-0.06505721807479858,-0.32569528722811847,-0.32569528722811847,-0.0602965118516437,-0.007708978903673114,1.3490316088516552,0.0,-3.2703915816958076,-3.270391581695808,-0.9399441835100224,0.6336581275925315,-47.44441869058784,0.0,-314.0748715211636,-314.07487152116363,-48.97342954639183,67.93169582106233,-4661.35557746775,0.0,0.22130477057301737,-0.018015593543010956,0.30223015313981894,0.5305932250000001,-0.022944918750000008,0.3,0.25,-0.09907826004907486,-0.0023327980084127953,False,False,True,False,False,False,0
2.340306671,1772663195.2154598,-0.08727391809225082,0.003648956771939993,0.8791397213935852,-0.009587380103766918,0.9101619124412537,-0.20555342733860016,-0.08460862934589386,0.3393932580947876,0.3449402451515198,0.023968450725078583,-0.002853386802598834,-0.08560160547494888,-0.3911031188620332,-0.39110311886203325,-0.061087,0.004964183648177245,0.40014323503991867,0.0,2.979313119665734,2.9793131196657345,-0.02322638941608051,-0.511870265542897,45.23352889554788,0.0,312.48523506808374,312.4852350680838,45.835889704698076,-57.276419656772646,4633.897379306884,0.0,0.2281583475552173,-0.020436142741494148,0.3022283959258082,0.531205965824,-0.023404474368000007,0.3,0.25,-0.07960527980264873,0.0006403511182823014,False,False,True,False,False,False,0
2.360400571,1772663195.2355537,-0.08727391809225082,0.003648956771939993,0.8791397213935852,-0.009587380103766918,0.9101619124412537,-0.20555342733860016,-0.08460862934589386,0.3393932580947876,0.3449402451515198,0.023968450725078583,-0.002853386802598834,-0.08560160547494888,-0.3315168564687185,-0.33151685646871853,-0.061087,-0.005273221662680705,1.304813812950877,0.0,-3.4058932661351364,-3.405893147803116,-0.8802684736688644,0.4258830027037001,-49.342913535906234,0.0,-319.26031929004324,-319.2603133734423,-42.85210421263916,46.88766341232982,-4728.822121572702,0.0,0.2281583475552173,-0.020436142741494148,0.3022283959258082,0.5318014765679999,-0.023851107426,0.3,0.25,-0.08321157263264865,0.0006403511182823014,False,False,True,False,False,False,0
2.38026184,1772663195.255415,-0.08727391809225082,0.003648956771939993,0.8791397213935852,-0.009587380103766918,0.9101619124412537,-0.20555342733860016,-0.08460862934589386,0.3393932580947876,0.3449402451515198,0.023968450725078583,-0.002853386802598834,-0.08560160547494888,-0.3996347217914213,-0.3996347194247809,-0.061087,0.0032444383913933037,0.31795554223275146,0.0,2.7937115232069356,2.793711519656975,-0.09800887956136745,-0.3109958258087958,43.140358157846364,0.0,309.98023946710333,309.98023337300424,39.11297970537482,-36.84394142562476,4624.163584687626,0.0,0.2281583475552173,-0.020436142741494148,0.3022283959258082,0.5323789496319999,-0.02428421222400001,0.3,0.25,-0.08664438236264871,0.0006403511182823014,False,False,True,False,False,False,0
2.400449337,1772663195.2756023,-0.08727391809225082,0.003648956771939993,0.8791397213935852,-0.009587380103766918,0.9101619124412537,-0.20555342733860016,-0.08460862934589386,0.3393932580947876,0.3449402451515198,0.023968450725078583,-0.002853386802598834,-0.08560160547494888,-0.34376049132728254,-0.34376048903164136,-0.061087,-0.0029754781247826184,1.1807627053896796,0.0,-3.6288586635768176,-3.628858295180845,-0.8980974467229718,0.2810206978945174,-51.865182499639765,0.0,-321.12850933918736,-321.1284907418907,-40.004428358080176,29.600826185165637,-4750.277032874303,0.0,0.2281583475552173,-0.020436142741494148,0.3022283959258082,0.532937626376,-0.02470321978200001,0.3,0.25,-0.08990047619264872,0.0006403511182823014,False,False,True,False,False,False,0
2.420287776,1772663195.295441,-0.08727391809225082,0.003648956771939993,0.8791397213935852,-0.009587380103766918,0.9101619124412537,-0.20555342733860016,-0.08460862934589386,0.3393932580947876,0.3449402451515198,0.023968450725078583,-0.002853386802598834,-0.08560160547494888,-0.41633766459881894,-0.4163376549352583,-0.061087,0.002644935833107734,0.14345905539688353,0.0,2.4138614489181913,2.4138614340363387,-0.17826887601984,-0.2185647888632337,39.110977293596825,0.0,302.13600562475017,302.13598646085893,35.99142853515656,-24.97927433788753,4548.807989661826,0.0,0.2281583475552173,-0.020436142741494148,0.3022283959258082,0.5334768000000001,-0.02510759999999999,0.3,0.25,-0.09297715052264857,0.0006403511182823014,False,False,True,False,False,False,0
2.440329735,1772663195.3154829,-0.09449705481529236,0.033661291003227234,0.9095700979232788,-0.01073786523193121,0.9101619124412537,-0.21073061227798462,-0.06998787075281143,0.2995029091835022,0.30720704793930054,-0.013696257025003433,1.2846866125293616e-15,-0.05478502810001373,-0.3680604356204551,-0.3680604262545315,-0.061087,-0.0017263599441569438,0.9256786012688207,0.0,-0.5876583954943251,-0.5876587659960719,-0.7868200392045546,0.38587472393848465,-10.181354324347621,0.0,-150.0759922206257,-150.07601000162038,-30.4275581592357,30.22197564008589,-2464.61658089722,0.0,0.23403906021265436,-0.022712448108604143,0.30221220732333104,0.533995818424,-0.025496863817999996,0.3,0.25,-0.06949805128243589,-0.003317615955776565,False,False,True,False,False,False,0
2.460466772,1772663195.33562,-0.09449705481529236,0.033661291003227234,0.9095700979232788,-0.01073786523193121,0.9101619124412537,-0.21073061227798462,-0.06998787075281143,0.2995029091835022,0.30720704793930054,-0.013696257025003433,1.2846866125293616e-15,-0.05478502810001373,-0.3798136035303416,-0.37981360157445293,-0.061087,0.005991134534612756,0.7220515147818681,0.0,3.3702031834854544,3.3702031805516213,0.39354767250794054,-1.658819970111834,45.294468280481816,0.0,197.8930789489888,197.89309732738448,59.0183855856247,-102.23473470251585,2773.7911302414695,0.0,0.23403906021265436,-0.022712448108604143,0.30221220732333104,0.5344940871680001,-0.025870565376000014,0.3,0.25,-0.07221000061243603,-0.003317615955776565,False,False,True,False,False,False,0
2.480307789,1772663195.355461,-0.09449705481529236,0.033661291003227234,0.9095700979232788,-0.01073786523193121,0.9101619124412537,-0.21073061227798462,-0.06998787075281143,0.2995029091835022,0.30720704793930054,-0.013696257025003433,1.2846866125293616e-15,-0.05478502810001373,-0.31240953986063247,-0.3124095379634204,-0.05321604654984118,-0.027185264867623956,1.6279408803915052,0.0,-2.452828042738835,-2.4528280442631334,-1.1736317675515167,1.5690536980263783,-40.56713042889547,0.0,-291.1515613112142,-291.15156124073746,-78.35897200297279,161.39368340691047,-4293.079935468861,0.0,0.23403906021265436,-0.022712448108604143,0.30221220732333104,0.534971072232,-0.026228304174000017,0.3,0.25,-0.07473781084243603,-0.003317615955776565,False,False,True,False,False,False,0
2.500426743,1772663195.3755798,-0.09449705481529236,0.033661291003227234,0.9095700979232788,-0.01073786523193121,0.9101619124412537,-0.21073061227798462,-0.06998787075281143,0.2995029091835022,0.30720704793930054,-0.013696257025003433,1.2846866125293616e-15,-0.05478502810001373,-0.3614661007154092,-0.36146609884868314,-0.061087,0.0041958090929036344,0.8165982718135951,0.0,1.8446139920504363,1.844613997824069,0.2408976363142377,-1.5858751779437443,26.894720051405496,0.0,214.87210173946337,214.87210210435993,70.72647019328765,-157.746443798506,3373.0925240150455,0.0,0.23403906021265436,-0.022712448108604143,0.30221220732333104,0.535426302976,-0.02656972723200001,0.3,0.25,-0.07708111117243596,-0.003317615955776565,False,False,False,False,False,False,0
2.520412229,1772663195.3955653,-0.09449705481529236,0.033661291003227234,0.9095700979232788,-0.01073786523193121,0.9101619124412537,-0.21073061227798462,-0.06998787075281143,0.2995029091835022,0.30720704793930054,-0.013696257025003433,1.2846866125293616e-15,-0.05478502810001373,-0.32457382087440045,-0.3245738188922017,-0.05626904727371525,-0.027521694465971278,1.3544926728417055,0.0,-3.443232149033569,-3.443232267786531,-1.9705513498142821,3.0486528869634033,-49.11042654988454,0.0,-264.3923070542,-264.3923132805298,-110.57244930642591,231.72640324535718,-3800.2573300644985,0.0,0.23403906021265436,-0.022712448108604143,0.30221220732333104,0.535859375,-0.026894531250000006,0.3,0.25,-0.07924016800243597,-0.003317615955776565,False,False,True,False,False,False,0
2.540242975,1772663195.4153962,-0.10055819153785706,0.06817585974931717,0.945622444152832,-0.010354369878768921,0.9101619124412537,-0.21533255279064178,-0.060742899775505066,0.32977163791656494,0.34644681215286255,-0.0034240642562508583,1.2846866125293616e-15,-0.05136096477508545,-0.39343846385507186,-0.3934384642479324,-0.061087,0.03345136327329684,0.3722841418440139,0.0,2.959689770825894,2.959689772540295,0.5169604364671587,-2.8709493879289454,45.93353882358615,0.0,320.14609599297285,320.146102016341,124.37558931407193,-295.98011374461714,4752.19826867353,0.0,0.24098057880988724,-0.024826115483402324,0.30221175448675885,0.536269953024,-0.027202464768000013,0.3,0.25,-0.06081332485713518,-0.0016111009969043584,False,False,False,False,False,False,0
2.560430911,1772663195.435584,-0.10055819153785706,0.06817585974931717,0.945622444152832,-0.010354369878768921,0.9101619124412537,-0.21533255279064178,-0.060742899775505066,0.32977163791656494,0.34644681215286255,-0.0034240642562508583,1.2846866125293616e-15,-0.05136096477508545,-0.33424466843855394,-0.33424466879712644,-0.05074779127065682,-0.02396762448528212,1.2909549183157378,0.0,-3.5761480900920346,-3.5761478235378688,-2.096625158180857,3.183866823188914,-51.45871571339605,0.0,-326.79189304589613,-326.7918798039079,-130.67927973240066,302.7408105558927,-4869.6127268491055,0.0,0.24098057880988724,-0.024826115483402324,0.30221175448675885,0.5366577737680001,-0.027493330326000015,0.3,0.25,-0.0626073506871352,-0.0016111009969043584,False,False,True,False,False,False,0
2.580273267,1772663195.4554265,-0.10055819153785706,0.06817585974931717,0.945622444152832,-0.010354369878768921,0.9101619124412537,-0.21533255279064178,-0.060742899775505066,0.32977163791656494,0.34644681215286255,-0.0034240642562508583,1.2846866125293616e-15,-0.05136096477508545,-0.4057676302403947,-0.4057676252678839,-0.061087,0.039709711978496216,0.2617806040478159,0.0,2.7115241878798457,2.7115241804210797,0.2932779080908191,-2.5940786255330357,42.81810684132271,0.0,314.38361389859375,314.38360019794715,119.4951533135837,-288.8972724360972,4713.841127735934,0.0,0.24098057880988724,-0.024826115483402324,0.30221175448675885,0.5370226488319999,-0.027766986624000005,0.3,0.25,-0.06422197141713518,-0.0016111009969043584,False,False,False,False,False,False,0
2.600328175,1772663195.4754813,-0.10055819153785706,0.06817585974931717,0.945622444152832,-0.010354369878768921,0.9101619124412537,-0.21533255279064178,-0.060742899775505066,0.32977163791656494,0.34644681215286255,-0.0034240642562508583,1.2846866125293616e-15,-0.05136096477508545,-0.3515371464827977,-0.35153714165946226,-0.055221441838183616,-0.012171860532164541,1.1181427408742708,0.0,-3.619250341858688,-3.6192503490936914,-1.9752128612883952,2.726526886988027,-51.49990364836987,0.0,-316.5387264869264,-316.5387264757383,-113.42453846896062,266.0302756260529,-4715.900524484625,0.0,0.24098057880988724,-0.024826115483402324,0.30221175448675885,0.5373644675760001,-0.028023350681999987,0.3,0.25,-0.06566021824713501,-0.0016111009969043584,False,False,True,False,False,False,0
2.620245127,1772663195.4953983,-0.10055819153785706,0.06817585974931717,0.945622444152832,-0.010354369878768921,0.9101619124412537,-0.21533255279064178,-0.060742899775505066,0.32977163791656494,0.34644681215286255,-0.0034240642562508583,1.2846866125293616e-15,-0.05136096477508545,-0.4239221533199715,-0.42392214864133615,-0.061087,0.04235867720759604,0.08814466790687248,0.0,2.374364054528466,2.374364047510513,-0.037286735869951224,-1.9534411595774477,39.01741069176165,0.0,299.6807198193574,299.68071983020997,96.89630627092212,-233.99840232827353,4525.865717006572,0.0,0.24098057880988724,-0.024826115483402324,0.30221175448675885,0.5376832,-0.02826240000000004,0.3,0.25,-0.0669258675771355,-0.0016111009969043584,False,False,False,False,False,False,0
2.640258648,1772663195.5154116,-0.10532120615243912,0.09796959906816483,0.9768524169921875,-0.010929613374173641,0.9104815125465393,-0.2184005081653595,-0.044889483600854874,0.30056434869766235,0.3142263889312744,-0.010272192768752575,0.005706773605197668,-0.037664707750082016,-0.37643487222940214,-0.37643486769112583,-0.061087,0.0032898540160470544,0.8684928817421061,0.0,0.9566766774510909,0.9566766706436765,0.07381320478542208,-1.4359904292819705,10.45336651918474,0.0,-70.8843688538687,-70.88436884334178,5.55499703276866,25.872536514773834,-1428.2022086288441,0.0,0.24694911576446668,-0.0266459174199086,0.3020461695372913,0.537978899624,-0.028484174717999994,0.3,0.25,-0.04703479940475763,-0.0027751562384373887,False,False,True,False,False,False,0
2.660201912,1772663195.535355,-0.10532120615243912,0.09796959906816483,0.9768524169921875,-0.010929613374173641,0.9104815125465393,-0.2184005081653595,-0.044889483600854874,0.30056434869766235,0.3142263889312744,-0.010272192768752575,0.005706773605197668,-0.037664707750082016,-0.35730133868038033,-0.3573013342782523,-0.059610735904291556,-0.02542995456959238,1.0775602121258012,0.0,-3.3388888714326153,-3.3388888890225767,-3.7144642191807287,6.894546904990174,-47.999579899992014,0.0,-214.77827744418514,-214.77827798331245,-189.4138711983074,416.5268667136069,-2922.6473209588353,0.0,0.24694911576446668,-0.0266459174199086,0.3020461695372913,0.5382517063679999,-0.028688779775999984,0.3,0.25,-0.04796967173475753,-0.0027751562384373887,False,False,True,False,False,False,0
2.680232045,1772663195.5553854,-0.10532120615243912,0.09796959906816483,0.9768524169921875,-0.010929613374173641,0.9104815125465393,-0.2184005081653595,-0.044889483600854874,0.30056434869766235,0.3142263889312744,-0.010272192768752575,0.005706773605197668,-0.037664707750082016,-0.4240791161090327,-0.42407911205870386,-0.061087,0.11246098353021122,0.11756861412596009,0.0,2.4851526758041977,2.4851527238504496,0.3384157030263456,-5.2994707389696485,39.30572281472108,0.0,291.2020773618404,291.2020806436511,202.64399611035353,-609.7008821979906,4365.265135735651,0.0,0.24694911576446668,-0.0266459174199086,0.3020461695372913,0.5385018494320002,-0.028876387074000046,0.3,0.25,-0.04874796296475795,-0.0027751562384373887,False,False,False,False,False,False,0
