JLDominguezM/dreamteam-T3001B/M1-Kinematics/Lab2/src/xarm_ros2/xarm_perturbations/xarm_perturbations/results/challenge/trial_ctc_nopert_2026-03-04_16-28-26/trial_ctc_nopert_2026-03-04_16-28-26.csv
time,time_abs,q1,q2,q3,q4,q5,q6,qd1,qd2,qd3,qd4,qd5,qd6,q_des1,q_des2,q_des3,q_des4,q_des5,q_des6,qd_des1,qd_des2,qd_des3,qd_des4,qd_des5,qd_des6,qdd_des1,qdd_des2,qdd_des3,qdd_des4,qdd_des5,qdd_des6,px,py,pz,px_des,py_des,pz_des,cmd_x,cmd_y,cmd_z,sat1,sat2,sat3,sat4,sat5,sat6,pert_enabled
0.020236017,1772663306.6634285,0.002283714013174176,0.3447142541408539,1.2614288330078125,-0.014572817832231522,0.9363674521446228,-0.12732040882110596,-8.067083556134833e-16,3.3465293422963328e-15,6.026924763938453e-16,4.3814158272245933e-16,1.4432899320127035e-15,1.2926168526189116e-15,0.0,0.0,0.0,0.0,0.0,0.0,-6.706266598904588,-6.706266598904588,-1.008671833142239,-0.3055517028306486,-56.156005834371676,0.0,0.0,0.0,0.0,0.0,0.0,0.0,0.2999951383595838,-4.519769294535639e-05,0.29999588053169113,0.3,0.0,0.3,4.861640416214716e-05,0.0004519769294536018,4.119468308864773e-05,False,False,False,False,False,False,0
0.040437127,1772663306.6836298,0.002283714013174176,0.3447142541408539,1.2614288330078125,-0.014572817832231522,0.9363674521446228,-0.12732040882110596,-8.067083556134833e-16,3.3465293422963328e-15,6.026924763938453e-16,4.3814158272245933e-16,1.4432899320127035e-15,1.2926168526189116e-15,-0.13412533197809176,-0.13412533197809176,-0.020173436662844782,-0.006111034056612972,-1.1231201166874336,0.0,-2.7706801850983225,-2.7706801850983225,-1.286991232289155,-0.20347079906298338,-19.74767486686323,0.0,196.77932069031328,196.77932069031328,-13.915969957345798,5.10404518838326,1820.4165483754223,0.0,0.2999951383595838,-4.519769294535639e-05,0.29999588053169113,0.3,0.0,0.3,4.861640416214716e-05,0.0004519769294536018,4.119468308864773e-05,False,False,False,False,False,False,0
0.060274954,1772663306.7034678,0.002283714013174176,0.3447142541408539,1.2614288330078125,-0.014572817832231522,0.9363674521446228,-0.12732040882110596,-8.067083556134833e-16,3.3465293422963328e-15,6.026924763938453e-16,4.3814158272245933e-16,1.4432899320127035e-15,1.2926168526189116e-15,-0.1895389356800582,-0.1895389356800582,-0.045913261308627884,-0.01018045003787264,-1.5180736140246982,0.0,-1.8624031286513205,-1.8624031286513205,-1.1387834104547307,-0.16421721064676886,-12.668336528778083,0.0,45.413852822350094,45.413852822350094,7.4103910917212135,1.9626794208107257,353.9669169042573,0.0,0.2999951383595838,-4.519769294535639e-05,0.29999588053169113,0.3,0.0,0.3,4.861640416214716e-05,0.0004519769294536018,4.119468308864773e-05,False,False,False,False,False,False,0
0.080254128,1772663306.7234468,0.002283714013174176,0.3447142541408539,1.2614288330078125,-0.014572817832231522,0.9363674521446228,-0.12732040882110596,-8.067083556134833e-16,3.3465293422963328e-15,6.026924763938453e-16,4.3814158272245933e-16,1.4432899320127035e-15,1.2926168526189116e-15,-0.2267869982530846,-0.2267869982530846,-0.061087,-0.013464794250808015,-1.7714403446002598,0.0,-1.3489083741165457,-1.3489083741165457,-0.9991136711118641,-0.1747646819347278,-8.36616269369577,0.0,25.674737726738744,25.674737726738744,6.983486967143333,-0.5273735643979469,215.10869175411565,0.0,0.2999951383595838,-4.519769294535639e-05,0.29999588053169113,0.3,0.0,0.3,4.861640416214716e-05,0.0004519769294536018,4.119468308864773e-05,False,False,False,False,False,False,0
0.100386661,1772663306.7435794,0.002283714013174176,0.3447142541408539,1.2614288330078125,-0.014572817832231522,0.9363674521446228,-0.12732040882110596,-8.067083556134833e-16,3.3465293422963328e-15,6.026924763938453e-16,4.3814158272245933e-16,1.4432899320127035e-15,1.2926168526189116e-15,-0.2537651657354155,-0.2537651657354155,-0.061087,-0.01696008788950257,-1.9387635984741753,0.0,-1.0484504885513708,-1.0484504885513708,-0.9661828195309077,-0.21628475265485977,-5.11546159253905,0.0,15.022894278258745,15.022894278258745,1.6465425790478214,-2.0760035360065983,162.535055057836,0.0,0.2999951383595838,-4.519769294535639e-05,0.29999588053169113,0.3,0.0,0.3,4.861640416214716e-05,0.0004519769294536018,4.119468308864773e-05,False,False,False,False,False,False,0
0.120276968,1772663306.7634695,0.002283714013174176,0.3447142541408539,1.2614288330078125,-0.014572817832231522,0.9363674521446228,-0.12732040882110596,-8.067083556134833e-16,3.3465293422963328e-15,6.026924763938453e-16,4.3814158272245933e-16,1.4432899320127035e-15,1.2926168526189116e-15,-0.27473417550644297,-0.27473417550644297,-0.061087,-0.021285782942599765,-2.0410728303249566,0.0,-0.8855127294351262,-0.8855127294351262,-0.9532257526198267,-0.260528344642196,-2.4293089426200707,0.0,8.14688795581223,8.14688795581223,0.6478533455540502,-2.2121795993668103,134.30763249594892,0.0,0.2999951383595838,-4.519769294535639e-05,0.29999588053169113,0.3,0.0,0.3,4.861640416214716e-05,0.0004519769294536018,4.119468308864773e-05,False,False,False,False,False,False,0
0.140366833,1772663306.7835593,0.002283714013174176,0.3447142541408539,1.2614288330078125,-0.014572817832231522,0.9363674521446228,-0.12732040882110596,-8.067083556134833e-16,3.3465293422963328e-15,6.026924763938453e-16,4.3814158272245933e-16,1.4432899320127035e-15,1.2926168526189116e-15,-0.2924444300951455,-0.2924444300951455,-0.061087,-0.026496349835443682,-2.089659009177358,0.0,-0.7500762465363273,-0.7500762465363273,-0.9513021264441445,-0.2850905809778859,-0.7084805468377373,0.0,6.771824144939945,6.771824144939945,0.09618130878411017,-1.2281118167844973,86.04141978911672,0.0,0.2999951383595838,-4.519769294535639e-05,0.29999588053169113,0.3,0.0,0.3,4.861640416214716e-05,0.0004519769294536018,4.119468308864773e-05,False,False,False,False,False,False,0
0.160385384,1772663306.8035781,0.002283714013174176,0.3447142541408539,1.2614288330078125,-0.014572817832231522,0.9363674521446228,-0.12732040882110596,-8.067083556134833e-16,3.3465293422963328e-15,6.026924763938453e-16,4.3814158272245933e-16,1.4432899320127035e-15,1.2926168526189116e-15,-0.307445955025872,-0.307445955025872,-0.061087,-0.03219816145500141,-2.103828620114113,0.0,-0.6003807699894653,-0.6003807699894653,-0.9506396521141098,-0.2948292692531237,0.0339306521745657,0.0,7.484773827343093,7.484773827343093,0.03312371650173171,-0.4869344137618882,37.12055995061512,0.0,0.2999951383595838,-4.519769294535639e-05,0.29999588053169113,0.3,0.0,0.3,4.861640416214716e-05,0.0004519769294536018,4.119468308864773e-05,False,False,False,False,False,False,0
0.180359944,1772663306.8235528,0.002283714013174176,0.3447142541408539,1.2614288330078125,-0.014572817832231522,0.9363674521446228,-0.12732040882110596,-8.067083556134833e-16,3.3465293422963328e-15,6.026924763938453e-16,4.3814158272245933e-16,1.4432899320127035e-15,1.2926168526189116e-15,-0.3194535704256613,-0.3194535704256613,-0.061087,-0.03809474684006388,-2.1031500070706217,0.0,-0.4607861819384921,-0.4607861819384921,-0.9481855648540949,-0.30284138811235745,0.2722342672987914,0.0,6.979729402548665,6.979729402548665,0.12270436300074744,-0.40060594296168783,11.915180756211292,0.0,0.2999951383595838,-4.519769294535639e-05,0.29999588053169113,0.3,0.0,0.3,4.861640416214716e-05,0.0004519769294536018,4.119468308864773e-05,False,False,False,False,False,False,0
0.20050839,1772663306.843701,0.002283714013174176,0.3447142541408539,1.2614288330078125,-0.014572817832231522,0.9363674521446228,-0.12732040882110596,-8.067083556134833e-16,3.3465293422963328e-15,6.026924763938453e-16,4.3814158272245933e-16,1.4432899320127035e-15,1.2926168526189116e-15,-0.32866929406443113,-0.32866929406443113,-0.061087,-0.044151574602311026,-2.097705321724646,0.0,-0.3458056176468841,-0.3458056176468841,-0.9440228876962582,-0.3133759646800669,0.31093408294537284,0.0,5.7490282145804015,5.7490282145804015,0.2081338578918347,-0.5267288283854729,1.9349907823290722,0.0,0.2999951383595838,-4.519769294535639e-05,0.29999588053169113,0.3,0.0,0.3,4.861640416214716e-05,0.0004519769294536018,4.119468308864773e-05,False,False,True,False,False,False,0
0.220297478,1772663306.8634903,0.002283714013174176,0.3447142541408539,1.2614288330078125,-0.014572817832231522,0.9363674521446228,-0.12732040882110596,-8.067083556134833e-16,3.3465293422963328e-15,6.026924763938453e-16,4.3814158272245933e-16,1.4432899320127035e-15,1.2926168526189116e-15,-0.33558540641736884,-0.33558540641736884,-0.061087,-0.05041909389591237,-2.0914866400657384,0.0,-0.25648971609401255,-0.2564897160940125,-0.9386210729584017,-0.326630657797493,0.27980483703175807,0.0,4.465795077643574,4.465795077643577,0.2700907368928249,-0.6627346558713049,-1.556462295680737,0.0,0.2999951383595838,-4.519769294535639e-05,0.29999588053169113,0.3,0.0,0.3,4.861640416214716e-05,0.0004519769294536018,4.119468308864773e-05,False,False,True,False,False,False,0
0.240360063,1772663306.8835528,0.002283714013174176,0.3447142541408539,1.2614288330078125,-0.014572817832231522,0.9363674521446228,-0.12732040882110596,-8.067083556134833e-16,3.3465293422963328e-15,6.026924763938453e-16,4.3814158272245933e-16,1.4432899320127035e-15,1.2926168526189116e-15,-0.3407152007392491,-0.3407152007392491,-0.061087,-0.05695170705186223,-2.085890543325103,0.0,-0.1892034729263804,-0.1892034729263804,-0.9323354997945626,-0.3420582161471644,0.2311832629547359,0.0,3.3643121583816096,3.3643121583816065,0.3142786581919523,-0.7713779174835709,-2.4310787038511097,0.0,0.2999951383595838,-4.519769294535639e-05,0.29999588053169113,0.3,0.0,0.3,4.861640416214716e-05,0.0004519769294536018,4.119468308864773e-05,True,True,True,False,False,False,0
0.260379752,1772663306.9035726,0.002283714013174176,0.3447142541408539,1.2614288330078125,-0.014572817832231522,0.9363674521446228,-0.12732040882110596,-8.067083556134833e-16,3.3465293422963328e-15,6.026924763938453e-16,4.3814158272245933e-16,1.4432899320127035e-15,1.2926168526189116e-15,-0.3444992701977767,-0.3444992701977767,-0.061087,-0.06379287137480551,-2.0812668780660086,0.0,-0.13942803035853935,-0.13942803035853935,-0.9253913536442288,-0.3591484937966116,0.18502506976728483,0.0,2.488772128392054,2.488772128392054,0.347207307516695,-0.8545138824723607,-2.3079096593725548,0.0,0.2999951383595838,-4.519769294535639e-05,0.29999588053169113,0.3,0.0,0.3,4.861640416214716e-05,0.0004519769294536018,4.119468308864773e-05,True,True,True,False,False,False,0
0.280339499,1772663306.9235322,0.002283714013174176,0.3447142541408539,1.2614288330078125,-0.014572817832231522,0.9363674521446228,-0.12732040882110596,-8.067083556134833e-16,3.3465293422963328e-15,6.026924763938453e-16,4.3814158272245933e-16,1.4432899320127035e-15,1.2926168526189116e-15,-0.3472878308049475,-0.3472878308049475,-0.061087,-0.07097584125073775,-2.077566376670663,0.0,-0.1030488458009748,-0.1030488458009748,-0.9179281614234291,-0.37751459424540124,0.1476659687057571,0.0,1.8189592278782256,1.8189592278782256,0.3731596110399801,-0.9183050224394799,-1.867955053076385,0.0,0.2999951383595838,-4.519769294535639e-05,0.29999588053169113,0.3,0.0,0.3,4.861640416214716e-05,0.0004519769294536018,4.119468308864773e-05,True,True,True,False,True,False,0
0.300377379,1772663306.9435701,0.002283714013174176,0.3447142541408539,1.2614288330078125,-0.014572817832231522,0.9363674521446228,-0.12732040882110596,-8.067083556134833e-16,3.3465293422963328e-15,6.026924763938453e-16,4.3814158272245933e-16,1.4432899320127035e-15,1.2926168526189116e-15,-0.349348807720967,-0.349348807720967,-0.061087,-0.07852613313564578,-2.0746130572965478,0.0,-0.07670126921354498,-0.07670126921354495,-0.9100360180325039,-0.3968575239518736,0.11992427650090542,0.0,1.31737882937149,1.3173788293714914,0.3946071695462624,-0.9671464853236186,-1.3870846102425824,0.0,0.2999951383595838,-4.519769294535639e-05,0.29999588053169113,0.3,0.0,0.3,4.861640416214716e-05,0.0004519769294536018,4.119468308864773e-05,True,True,True,False,True,False,0
0.32029159,1772663306.9634845,0.002283714013174176,0.3447142541408539,1.2614288330078125,-0.014572817832231522,0.9363674521446228,-0.12732040882110596,-8.067083556134833e-16,3.3465293422963328e-15,6.026924763938453e-16,4.3814158272245933e-16,1.4432899320127035e-15,1.2926168526189116e-15,-0.3508828331052379,-0.3508828331052379,-0.061087,-0.08646328361468324,-2.0722145717665295,0.0,-0.057771375701391944,-0.05777137570139197,-0.9017781647477766,-0.4169283632114163,0.10063064506051633,0.0,0.9464946756076533,0.9464946756076505,0.4128926642363647,-1.0035419629771356,-0.9646815720194564,0.0,0.2999951383595838,-4.519769294535639e-05,0.29999588053169113,0.3,0.0,0.3,4.861640416214716e-05,0.0004519769294536018,4.119468308864773e-05,True,True,True,False,True,False,0
0.340310089,1772663306.9835029,0.002283714013174176,0.3447142541408539,1.2614288330078125,-0.014572817832231522,0.9363674521446228,-0.12732040882110596,-8.067083556134833e-16,3.3465293422963328e-15,6.026924763938453e-16,4.3814158272245933e-16,1.4432899320127035e-15,1.2926168526189116e-15,-0.35203826061926574,-0.35203826061926574,-0.061087,-0.09480185087891158,-2.070201958865319,0.0,-0.044284910244930725,-0.044284910244930725,-0.8932042648750292,-0.4375026931488606,0.08812174506105297,0.0,0.6743232728230604,0.6743232728230617,0.4286949936373681,-1.0287164968722136,-0.6254449999731676,0.0,0.2999951383595838,-4.519769294535639e-05,0.29999588053169113,0.3,0.0,0.3,4.861640416214716e-05,0.0004519769294536018,4.119468308864773e-05,True,True,True,False,True,False,0
0.360367607,1772663307.0035603,0.002283714013174176,0.3447142541408539,1.2614288330078125,-0.014572817832231522,0.9363674521446228,-0.12732040882110596,-8.067083556134833e-16,3.3465293422963328e-15,6.026924763938453e-16,4.3814158272245933e-16,1.4432899320127035e-15,1.2926168526189116e-15,-0.35292395882416433,-0.35292395882416433,-0.061087,-0.1035519047418888,-2.068439523964098,0.0,-0.03477550771834681,-0.03477550771834681,-0.8843581771472055,-0.45836485959386264,0.08082389599124018,0.0,0.47547012632919533,0.47547012632919533,0.44230438639118425,-1.0431083222501016,-0.36489245349063915,0.0,0.2999951383595838,-4.519769294535639e-05,0.29999588053169113,0.3,0.0,0.3,4.861640416214716e-05,0.0004519769294536018,4.119468308864773e-05,True,True,True,False,True,False,0
0.380356434,1772663307.023549,0.002283714013174176,0.3447142541408539,1.2614288330078125,-0.014572817832231522,0.9363674521446228,-0.12732040882110596,-8.067083556134833e-16,3.3465293422963328e-15,6.026924763938453e-16,4.3814158272245933e-16,1.4432899320127035e-15,1.2926168526189116e-15,-0.35361946897853125,-0.35361946897853125,-0.061087,-0.11271920193376604,-2.066823046044273,0.0,-0.028165171767174063,-0.028165171767174063,-0.8752825168753288,-0.47929864077860534,0.0774377672508455,0.0,0.33051679755863794,0.33051679755863794,0.45378301359384005,-1.0466890592371372,-0.16930643701973425,0.0,0.2999951383595838,-4.519769294535639e-05,0.29999588053169113,0.3,0.0,0.3,4.861640416214716e-05,0.0004519769294536018,4.119468308864773e-05,True,True,True,False,True,False,0
0.400232875,1772663307.0434256,0.002283714013174176,0.3447142541408539,1.2614288330078125,-0.014572817832231522,0.9363674521446228,-0.12732040882110596,-8.067083556134833e-16,3.3465293422963328e-15,6.026924763938453e-16,4.3814158272245933e-16,1.4432899320127035e-15,1.2926168526189116e-15,-0.35418277241387475,-0.35418277241387475,-0.061087,-0.12230517474933816,-2.0652742906992563,0.0,-0.023666342246298072,-0.023666342246298072,-0.8660212874190019,-0.5000820647007131,0.07695803722900996,0.0,0.22494147604379935,0.22494147604379935,0.46306147281634474,-1.039171196105389,-0.023986501091777225,0.0,0.2999951383595838,-4.519769294535639e-05,0.29999588053169113,0.3,0.0,0.3,4.861640416214716e-05,0.0004519769294536018,4.119468308864773e-05,True,True,True,False,True,False,0
0.420259112,1772663307.063452,0.002283714013174176,0.3447142541408539,1.2614288330078125,-0.014572817832231522,0.9363674521446228,-0.12732040882110596,-8.067083556134833e-16,3.3465293422963328e-15,6.026924763938453e-16,4.3814158272245933e-16,1.4432899320127035e-15,1.2926168526189116e-15,-0.3546560992588007,-0.3546560992588007,-0.061087,-0.13230681604335243,-2.0637351299546762,0.0,-0.02070555429745813,-0.02070555429745813,-0.856621202365911,-0.5204857174538019,0.0786326657163654,0.0,0.14803939744199704,0.14803939744199704,0.47000425265454293,-1.0201826376544367,0.08373142436777219,0.0,0.2999951383595838,-4.519769294535639e-05,0.29999588053169113,0.3,0.0,0.3,4.861640416214716e-05,0.0004519769294536018,4.119468308864773e-05,True,True,True,False,True,False,0
0.440158854,1772663307.0833516,0.002283714013174176,0.3447142541408539,1.2614288330078125,-0.014572817832231522,0.9363674521446228,-0.12732040882110596,-8.067083556134833e-16,3.3465293422963328e-15,6.026924763938453e-16,4.3814158272245933e-16,1.4432899320127035e-15,1.2926168526189116e-15,-0.3550702103447499,-0.3550702103447499,-0.061087,-0.14271653039242843,-2.062162476640349,0.0,-0.018865602661802594,-0.018865602661802594,-0.8471321486289874,-0.5402733153261635,0.08190735536914784,0.0,0.09199758178277691,0.09199758178277691,0.47445268684617825,-0.9893798936180828,0.16373448263912213,0.0,0.2999951383595838,-4.519769294535639e-05,0.29999588053169113,0.3,0.0,0.3,4.861640416214716e-05,0.0004519769294536018,4.119468308864773e-05,True,True,True,False,True,False,0
0.460149941,1772663307.1033425,0.002283714013174176,0.3447142541408539,1.2614288330078125,-0.014572817832231522,0.9363674521446228,-0.12732040882110596,-8.067083556134833e-16,3.3465293422963328e-15,6.026924763938453e-16,4.3814158272245933e-16,1.4432899320127035e-15,1.2926168526189116e-15,-0.35544752239798594,-0.35544752239798594,-0.061087,-0.15352199669895172,-2.060524329532966,0.0,-0.01784251520000127,-0.01784251520000127,-0.8376069373312804,-0.559204777169112,0.08637351396795956,0.0,0.051154373090066214,0.051154373090066214,0.47626056488534974,-0.9465730921474227,0.22330792994058582,0.0,0.2999951383595838,-4.519769294535639e-05,0.29999588053169113,0.3,0.0,0.3,4.861640416214716e-05,0.0004519769294536018,4.119468308864773e-05,True,True,True,False,True,False,0
0.480144779,1772663307.1233375,0.002283714013174176,0.3447142541408539,1.2614288330078125,-0.014572817832231522,0.9363674521446228,-0.12732040882110596,-8.067083556134833e-16,3.3465293422963328e-15,6.026924763938453e-16,4.3814158272245933e-16,1.4432899320127035e-15,1.2926168526189116e-15,-0.35580437270198595,-0.35580437270198595,-0.061087,-0.16470609224233398,-2.0587968592536066,0.0,-0.017413909760144203,-0.01741390976014423,-0.8281005710823792,-0.5770408607787294,0.09172544395858595,0.0,0.021430271992853283,0.021430271992851895,0.4753183124450606,-0.89180418048087,0.26759649953131937,0.0,0.2999951383595838,-4.519769294535639e-05,0.29999588053169113,0.3,0.0,0.3,4.861640416214716e-05,0.0004519769294536018,4.119468308864773e-05,True,True,True,False,True,False,0
0.500206491,1772663307.1433992,0.002283714013174176,0.3447142541408539,1.2614288330078125,-0.014572817832231522,0.9363674521446228,-0.12732040882110596,-8.067083556134833e-16,3.3465293422963328e-15,6.026924763938453e-16,4.3814158272245933e-16,1.4432899320127035e-15,1.2926168526189116e-15,-0.35615265089718884,-0.35615265089718884,-0.061087,-0.17624690945790855,-2.0569623503744348,0.0,-0.01741595434850307,-0.01741595434850307,-0.8186690854507686,-0.5935494248010762,0.09772776178326548,0.0,-0.00010222941794341153,-0.00010222941794202375,0.4715742815805344,-0.8254282011173413,0.30011589123397686,0.0,0.2999951383595838,-4.519769294535639e-05,0.29999588053169113,0.3,0.0,0.3,4.861640416214716e-05,0.0004519769294536018,4.119468308864773e-05,True,True,True,False,True,False,0
0.520213127,1772663307.163406,0.002283714013174176,0.3447142541408539,1.2614288330078125,-0.014572817832231522,0.9363674521446228,-0.12732040882110596,-8.067083556134833e-16,3.3465293422963328e-15,6.026924763938453e-16,4.3814158272245933e-16,1.4432899320127035e-15,1.2926168526189116e-15,-0.3565009699841589,-0.3565009699841589,-0.061087,-0.18811789795393008,-2.0550077951387693,0.0,-0.017726701424057134,-0.017726701424057134,-0.8093681347650271,-0.6085123937815515,0.10419159582787696,0.0,-0.015537353777703142,-0.015537353777703142,0.4650475342870715,-0.748148449023766,0.32319170223057386,0.0,0.2999951383595838,-4.519769294535639e-05,0.29999588053169113,0.3,0.0,0.3,4.861640416214716e-05,0.0004519769294536018,4.119468308864773e-05,True,True,True,False,True,False,0
0.540190027,1772663307.1833827,0.002283714013174176,0.3447142541408539,1.2614288330078125,-0.014572817832231522,0.9363674521446228,-0.12732040882110596,-8.067083556134833e-16,3.3465293422963328e-15,6.026924763938453e-16,4.3814158272245933e-16,1.4432899320127035e-15,1.2926168526189116e-15,-0.35685550401264005,-0.35685550401264005,-0.061087,-0.20028814582956112,-2.0529239632222116,0.0,-0.018254146968429696,-0.018254146968429696,-0.8002514070346298,-0.6217332480829135,0.11095813120427045,0.0,-0.02637227721862809,-0.02637227721862809,0.4558363865198641,-0.6610427150680992,0.3383267688196742,0.0,0.2999951383595838,-4.519769294535639e-05,0.29999588053169113,0.3,0.0,0.3,4.861640416214716e-05,0.0004519769294536018,4.119468308864773e-05,True,True,True,False,True,False,0
0.56014952,1772663307.2033424,0.002283714013174176,0.3447142541408539,1.2614288330078125,-0.014572817832231522,0.9363674521446228,-0.12732040882110596,-8.067083556134833e-16,3.3465293422963328e-15,6.026924763938453e-16,4.3814158272245933e-16,1.4432899320127035e-15,1.2926168526189116e-15,-0.35722058695200865,-0.35722058695200865,-0.061087,-0.2127228107912194,-2.050704800598126,0.0,-0.01892775382853562,-0.01892775382853565,-0.7913690136249723,-0.633044208564085,0.11788782761987604,0.0,-0.03368034300529618,-0.03368034300529757,0.4441196704828783,-0.5655480240585758,0.3464848207802792,0.0,0.2999951383595838,-4.519769294535639e-05,0.29999588053169113,0.3,0.0,0.3,4.861640416214716e-05,0.0004519769294536018,4.119468308864773e-05,True,True,True,False,True,False,0
0.58020106,1772663307.2233937,0.002283714013174176,0.3447142541408539,1.2614288330078125,-0.014572817832231522,0.9363674521446228,-0.12732040882110596,-8.067083556134833e-16,3.3465293422963328e-15,6.026924763938453e-16,4.3814158272245933e-16,1.4432899320127035e-15,1.2926168526189116e-15,-0.35759914202857934,-0.35759914202857934,-0.061087,-0.22538369496250113,-2.0483470440457285,0.0,-0.01969249346655577,-0.01969249346655577,-0.782765988045546,-0.6423124638709027,0.12485381657253347,0.0,-0.038236981901007515,-0.03823698190100613,0.43015127897131317,-0.4634127653408811,0.34829944763287124,0.0,0.2999951383595838,-4.519769294535639e-05,0.29999588053169113,0.3,0.0,0.3,4.861640416214716e-05,0.0004519769294536018,4.119468308864773e-05,True,True,True,False,True,False,0
0.600149072,1772663307.243342,0.002283714013174176,0.3447142541408539,1.2614288330078125,-0.014572817832231522,0.9363674521446228,-0.12732040882110596,-8.067083556134833e-16,3.3465293422963328e-15,6.026924763938453e-16,4.3814158272245933e-16,1.4432899320127035e-15,1.2926168526189116e-15,-0.35799299189791045,-0.35799299189791045,-0.061087,-0.2382299442399191,-2.045849967714278,0.0,-0.02050472811679005,-0.02050472811679005,-0.7744810092017522,-0.6494449958036685,0.13173851305186135,0.0,-0.04061173251171409,-0.04061173251171409,0.4142489421896897,-0.35662659663829477,0.34423482396639554,0.0,0.2999951383595838,-4.519769294535639e-05,0.29999588053169113,0.3,0.0,0.3,4.861640416214716e-05,0.0004519769294536018,4.119468308864773e-05,True,True,True,False,True,False,0
0.620193391,1772663307.263386,0.002283714013174176,0.3447142541408539,1.2614288330078125,-0.014572817832231522,0.9363674521446228,-0.12732040882110596,-8.067083556134833e-16,3.3465293422963328e-15,6.026924763938453e-16,4.3814158272245933e-16,1.4432899320127035e-15,1.2926168526189116e-15,-0.35840308646024627,-0.35840308646024627,-0.061087,-0.2512188441559925,-2.043215197453241,0.0,-0.021329402101114683,-0.02132940210111471,-0.7665454439181463,-0.6543914767920672,0.13843237847851397,0.0,-0.04123369921623165,-0.04123369921623304,0.39677826418029716,-0.24732404941993336,0.3346932713326309,0.0,0.2999951383595838,-4.519769294535639e-05,0.29999588053169113,0.3,0.0,0.3,4.861640416214716e-05,0.0004519769294536018,4.119468308864773e-05,True,True,True,False,True,False,0
0.640169265,1772663307.2833622,0.002283714013174176,0.3447142541408539,1.2614288330078125,-0.014572817832231522,0.9363674521446228,-0.12732040882110596,-8.067083556134833e-16,3.3465293422963328e-15,6.026924763938453e-16,4.3814158272245933e-16,1.4432899320127035e-15,1.2926168526189116e-15,-0.35882967450226855,-0.35882967450226855,-0.061087,-0.26430667369183386,-2.040446549883671,0.0,-0.02213816667151386,-0.02213816667151386,-0.7589827849439951,-0.6571450528156559,0.1448342372987692,0.0,-0.040438228519958756,-0.04043822851995737,0.37813294870755987,-0.13767880117943598,0.3200929410127615,0.0,0.2999951383595838,-4.519769294535639e-05,0.29999588053169113,0.3,0.0,0.3,4.861640416214716e-05,0.0004519769294536018,4.119468308864773e-05,True,True,True,False,True,False,0
0.660534416,1772663307.3037271,0.002283714013174176,0.3447142541408539,1.2614288330078125,-0.014572817832231522,0.9363674521446228,-0.12732040882110596,-8.067083556134833e-16,3.3465293422963328e-15,6.026924763938453e-16,4.3814158272245933e-16,1.4432899320127035e-15,1.2926168526189116e-15,-0.35927243783569884,-0.35927243783569884,-0.061087,-0.27744957474814697,-2.0375498651376955,0.0,-0.022908137755311378,-0.02290813775531135,-0.7518084971600907,-0.6577409636769551,0.15085241758119183,0.0,-0.038498554189875904,-0.038498554189874516,0.35871438919521903,-0.029795543064958768,0.30090901412113097,0.0,0.2999951383595838,-4.519769294535639e-05,0.29999588053169113,0.3,0.0,0.3,4.861640416214716e-05,0.0004519769294536018,4.119468308864773e-05,True,True,True,False,True,False,0
0.680149244,1772663307.323342,0.002283714013174176,0.3447142541408539,1.2614288330078125,-0.014572817832231522,0.9363674521446228,-0.12732040882110596,-8.067083556134833e-16,3.3465293422963328e-15,6.026924763938453e-16,4.3814158272245933e-16,1.4432899320127035e-15,1.2926168526189116e-15,-0.3597306005908051,-0.3597306005908051,-0.061087,-0.2906043940216861,-2.0345328167860717,0.0,-0.023621068107642446,-0.023621068107642446,-0.7450302652096823,-0.6562531569415033,0.15640623895148686,0.0,-0.035646517616553346,-0.03564651761655473,0.33891159752041905,0.07439033677258948,0.27769106851475134,0.0,0.2999951383595838,-4.519769294535639e-05,0.29999588053169113,0.3,0.0,0.3,4.861640416214716e-05,0.0004519769294536018,4.119468308864773e-05,True,True,True,False,True,False,0
0.70015641,1772663307.3433492,0.002283714013174176,0.3447142541408539,1.2614288330078125,-0.014572817832231522,0.9363674521446228,-0.12732040882110596,-8.067083556134833e-16,3.3465293422963328e-15,6.026924763938453e-16,4.3814158272245933e-16,1.4432899320127035e-15,1.2926168526189116e-15,-0.36020302195295795,-0.36020302195295795,-0.061087,-0.30372945716051614,-2.031404692007042,0.0,-0.02426278329150057,-0.02426278329150057,-0.7386485847944061,-0.6527893303383856,0.1614275319286369,0.0,-0.03208575919290618,-0.03208575919290618,0.3190840207638099,0.17319133015588611,0.2510646488575017,0.0,0.2999951383595838,-4.519769294535639e-05,0.29999588053169113,0.3,0.0,0.3,4.861640416214716e-05,0.0004519769294536018,4.119468308864773e-05,True,True,True,False,True,False,0
0.720151021,1772663307.3633437,0.002283714013174176,0.3447142541408539,1.2614288330078125,-0.014572817832231522,0.9363674521446228,-0.12732040882110596,-8.067083556134833e-16,3.3465293422963328e-15,6.026924763938453e-16,4.3814158272245933e-16,1.4432899320127035e-15,1.2926168526189116e-15,-0.36068827761878797,-0.36068827761878797,-0.061087,-0.31678524376728384,-2.0281761413684696,0.0,-0.024822757305151086,-0.024822757305151058,-0.7326576290160495,-0.6474847358023427,0.16586182589173282,0.0,-0.027998700682525777,-0.02799870068252439,0.2995477889178308,0.2652297268021462,0.22171469815479553,0.0,0.2999951383595838,-4.519769294535639e-05,0.29999588053169113,0.3,0.0,0.3,4.861640416214716e-05,0.0004519769294536018,4.119468308864773e-05,True,True,True,True,True,False,0
0.740153636,1772663307.3833463,0.002283714013174176,0.3447142541408539,1.2614288330078125,-0.014572817832231522,0.9363674521446228,-0.12732040882110596,-8.067083556134833e-16,3.3465293422963328e-15,6.026924763938453e-16,4.3814158272245933e-16,1.4432899320127035e-15,1.2926168526189116e-15,-0.361184732764891,-0.361184732764891,-0.061087,-0.32973493848333063,-2.024858904850635,0.0,-0.025293754122131,-0.02529375412213103,-0.7270462832071174,-0.6404954531874348,0.16966903285833057,0.0,-0.02354984084899589,-0.023549840848998665,0.2805672904466052,0.34946413074539323,0.19036034832988857,0.0,0.2999951383595838,-4.519769294535639e-05,0.29999588053169113,0.3,0.0,0.3,4.861640416214716e-05,0.0004519769294536018,4.119468308864773e-05,True,True,True,True,True,False,0
0.760229081,1772663307.4034216,0.002283714013174176,0.3447142541408539,1.2614288330078125,-0.014572817832231522,0.9363674521446228,-0.12732040882110596,-8.067083556134833e-16,3.3465293422963328e-15,6.026924763938453e-16,4.3814158272245933e-16,1.4432899320127035e-15,1.2926168526189116e-15,-0.3616906078473336,-0.3616906078473336,-0.061087,-0.34254484754707937,-2.0214655241934683,0.0,-0.02567149249540697,-0.02567149249540697,-0.7217992666582282,-0.6319914891523168,0.1728235981401356,0.0,-0.01888691866379839,-0.018886918663797003,0.26235082744445726,0.42519820175589934,0.15772826409025095,0.0,0.2999951383595838,-4.519769294535639e-05,0.29999588053169113,0.3,0.0,0.3,4.861640416214716e-05,0.0004519769294536018,4.119468308864773e-05,True,True,True,True,True,False,0
0.780170411,1772663307.423363,0.002283714013174176,0.3447142541408539,1.2614288330078125,-0.014572817832231522,0.9363674521446228,-0.12732040882110596,-8.067083556134833e-16,3.3465293422963328e-15,6.026924763938453e-16,4.3814158272245933e-16,1.4432899320127035e-15,1.2926168526189116e-15,-0.36220403769724174,-0.36220403769724174,-0.061087,-0.3551846773301257,-2.0180090522306657,0.0,-0.025954310398438138,-0.025954310398438166,-0.7168982432949494,-0.6221503352260469,0.17531410247143553,0.0,-0.014140895151558407,-0.014140895151559795,0.2450511681639398,0.4920576963134966,0.12452521656499671,0.0,0.2999951383595838,-4.519769294535639e-05,0.29999588053169113,0.3,0.0,0.3,4.861640416214716e-05,0.0004519769294536018,4.119468308864773e-05,True,True,True,True,True,False,0
0.800190505,1772663307.4433832,0.002283714013174176,0.3447142541408539,1.2614288330078125,-0.014572817832231522,0.9363674521446228,-0.12732040882110596,-8.067083556134833e-16,3.3465293422963328e-15,6.026924763938453e-16,4.3814158272245933e-16,1.4432899320127035e-15,1.2926168526189116e-15,-0.3627231239052105,-0.3627231239052105,-0.061087,-0.3676276840346467,-2.014502770181237,0.0,-0.026142802908242183,-0.02614280290824221,-0.7123228764505595,-0.6111509764490344,0.17714222460883655,0.0,-0.009424625490202223,-0.009424625490202223,0.2287683422194984,0.5499679388506258,0.09140610687005105,0.0,0.2999951383595838,-4.519769294535639e-05,0.29999588053169113,0.3,0.0,0.3,4.861640416214716e-05,0.0004519769294536018,4.119468308864773e-05,True,True,True,True,True,False,0
0.820172136,1772663307.4633648,0.002283714013174176,0.3447142541408539,1.2614288330078125,-0.014572817832231522,0.9363674521446228,-0.12732040882110596,-8.067083556134833e-16,3.3465293422963328e-15,6.026924763938453e-16,4.3814158272245933e-16,1.4432899320127035e-15,1.2926168526189116e-15,-0.3632459799633753,-0.3632459799633753,-0.061087,-0.3798507035636274,-2.0109599256890602,0.0,-0.026239472442824763,-0.026239472442824763,-0.7080517426639427,-0.599169083552701,0.1783214684248623,0.0,-0.004833476729129006,-0.004833476729127618,0.2135566893308403,0.5990946448166662,0.05896219080128712,0.0,0.2999951383595838,-4.519769294535639e-05,0.29999588053169113,0.3,0.0,0.3,4.861640416214716e-05,0.0004519769294536018,4.119468308864773e-05,True,True,True,True,True,False,0
0.840162809,1772663307.4833558,0.002283714013174176,0.3447142541408539,1.2614288330078125,-0.014572817832231522,0.9363674521446228,-0.12732040882110596,-8.067083556134833e-16,3.3465293422963328e-15,6.026924763938453e-16,4.3814158272245933e-16,1.4432899320127035e-15,1.2926168526189116e-15,-0.3637707694122318,-0.3637707694122318,-0.061087,-0.3918340852346814,-2.007393496320563,0.0,-0.02624836063010562,-0.02624836063010559,-0.7040631109014193,-0.5863729921889179,0.1788754396331842,0.0,-0.00044440936404280224,-0.00044440936404141447,0.19943158812616973,0.6398045681891557,0.02769856041609506,0.0,0.2999951383595838,-4.519769294535639e-05,0.29999588053169113,0.3,0.0,0.3,4.861640416214716e-05,0.0004519769294536018,4.119468308864773e-05,True,True,True,True,True,False,0
0.860198699,1772663307.5033915,0.002283714013174176,0.3447142541408539,1.2614288330078125,-0.014572817832231522,0.9363674521446228,-0.12732040882110596,-8.067083556134833e-16,3.3465293422963328e-15,6.026924763938453e-16,4.3814158272245933e-16,1.4432899320127035e-15,1.2926168526189116e-15,-0.3642957366248339,-0.3642957366248339,-0.061087,-0.4035615450784597,-2.0038159875278994,0.0,-0.02617470313921444,-0.02617470313921441,-0.7003355630610593,-0.572920781689472,0.1788360671782938,0.0,0.0036828745445590012,0.0036828745445590012,0.18637739201800094,0.6726105249722978,-0.001968622744519264,0.0,0.2999951383595838,-4.519769294535639e-05,0.29999588053169113,0.3,0.0,0.3,4.861640416214716e-05,0.0004519769294536018,4.119468308864773e-05,True,True,True,True,True,False,0
0.880160623,1772663307.5233533,0.002283714013174176,0.3447142541408539,1.2614288330078125,-0.014572817832231522,0.9363674521446228,-0.12732040882110596,-8.067083556134833e-16,3.3465293422963328e-15,6.026924763938453e-16,4.3814158272245933e-16,1.4432899320127035e-15,1.2926168526189116e-15,-0.3648192306876182,-0.3648192306876182,-0.061087,-0.41501996071224917,-2.0002392661843333,0.0,-0.026024601741552744,-0.026024601741552744,-0.6968484572265848,-0.5589582820510903,0.17824172940465488,0.0,0.00750506988308474,0.007505069883083353,0.17435529172372105,0.6981249819190842,-0.029716888681946524,0.0,0.2999951383595838,-4.519769294535639e-05,0.29999588053169113,0.3,0.0,0.3,4.861640416214716e-05,0.0004519769294536018,4.119468308864773e-05,True,True,True,True,True,False,0
0.900197572,1772663307.5433903,0.002283714013174176,0.3447142541408539,1.2614288330078125,-0.014572817832231522,0.9363674521446228,-0.12732040882110596,-8.067083556134833e-16,3.3465293422963328e-15,6.026924763938453e-16,4.3814158272245933e-16,1.4432899320127035e-15,1.2926168526189116e-15,-0.36533972272244924,-0.36533972272244924,-0.061087,-0.426199126353271,-1.9966744315962401,0.0,-0.025804726261941607,-0.025804726261941607,-0.6935822456486763,-0.5446179463647979,0.17713543001916932,0.0,0.010993773980556832,0.010993773980556832,0.16331057889542575,0.7170167843146218,-0.05531496927427821,0.0,0.2999951383595838,-4.519769294535639e-05,0.29999588053169113,0.3,0.0,0.3,4.861640416214716e-05,0.0004519769294536018,4.119468308864773e-05,True,True,True,True,True,False,0
0.920179283,1772663307.5633721,0.002283714013174176,0.3447142541408539,1.2614288330078125,-0.014572817832231522,0.9363674521446228,-0.12732040882110596,-8.067083556134833e-16,3.3465293422963328e-15,6.026924763938453e-16,4.3814158272245933e-16,1.4432899320127035e-15,1.2926168526189116e-15,-0.36585581724768806,-0.36585581724768806,-0.061087,-0.43709148528056696,-1.9931317229958567,0.0,-0.02552205786401568,-0.025522057864015707,-0.6905186849919946,-0.5300183494036067,0.17556314930905936,0.0,0.014133419896296394,0.014133419896295006,0.15317803283408357,0.7299798480595581,-0.07861403550549755,0.0,0.2999951383595838,-4.519769294535639e-05,0.29999588053169113,0.3,0.0,0.3,4.861640416214716e-05,0.0004519769294536018,4.119468308864773e-05,True,True,True,True,True,False,0
0.940193474,1772663307.5833862,0.002283714013174176,0.3447142541408539,1.2614288330078125,-0.014572817832231522,0.9363674521446228,-0.12732040882110596,-8.067083556134833e-16,3.3465293422963328e-15,6.026924763938453e-16,4.3814158272245933e-16,1.4432899320127035e-15,1.2926168526189116e-15,-0.3663662584049684,-0.3663662584049684,-0.061087,-0.4476918522686391,-1.9896204600096756,0.0,-0.02518366755314838,-0.025183667553148437,-0.6876409397853247,-0.515264285120395,0.17357233552467788,0.0,0.01691951554336489,0.016919515543363503,0.14388726033349716,0.7377032141605837,-0.09954068921907414,0.0,0.2999951383595838,-4.519769294535639e-05,0.29999588053169113,0.3,0.0,0.3,4.861640416214716e-05,0.0004519769294536018,4.119468308864773e-05,True,True,True,True,True,False,0
0.960198337,1772663307.603391,0.002283714013174176,0.3447142541408539,1.2614288330078125,-0.014572817832231522,0.9363674521446228,-0.12732040882110596,-8.067083556134833e-16,3.3465293422963328e-15,6.026924763938453e-16,4.3814158272245933e-16,1.4432899320127035e-15,1.2926168526189116e-15,-0.3668699317560314,-0.3668699317560314,-0.061087,-0.457997137971047,-1.9861490132991821,0.0,-0.02479653835473848,-0.024796538354738454,-0.684933608599248,-0.5004472736522816,0.17121063637227252,0.0,0.01935645992049496,0.019356459920499124,0.13536655930383434,0.7408505734056707,-0.11808495762026794,0.0,0.2999951383595838,-4.519769294535639e-05,0.29999588053169113,0.3,0.0,0.3,4.861640416214716e-05,0.0004519769294536018,4.119468308864773e-05,True,True,True,True,True,False,0
0.980274857,1772663307.6234674,0.002283714013174176,0.3447142541408539,1.2614288330078125,-0.014764565043151379,0.9363674521446228,-0.12732040882110596,-8.067083556134833e-16,3.3465293422963328e-15,6.026924763938453e-16,-0.0034240642562508583,1.4432899320127035e-15,1.2926168526189116e-15,-0.36736586252312614,-0.36736586252312614,-0.061087,-0.4680060834440926,-1.9827248005717366,0.0,-0.02436742361279101,-0.02436742361279101,-0.6823827031943475,-0.4856462936598776,0.16852484123200573,0.0,0.0214557370973736,0.021455737097372213,0.12754527024502807,0.7400489996202027,-0.1342897570133401,0.0,0.2999952466848863,-5.484862993194062e-05,0.29999599291443024,0.3,0.0,0.3,-7.822645810741521e-05,0.0005030078306541539,-4.859955732629744e-06,True,True,True,True,True,False,0
1.000404331,1772663307.6435971,0.002283714013174176,0.3447142541408539,1.2614288330078125,-0.014764565043151379,0.9363674521446228,-0.12732040882110596,-8.067083556134833e-16,3.3465293422963328e-15,6.026924763938453e-16,-0.0034240642562508583,1.4432899320127035e-15,1.2926168526189116e-15,-0.367853210995382,-0.367853210995382,-0.061087,-0.47771900931729017,-1.9793543037470964,0.0,-0.023902745681020868,-0.023902745681020868,-0.6799755791947418,-0.47092877561265434,0.16556008215382623,0.0,0.02323389658850717,0.02323389658850717,0.12035619998028146,0.7358759023611626,-0.14823795390897496,0.0,0.2999952466848863,-5.484862993194062e-05,0.29999599291443024,0.3,0.0,0.3,-7.822645810741521e-05,0.0005030078306541539,-4.859955732629744e-06,True,True,True,True,True,False,0
1.02037705,1772663307.6635697,0.002283714013174176,0.3447142541408539,1.2614288330078125,-0.014764565043151379,0.9363674521446228,-0.12732040882110596,-8.067083556134833e-16,3.3465293422963328e-15,6.026924763938453e-16,-0.0034240642562508583,1.4432899320127035e-15,1.2926168526189116e-15,-0.3683312659090024,-0.3683312659090024,-0.061087,-0.4871375848295433,-1.97604310210402,0.0,-0.02340851915679336,-0.02340851915679336,-0.6777008477319952,-0.45635163407571894,0.1623591756769146,0.0,0.02471132621137543,0.02471132621137543,0.11373657313732956,0.7288570768467694,-0.1600453238455811,0.0,0.2999952466848863,-5.484862993194062e-05,0.29999599291443024,0.3,0.0,0.3,-7.822645810741521e-05,0.0005030078306541539,-4.859955732629744e-06,True,True,True,True,True,False,0
1.040388405,1772663307.683581,0.002283714013174176,0.3447142541408539,1.2614288330078125,-0.014764565043151379,0.9363674521446228,-0.12732040882110596,-8.067083556134833e-16,3.3465293422963328e-15,6.026924763938453e-16,-0.0034240642562508583,1.4432899320127035e-15,1.2926168526189116e-15,-0.36879943629213824,-0.36879943629213824,-0.061087,-0.49626461751105766,-1.9727959185904815,0.0,-0.023126788512631072,-0.023126788512631072,-0.6757324204805838,-0.441207822175371,0.16072742785653793,0.0,0.014086532208114332,0.014086532208114332,0.09842136257057202,0.757190595017395,-0.08158739101883354,0.0,0.2999952466848863,-5.484862993194062e-05,0.29999599291443024,0.300000394024,-2.955180000000008e-07,0.3,2.161581892973376e-06,0.00044271680065415393,-4.859955732629744e-06,True,True,True,True,True,False,0
1.060385726,1772663307.7035785,0.002283714013174176,0.3447142541408539,1.2614288330078125,-0.014764565043151379,0.9363674521446228,-0.12732040882110596,-8.067083556134833e-16,3.3465293422963328e-15,6.026924763938453e-16,-0.0034240642562508583,1.4432899320127035e-15,1.2926168526189116e-15,-0.36926197206239086,-0.36926197206239086,-0.061087,-0.5050887739545651,-1.9695813700333509,0.0,-0.02328075965785438,-0.02328075965785438,-0.6742747999315726,-0.42465728699288546,0.16234993783069818,0.0,-0.0076985572611654104,-0.0076985572611654104,0.07288102745056084,0.8275267591242772,0.08112549870801226,0.0,0.2999952466848863,-5.484862993194062e-05,0.29999599291443024,0.30000310476799996,-2.3285760000000057e-06,0.3,0.0002524660218923146,0.0002549884706541535,-4.859955732629744e-06,True,True,True,True,True,False,0
1.080321386,1772663307.723514,0.002283714013174176,0.3447142541408539,1.2614288330078125,-0.014764565043151379,0.9363674521446228,-0.12732040882110596,-8.067083556134833e-16,3.3465293422963328e-15,6.026924763938453e-16,4.3814158272245933e-16,1.4432899320127035e-15,1.2926168526189116e-15,-0.36972758725554794,-0.36972758725554794,-0.061087,-0.5135819196944228,-1.966334371276737,0.0,-0.02380857132131506,-0.02380857132131503,-0.673350077063578,-0.4066105522846193,0.1667996896094739,0.0,-0.02639058317303389,-0.026390583173032504,0.04623614339973044,0.902336735413308,0.22248758893878542,0.0,0.2999952466848863,-5.484862993194062e-05,0.29999599291443024,0.30001031983199994,-7.739874000000021e-06,0.3,0.0008112432711365877,-2.429629068055692e-05,4.007085569750038e-05,True,True,True,True,True,False,0
1.100173616,1772663307.7433665,0.002283714013174176,0.3447142541408539,1.2614288330078125,-0.014764565043151379,0.9363674521446228,-0.12732040882110596,-8.067083556134833e-16,3.3465293422963328e-15,6.026924763938453e-16,4.3814158272245933e-16,1.4432899320127035e-15,1.2926168526189116e-15,-0.37020375868197425,-0.37020375868197425,-0.061087,-0.5217141307401152,-1.9629983774845474,0.0,-0.024657424114418014,-0.024657424114418014,-0.6729744826385744,-0.3870191175980584,0.17370836199389206,0.0,-0.04244263965514774,-0.04244263965514913,0.018779721250178332,0.9795717343280432,0.3454336192209081,0.0,0.2999952466848863,-5.484862993194062e-05,0.29999599291443024,0.300024088576,-1.8066432000000045e-05,0.3,0.001438575711137122,-0.0004947956206805579,4.007085569750038e-05,True,True,True,True,True,False,0
1.120163889,1772663307.7633567,0.002283714013174176,0.3447142541408539,1.2614288330078125,-0.014764565043151379,0.9363674521446228,-0.12732040882110596,-8.067083556134833e-16,3.3465293422963328e-15,6.026924763938453e-16,4.3814158272245933e-16,1.4432899320127035e-15,1.2926168526189116e-15,-0.3706969071642626,-0.3706969071642626,-0.061087,-0.5294545130920764,-1.9595242102446695,0.0,-0.02578186950663784,-0.025781869506637814,-0.6731581211767812,-0.3658737093854527,0.18275537802064334,0.0,-0.05622226961099134,-0.05622226961098995,-0.009181926910339913,1.0572704106302835,0.45235080133756395,0.0,0.2999952466848863,-5.484862993194062e-05,0.29999599291443024,0.30004632499999995,-3.474375000000009e-05,0.3,0.0022706581511366727,-0.0011188574506805589,4.007085569750038e-05,True,True,True,True,True,False,0
1.140205503,1772663307.7833982,0.002283714013174176,0.3447142541408539,1.2614288330078125,-0.014764565043151379,0.9363674521446228,-0.12732040882110596,-8.067083556134833e-16,3.3465293422963328e-15,6.026924763938453e-16,4.3814158272245933e-16,1.4432899320127035e-15,1.2926168526189116e-15,-0.3712125445543954,-0.3712125445543954,-0.061087,-0.5367719872797854,-1.9558691026842567,0.0,-0.027142581582150244,-0.02714258158215027,-0.6739049381033319,-0.3432017799681877,0.1936601589708269,0.0,-0.06803560377562004,-0.06803560377562282,-0.037340846327532616,1.1335964708632507,0.5452390475091768,0.0,0.2999952466848863,-5.484862993194062e-05,0.29999599291443024,0.30007881062399994,-5.910796800000016e-05,0.3,0.003316788191136567,-0.0019034549806805604,4.007085569750038e-05,True,True,True,True,True,False,0
1.16020012,1772663307.803393,0.002283714013174176,0.3447142541408539,1.2614288330078125,-0.014764565043151379,0.9363674521446228,-0.12732040882110596,-8.067083556134833e-16,3.3465293422963328e-15,6.026924763938453e-16,4.3814158272245933e-16,1.4432899320127035e-15,1.2926168526189116e-15,-0.3717553961860384,-0.3717553961860384,-0.061087,-0.5436360228791491,-1.95199589950484,0.0,-0.028705446874295937,-0.028705446874295937,-0.6752128697943266,-0.319064437318611,0.20617645031775778,0.0,-0.07814326460728459,-0.0781432646072832,-0.06539658454973724,1.2068671324788327,0.6258145673465437,0.0,0.2999952466848863,-5.484862993194062e-05,0.29999599291443024,0.30012319736799997,-9.239802600000023e-05,0.3,0.004585154631136924,-0.0028547298106805616,4.007085569750038e-05,True,True,True,True,True,False,0
1.180232342,1772663307.823425,0.002285631373524666,0.3447142541408539,1.2614288330078125,-0.014764565043151379,0.9363674521446228,-0.1269369125366211,3.4240641980431974e-05,3.3465293422963328e-15,6.026924763938453e-16,4.3814158272245933e-16,1.4432899320127035e-15,0.006848128512501717,-0.37232950512352436,-0.37232950512352436,-0.061087,-0.5500173116255213,-1.947872370498485,0.0,-0.03044083842697895,-0.03044083842697895,-0.6770741271641788,-0.29355287108605693,0.2200878020130076,0.0,-0.08676957763415155,-0.08676957763415155,-0.09306286849261142,1.2755783116277166,0.695567584762498,0.0,0.2999952467894994,-5.4273430940511764e-05,0.29999599291443024,0.300181010432,-0.0001357578239999998,0.3,0.006085787502400339,-0.003983852320631184,4.007085569750038e-05,True,True,True,True,True,False,0
1.200149787,1772663307.8433425,0.002285631373524666,0.3447142541408539,1.2614288330078125,-0.014764565043151379,0.9363674521446228,-0.1269369125366211,3.4240641980431974e-05,3.3465293422963328e-15,6.026924763938453e-16,4.3814158272245933e-16,1.4432899320127035e-15,0.006848128512501717,-0.37293832189206394,-0.37293832189206394,-0.061087,-0.5558883690472424,-1.943470614458225,0.0,-0.0323230100582529,-0.0323230100582529,-0.6794755706046673,-0.26678447189341276,0.23520378292838073,0.0,-0.0941085815636975,-0.0941085815636975,-0.12007217202442677,1.3384199596322077,0.7557990457686563,0.0,0.2999952467894994,-5.4273430940511764e-05,0.29999599291443024,0.300253651176,-0.00019023838199999982,0.3,0.007818901942400192,-0.0052836881506311845,4.007085569750038e-05,True,True,True,True,True,False,0
1.220144151,1772663307.863337,0.002285631373524666,0.3447142541408539,1.2614288330078125,-0.014764565043151379,0.9363674521446228,-0.1269369125366211,3.4240641980431974e-05,3.3465293422963328e-15,6.026924763938453e-16,4.3814158272245933e-16,1.4432899320127035e-15,0.006848128512501717,-0.373584782093229,-0.373584782093229,-0.061087,-0.5612240584851106,-1.9387665387996573,0.0,-0.034329556935672155,-0.034329556935672155,-0.6823991450531515,-0.2388987370660915,0.2513565854899721,0.0,-0.10032734387096258,-0.10032734387096258,-0.14617872242420601,1.3942867413660618,0.8076401280795669,0.0,0.2999952467894994,-5.4273430940511764e-05,0.29999599291443024,0.3003424,-0.00025679999999999985,0.3,0.00979245438240026,-0.006763852480631185,4.007085569750038e-05,True,True,True,True,True,False,0
1.240162536,1772663307.8833551,0.002285631373524666,0.3447142541408539,1.2614288330078125,-0.014764565043151379,0.9363674521446228,-0.1269369125366211,3.4240641980431974e-05,3.3465293422963328e-15,6.026924763938453e-16,4.3814158272245933e-16,1.4432899320127035e-15,0.006848128512501717,-0.37427137323194243,-0.37427137323194243,-0.061087,-0.5660020332264324,-1.933739407089858,0.0,-0.036440927623496336,-0.036440927623496336,-0.6858223369759991,-0.21005323859095376,0.2683979403908874,0.0,-0.10556853439120895,-0.10556853439120895,-0.17115959614238382,1.4422749237568853,0.852067745045764,0.0,0.2999952467894994,-5.4273430940511764e-05,0.29999599291443024,0.30044841922399995,-0.0003363144179999999,0.3,0.012010486422399685,-0.008427376510631187,4.007085569750038e-05,True,True,True,True,True,False,0
1.260169069,1772663307.9033618,0.002285631373524666,0.3447142541408539,1.2614288330078125,-0.014764565043151379,0.9363674521446228,-0.1269369125366211,3.4240641980431974e-05,3.3465293422963328e-15,6.026924763938453e-16,4.3814158272245933e-16,1.4432899320127035e-15,0.006848128512501717,-0.37500019178441235,-0.37500019178441235,-0.061087,-0.5702030979982514,-1.9283714482820402,0.0,-0.03863995727395849,-0.03863995727395849,-0.68971864269161,-0.18041958874449043,0.28619611979085696,0.0,-0.10995148252310763,-0.10995148252310763,-0.1948152857805417,1.481682492323165,0.8899089699984783,0.0,0.2999952467894994,-5.4273430940511764e-05,0.29999599291443024,0.300572755968,-0.00042956697599999994,0.3,0.014476074862399994,-0.010276567840631187,4.007085569750038e-05,True,True,True,True,True,False,0
1.280180591,1772663307.9233732,0.002285631373524666,0.3447679281234741,1.2614634037017822,-0.014956312254071236,0.9363674521446228,-0.1269369125366211,-8.067083556134833e-16,0.0009587379754520953,0.000616331584751606,-0.0034240642562508583,1.4432899320127035e-15,1.2926168526189116e-15,-0.3757729909298915,-0.3757729909298915,-0.061087,-0.5738114897731412,-1.922647525886223,0.0,-0.040911439356624654,-0.040911439356624626,-0.6940580213013335,-0.15017970254056134,0.30463319837803726,0.0,-0.1135741041333081,-0.11357410413330671,-0.21696893048617752,1.511994310196453,0.9218539293590142,0.0,0.30000294925378934,-6.390683245205647e-05,0.2999880367986189,0.300716345032,-0.000537258774,0.3,0.0171232811864547,-0.012244343940349903,9.404029454774863e-05,True,True,True,True,True,False,0
1.300296906,1772663307.9434896,0.002285631373524666,0.3447679281234741,1.2614634037017822,-0.014956312254071236,0.9363674521446228,-0.1269369125366211,-8.067083556134833e-16,0.0009587379754520953,0.000616331584751606,-0.0034240642562508583,1.4432899320127035e-15,1.2926168526189116e-15,-0.37659121971702403,-0.37659121971702403,-0.061087,-0.5768150838239524,-1.9165548619186623,0.0,-0.04324170658496125,-0.04324170658496125,-0.6988073400215582,-0.11952212881396629,0.323602326726975,0.0,-0.11651336141682973,-0.11651336141683112,-0.23746593601123278,1.5328786863297514,0.9484564174468848,0.0,0.30000294925378934,-6.390683245205647e-05,0.2999880367986189,0.30088001177599993,-0.0006600088320000002,0.3,0.02008949762645394,-0.014469006270349905,9.404029454774863e-05,True,True,True,True,True,False,0
1.32039399,1772663307.9635868,0.002285631373524666,0.3447679281234741,1.2614634037017822,-0.014956312254071236,0.9363674521446228,-0.1269369125366211,-8.067083556134833e-16,0.0009587379754520953,0.000616331584751606,-0.0034240642562508583,1.4432899320127035e-15,1.2926168526189116e-15,-0.37745605384872327,-0.37745605384872327,-0.061087,-0.5792055264002317,-1.9100828153841227,0.0,-0.04561826041765773,-0.04561826041765773,-0.7039307983223111,-0.08863881004753627,0.34300535009443905,0.0,-0.11882769163482378,-0.11882769163482378,-0.2561729150376444,1.5441659383214998,0.970151168373203,0.0,0.30000294925378934,-6.390683245205647e-05,0.2999880367986189,0.301064475,-0.0007983562500000003,0.3,0.023307000066454583,-0.01688213310034991,9.404029454774863e-05,True,True,True,True,True,False,0
1.340148773,1772663307.9833415,0.002285631373524666,0.3447679281234741,1.2614634037017822,-0.014956312254071236,0.9363674521446228,-0.1269369125366211,-8.067083556134833e-16,0.0009587379754520953,0.000616331584751606,-0.0034240642562508583,1.4432899320127035e-15,1.2926168526189116e-15,-0.3783684190570764,-0.3783684190570764,-0.061087,-0.5809783026011824,-1.903222708382234,0.0,-0.04802942238688853,-0.04802942238688853,-0.7093903367307001,-0.057722018095959254,0.36275054166879017,0.0,-0.12055809846153998,-0.12055809846153998,-0.27297692041944854,1.5458395975788493,0.987259578717555,0.0,0.30000294925378934,-6.390683245205647e-05,0.2999880367986189,0.30127034982399997,-0.0009527623680000004,0.3,0.026775294106454326,-0.019483353630349913,9.404029454774863e-05,True,True,True,True,True,False,0
1.360168021,1772663308.0033607,0.002285631373524666,0.3447679281234741,1.2614634037017822,-0.014956312254071236,0.9363674521446228,-0.1269369125366211,-8.067083556134833e-16,0.0009587379754520953,0.000616331584751606,-0.0034240642562508583,1.4432899320127035e-15,1.2926168526189116e-15,-0.3793290075048142,-0.3793290075048142,-0.061087,-0.5821327429631016,-1.8959676975488582,0.0,-0.05046403164209655,-0.05046403164209655,-0.7151460428953202,-0.026961586472589838,0.3827506514009141,0.0,-0.12173046276040082,-0.12173046276040082,-0.2877853082310086,1.5380215811684694,1.0000054866061943,0.0,0.30000294925378934,-6.390683245205647e-05,0.2999880367986189,0.30149815056799995,-0.0011236129260000006,0.3,0.030493064546454056,-0.022271681460349912,9.404029454774863e-05,True,True,True,True,True,False,0
1.380193943,1772663308.0233867,0.0021456556860357523,0.34602195024490356,1.263114333152771,-0.015148060396313667,0.9363674521446228,-0.1269369125366211,-0.0024995668791234493,0.015784936025738716,0.02068134769797325,-0.0034240642562508583,1.4432899320127035e-15,1.2926168526189116e-15,-0.38033828813765613,-0.38033828813765613,-0.061087,-0.5826719746925534,-1.88831268452084,0.0,-0.052911182150697275,-0.052911182150697275,-0.7211565532903856,0.0034576280653288993,0.4029212011915295,0.0,-0.1223575254300362,-0.1223575254300362,-0.3005255197532694,1.5209607268959355,1.0085274895307712,0.0,0.30029161990673436,-0.00011492533641191594,0.2999953790127779,0.301748293632,-0.001311220224000001,0.3,0.03443944258207099,-0.024104195708919973,0.0006479597680188183,True,True,True,True,True,False,0
1.400313296,1772663308.043506,0.0021456556860357523,0.34602195024490356,1.263114333152771,-0.015148060396313667,0.9363674521446228,-0.1269369125366211,-0.0024995668791234493,0.015784936025738716,0.02068134769797325,-0.0034240642562508583,1.4432899320127035e-15,1.2926168526189116e-15,-0.3813965117806701,-0.3813965117806701,-0.061087,-0.5826028221312468,-1.8802542604970094,0.0,-0.055360012684684136,-0.05536001268468411,-0.7273794640971475,0.033358033617554975,0.423179140687149,0.0,-0.12244152669934293,-0.12244152669934154,-0.3111455403380922,1.4950202776113024,1.0128969747809737,0.0,0.30029161990673436,-0.00011492533641191594,0.2999953790127779,0.302021100376,-0.0015158252820000012,0.3,0.03864908102207086,-0.02726142453891997,0.0006479597680188183,True,True,True,True,True,False,0
1.420298688,1772663308.0634913,0.0021456556860357523,0.34602195024490356,1.263114333152771,-0.015148060396313667,0.9363674521446228,-0.1269369125366211,-0.0024995668791234493,0.015784936025738716,0.02068134769797325,-0.0034240642562508583,1.4432899320127035e-15,1.2926168526189116e-15,-0.3825037120343638,-0.3825037120343638,-0.061087,-0.5819356614588957,-1.8717906776832665,0.0,-0.05779954334768442,-0.05779954334768439,-0.7337717514857206,0.06257138196566568,0.44344179400113704,0.0,-0.12197653315001399,-0.12197653315001399,-0.31961436942865545,1.460667417405534,1.0131326656994002,0.0,0.30029161990673436,-0.00011492533641191594,0.2999953790127779,0.30231679999999994,-0.0017376000000000017,0.3,0.043099613462070314,-0.030599323868919975,0.0006479597680188183,True,True,True,True,True,False,0
1.440375118,1772663308.0835679,0.0021456556860357523,0.34602195024490356,1.263114333152771,-0.015148060396313667,0.9363674521446228,-0.1269369125366211,-0.0024995668791234493,0.015784936025738716,0.02068134769797325,-0.0034240642562508583,1.4432899320127035e-15,1.2926168526189116e-15,-0.38365970290131746,-0.38365970290131746,-0.061087,-0.5806842338195825,-1.8629218418032438,0.0,-0.06021856979318353,-0.06021856979318353,-0.7402902073135389,0.09094061076911307,0.4636261937312754,0.0,-0.12095132227495696,-0.12095132227495835,-0.32592279139091795,1.4184614401723838,1.0092199865069282,0.0,0.30029161990673436,-0.00011492533641191594,0.2999953790127779,0.302635532424,-0.001976649317999999,0.3,0.04778672950207075,-0.03411466089891994,0.0006479597680188183,True,True,True,True,True,False,0
1.460335641,1772663308.1035285,0.0021456556860357523,0.34602195024490356,1.263114333152771,-0.015148060396313667,0.9363674521446228,-0.1269369125366211,-0.0024995668791234493,0.015784936025738716,0.02068134769797325,-0.0034240642562508583,1.4432899320127035e-15,1.2926168526189116e-15,-0.3848640742971811,-0.3848640742971811,-0.061087,-0.5788654216042002,-1.8536493179286184,0.0,-0.06260560412655099,-0.06260560412655099,-0.7468918887261197,0.11832151766482574,0.48364869890774304,0.0,-0.11935171666837263,-0.11935171666837263,-0.3300840706290384,1.3690453447856321,1.0011252588233812,0.0,0.30029161990673436,-0.00011492533641191594,0.2999953790127779,0.302977351168,-0.002233013375999999,0.3,0.052705441942070975,-0.037803695228919944,0.0006479597680188183,True,True,True,False,True,False,0
1.480366794,1772663308.1235595,0.0007650729385204613,0.3489556908607483,1.267091155052185,-0.015148060396313667,0.9363674521446228,-0.1269369125366211,-0.016469748690724373,0.03359007090330124,0.04554005339741707,4.3814158272245933e-16,1.4432899320127035e-15,1.2926168526189116e-15,-0.3861161863797121,-0.3861161863797121,-0.061087,-0.5764989912509036,-1.8439763439504635,0.0,-0.06494887375076322,-0.06494887375076322,-0.753534577301795,0.14458414756190793,0.5034249990901205,0.0,-0.11716348121061153,-0.11716348121061153,-0.33213442878376437,1.3131314948541086,0.9888150091188727,0.0,0.3009807959956069,-0.0005289596191605197,0.3000378411884913,0.30334222623199997,-0.002506669674,0.3,0.05366254850441493,-0.03665141223193134,0.0010277331100881342,True,True,True,False,True,False,0
1.500193022,1772663308.143386,0.0007650729385204613,0.3489556908607483,1.267091155052185,-0.015148060396313667,0.9363674521446228,-0.1269369125366211,-0.016469748690724373,0.03359007090330124,0.04554005339741707,4.3814158272245933e-16,1.4432899320127035e-15,1.2926168526189116e-15,-0.3874151638547274,-0.3874151638547274,-0.061087,-0.5736073082996654,-1.8339078439686611,0.0,-0.067236361859386,-0.067236361859386,-0.7601772396121275,0.16961398355036494,0.5228703538126457,0.0,-0.11437440543113898,-0.11437440543113898,-0.3321331155166249,1.2514917994228494,0.9722677361262579,0.0,0.3009807959956069,-0.0005289596191605197,0.3000378411884913,0.30373004697600003,-0.002797535232,0.3,0.059026928944415594,-0.040674697561931344,0.0010277331100881342,True,True,True,False,True,False,0
1.520209076,1772663308.1634018,0.0007650729385204613,0.3489556908607483,1.267091155052185,-0.015148060396313667,0.9363674521446228,-0.1269369125366211,-0.016469748690724373,0.03359007090330124,0.04554005339741707,4.3814158272245933e-16,1.4432899320127035e-15,1.2926168526189116e-15,-0.3887598910919151,-0.3887598910919151,-0.061087,-0.5702150286286581,-1.8234504368924083,0.0,-0.06945589822177908,-0.06945589822177908,-0.7667804793660459,0.19331281313671841,0.5419001600776229,0.0,-0.110976818119654,-0.110976818119654,-0.33016198769592026,1.1849414793176725,0.9514903132488586,0.0,0.3009807959956069,-0.0005289596191605197,0.3000378411884913,0.304140625,-0.00310546875,0.3,0.06460417138441522,-0.04485762939193135,0.0010277331100881342,True,True,True,False,True,False,0
1.5401898,1772663308.1833825,0.0007650729385204613,0.3489556908607483,1.267091155052185,-0.015148060396313667,0.9363674521446228,-0.1269369125366211,-0.016469748690724373,0.03359007090330124,0.04554005339741707,4.3814158272245933e-16,1.4432899320127035e-15,1.2926168526189116e-15,-0.3901490090563507,-0.3901490090563507,-0.061087,-0.5663487723659237,-1.8126124336908558,0.0,-0.07159528029181308,-0.07159528029181308,-0.7733069696936196,0.2155993671359449,0.5604306757349604,0.0,-0.10696910350169998,-0.10696910350169998,-0.32632451637868404,1.1143276999613236,0.9265257828668764,0.0,0.3009807959956069,-0.0005289596191605197,0.3000378411884913,0.304573697024,-0.0034302727680000002,0.3,0.07038686942441524,-0.049194652921931356,0.0010277331100881342,True,True,True,False,True,False,0
1.560178881,1772663308.2033715,0.0007650729385204613,0.3489556908607483,1.267091155052185,-0.015148060396313667,0.9363674521446228,-0.1269369125366211,-0.016469748690724373,0.03359007090330124,0.04554005339741707,4.3814158272245933e-16,1.4432899320127035e-15,1.2926168526189116e-15,-0.391580914662187,-0.391580914662187,-0.061087,-0.5620367850232049,-1.8014038201761566,0.0,-0.07364242685664349,-0.07364242685664352,-0.7797218503367614,0.2364095949602697,0.578379932356807,0.0,-0.10235732824152012,-0.10235732824152151,-0.32074403215709396,1.0405113912162385,0.8974628310923264,0.0,0.3009807959956069,-0.0005289596191605197,0.3000378411884913,0.30502892776799995,-0.003771695826,0.3,0.07636708386441471,-0.05367981375193135,0.0010277331100881342,True,True,True,False,True,False,0
1.58020936,1772663308.223402,-0.0014783740043640137,0.35455089807510376,1.2742586135864258,-0.015148060396313667,0.9363674521446228,-0.1269369125366211,-0.023899968713521957,0.05920207127928734,0.07882195711135864,4.3814158272245933e-16,1.4432899320127035e-15,1.2926168526189116e-15,-0.39305376319931984,-0.39305376319931984,-0.061087,-0.5573085931239995,-1.7898362215290204,0.0,-0.07558555106552017,-0.07558555106552017,-0.7859930773278941,0.25569664279365223,0.5956687359613647,0.0,-0.09715621044383413,-0.09715621044383274,-0.31356134955663445,0.9643523916691257,0.864440180227887,0.0,0.3022370352858642,-0.0012060244872177937,0.3000176477224362,0.30550591283199996,-0.0041294346240000005,0.3,0.07453698225915915,-0.050406331606486485,0.002202772685732241,True,True,True,False,True,False,0
1.600214918,1772663308.2434077,-0.0014783740043640137,0.35455089807510376,1.2742586135864258,-0.015148060396313667,0.9363674521446228,-0.1269369125366211,-0.023899968713521957,0.05920207127928734,0.07882195711135864,4.3814158272245933e-16,1.4432899320127035e-15,1.2926168526189116e-15,-0.39456547422063026,-0.39456547422063026,-0.061087,-0.5521946602681265,-1.7779228468097932,0.0,-0.07741334169204242,-0.07741334169204245,-0.7920917139834852,0.27343050360692145,0.6122216889781491,0.0,-0.09138953132611224,-0.09138953132611363,-0.3049318327795533,0.8866930406634602,0.8276476508392187,0.0,0.3022370352858642,-0.0012060244872177937,0.3000176477224362,0.30600418157599996,-0.0045031361820000015,0.3,0.08088642469915913,-0.055168413436486506,0.002202772685732241,True,True,True,False,True,False,0
1.620232947,1772663308.2634256,-0.0014783740043640137,0.35455089807510376,1.2742586135864258,-0.015148060396313667,0.9363674521446228,-0.1269369125366211,-0.023899968713521957,0.05920207127928734,0.07882195711135864,4.3814158272245933e-16,1.4432899320127035e-15,1.2926168526189116e-15,-0.3961137410544711,-0.3961137410544711,-0.061087,-0.5467260501959881,-1.76567841303023,0.0,-0.07911514657553959,-0.07911514657553959,-0.7979921522335713,0.2895973548162845,0.6279681938613306,0.0,-0.0850902441748582,-0.08509024417485682,-0.29502191250430604,0.8083425604681526,0.7873252441590755,0.0,0.3022370352858642,-0.0012060244872177937,0.3000176477224362,0.3065232,-0.004892400000000001,0.3,0.08740665713915952,-0.060058587766486496,0.002202772685732241,True,True,True,False,True,False,0
1.640256315,1772663308.2834492,-0.0014783740043640137,0.35455089807510376,1.2742586135864258,-0.015148060396313667,0.9363674521446228,-0.1269369125366211,-0.023899968713521957,0.05920207127928734,0.07882195711135864,4.3814158272245933e-16,1.4432899320127035e-15,1.2926168526189116e-15,-0.3976960439859819,-0.3976960439859819,-0.061087,-0.5409341030996624,-1.7531190491530035,0.0,-0.08068114427945906,-0.08068114427945901,-0.8036722662300179,0.30419866226734377,0.6428433361974484,0.0,-0.07829988519597382,-0.07829988519597104,-0.2840056998223259,0.730065372552962,0.743757116805887,0.0,0.3022370352858642,-0.0012060244872177937,0.3000176477224362,0.30706237362399996,-0.005296780218000003,0.3,0.09408789717915919,-0.06506951779648651,0.002202772685732241,True,True,True,False,True,False,0
1.660257423,1772663308.30345,-0.0014783740043640137,0.35455089807510376,1.2742586135864258,-0.015148060396313667,0.9363674521446228,-0.1269369125366211,-0.023899968713521957,0.05920207127928734,0.07882195711135864,4.3814158272245933e-16,1.4432899320127035e-15,1.2926168526189116e-15,-0.3993096668715711,-0.3993096668715711,-0.061087,-0.5348501298543155,-1.7402621824290545,0.0,-0.082102501358201,-0.082102501358201,-0.8091134806658462,0.3172499545164225,0.6567886669624097,0.0,-0.07106785393709701,-0.07106785393709979,-0.27206072179141705,0.6525646124539369,0.6972665382480641,0.0,0.3022370352858642,-0.0012060244872177937,0.3000176477224362,0.30762105036799997,-0.005715787776000002,0.3,0.10091997361915929,-0.07019357512648651,0.002202772685732241,True,True,True,False,True,False,0
1.68020925,1772663308.323402,-0.005113908555358648,0.3625582754611969,1.284860372543335,-0.015148060396313667,0.9386844038963318,-0.12847089767456055,-0.04119149222970009,0.08734788000583649,0.11566489189863205,4.3814158272245933e-16,0.027107175439596176,-0.027392514050006866,-0.4009517168987351,-0.4009517168987351,-0.061087,-0.528505130763987,-1.7271264090898062,0.0,-0.08337150397901402,-0.08337150397901402,-0.814300770405833,0.32877948117727246,0.6697527856922338,0.0,-0.06345013104065081,-0.06345013104065081,-0.25936448699934145,0.5764763330424966,0.648205936491208,0.0,0.3039266388610749,-0.0023147405309292724,0.30006154661881557,0.30819852343200005,-0.006148892574000004,0.3,0.09503464758707336,-0.06264063802912438,0.0030448524911526513,True,True,True,False,True,False,0
1.700384347,1772663308.3435771,-0.005113908555358648,0.3625582754611969,1.284860372543335,-0.015148060396313667,0.9386844038963318,-0.12847089767456055,-0.04119149222970009,0.08734788000583649,0.11566489189863205,4.3814158272245933e-16,0.027107175439596176,-0.027392514050006866,-0.40261914697831536,-0.40261914697831536,-0.061087,-0.5219295411404415,-1.7137313533759617,0.0,-0.08448165966072893,-0.08448165966072893,-0.819222590618477,0.3388266819827071,0.6816917230033248,0.0,-0.055507784085745984,-0.055507784085745984,-0.24609101063220148,0.5023600402717372,0.5969468655545546,0.0,0.3039266388610749,-0.0023147405309292724,0.30006154661881557,0.308794034176,-0.006595525631999999,0.3,0.10213647202707271,-0.06796700635912431,0.0030448524911526513,True,True,True,False,True,False,0
1.720232722,1772663308.3634255,-0.005113908555358648,0.3625582754611969,1.284860372543335,-0.015148060396313667,0.9386844038963318,-0.12847089767456055,-0.04119149222970009,0.08734788000583649,0.11566489189863205,4.3814158272245933e-16,0.027107175439596176,-0.027392514050006866,-0.40430878017152994,-0.40430878017152994,-0.061087,-0.5151530075007874,-1.7000975189158951,0.0,-0.08542777058983274,-0.08542777058983274,-0.8238707397060226,0.3474405824795879,0.6925691444798554,0.0,-0.04730554645519035,-0.04730554645519035,-0.2324074543772812,0.4306950248440407,0.5438710738265291,0.0,0.3039266388610749,-0.0023147405309292724,0.30006154661881557,0.309406775,-0.0070550812499999985,0.3,0.10935657446707307,-0.07338208318912429,0.0030448524911526513,True,True,True,False,True,False,0
1.740394824,1772663308.3835876,-0.005113908555358648,0.3625582754611969,1.284860372543335,-0.015148060396313667,0.9386844038963318,-0.12847089767456055,-0.04119149222970009,0.08734788000583649,0.11566489189863205,4.3814158272245933e-16,0.027107175439596176,-0.027392514050006866,-0.4060173355833266,-0.4060173355833266,-0.061087,-0.5082041958511957,-1.686246136026298,0.0,-0.08620597026409826,-0.08620597026409826,-0.8282401786763743,0.35467818883914604,0.7023563227968441,0.0,-0.038909983713276246,-0.038909983713276246,-0.21847194851758436,0.3618803179779053,0.4893589158494356,0.0,0.3039266388610749,-0.0023147405309292724,0.30006154661881557,0.31003589222399996,-0.007526919168,0.3,0.11668351650707251,-0.07887728971912432,0.0030448524911526513,True,True,True,False,True,False,0
1.760377383,1772663308.4035702,-0.005113908555358648,0.3625582754611969,1.284860372543335,-0.015148060396313667,0.9386844038963318,-0.12847089767456055,-0.04119149222970009,0.08734788000583649,0.11566489189863205,4.3814158272245933e-16,0.027107175439596176,-0.027392514050006866,-0.40774145498860853,-0.40774145498860853,-0.061087,-0.5011106320744128,-1.672199009570361,0.0,-0.0868137325204719,-0.0868137325204719,-0.8323288003923828,0.3606028266743011,0.7110319561437378,0.0,-0.03038811281868209,-0.03038811281868209,-0.2044310858004215,0.29623189175775305,0.43378166734468443,0.0,0.3039266388610749,-0.0023147405309292724,0.30006154661881557,0.310680488968,-0.008010366726,0.3,0.12410561494707276,-0.08444386354912431,0.0030448524911526513,True,True,True,False,True,False,0
1.780334164,1772663308.423527,-0.009905681014060974,0.3735492527484894,1.29946768283844,-0.015148060396313667,0.9414806962013245,-0.1305801123380661,-0.050950076431035995,0.11319956183433533,0.14993977546691895,4.3814158272245933e-16,0.03281394764780998,-0.0308165792375803,-0.40947772963901796,-0.40947772963901796,-0.061087,-0.4938985755409267,-1.6579783704474862,0.0,-0.08724984746729397,-0.08724984746729397,-0.8361371752107662,0.3652826279387313,0.7185817910446131,0.0,-0.021805747341103306,-0.021805747341103306,-0.1904187409191736,0.23399006322150898,0.3774917450437617,0.0,0.30626105763837097,-0.0037958333550283056,0.3001155295991753,0.311339628032,-0.008504721024000001,0.3,0.11269275553229165,-0.07379424309580913,0.0033536919191522307,True,True,True,False,True,False,0
1.800270012,1772663308.4434626,-0.009905681014060974,0.3735492527484894,1.29946768283844,-0.015148060396313667,0.9414806962013245,-0.1305801123380661,-0.050950076431035995,0.11319956183433533,0.14993977546691895,4.3814158272245933e-16,0.03281394764780998,-0.0308165792375803,-0.41122272658836384,-0.41122272658836384,-0.061087,-0.48659292298215207,-1.643606734626594,0.0,-0.0875143752690059,-0.0875143752690059,-0.8396682783086139,0.3687890786725211,0.7249981579314766,0.0,-0.013226390085596661,-0.013226390085596661,-0.17655515489238255,0.17532253668948988,0.3208183443431764,0.0,0.30626105763837097,-0.0037958333550283056,0.3001155295991753,0.312012334776,-0.009009251082,0.3,0.12026928197229161,-0.07947663792580914,0.0033536919191522307,True,True,True,False,True,False,0
1.820345349,1772663308.4635382,-0.009905681014060974,0.3735492527484894,1.29946768283844,-0.015148060396313667,0.9414806962013245,-0.1305801123380661,-0.050950076431035995,0.11319956183433533,0.14993977546691895,4.3814158272245933e-16,0.03281394764780998,-0.0308165792375803,-0.412973014093744,-0.412973014093744,-0.061087,-0.47921714140870164,-1.6291067714679643,0.0,-0.08760857476801481,-0.08760857476801481,-0.8429272032353555,0.37119567419483396,0.7302793676461454,0.0,-0.004709974950445335,-0.004709974950445335,-0.16294624633708107,0.12032977611564344,0.26406048573344143,0.0,0.30626105763837097,-0.0037958333550283056,0.3001155295991753,0.3126976,-0.009523200000000004,0.3,0.12790473441229191,-0.08520322725580917,0.0033536919191522307,True,True,True,False,True,False,0
1.840341192,1772663308.4835339,-0.009905681014060974,0.3735492527484894,1.29946768283844,-0.015148060396313667,0.9414806962013245,-0.1305801123380661,-0.050950076431035995,0.11319956183433533,0.14993977546691895,4.3814158272245933e-16,0.03281394764780998,-0.0308165792375803,-0.41472518558910426,-0.41472518558910426,-0.061087,-0.47179322792480494,-1.6145011841150414,0.0,-0.08753481843531458,-0.08753481843531458,-0.8459208826500811,0.3725767665320045,0.7344290799946256,0.0,0.003687816635011828,0.003687816635011828,-0.14968397073628056,0.06905461685852704,0.20748561742400787,0.0,0.30626105763837097,-0.0037958333550283056,0.3001155295991753,0.31339438282399995,-0.010045787117999999,0.3,0.13558673845229124,-0.09096473028580912,0.0033536919191522307,True,True,True,False,True,False,0
1.86034109,1772663308.5035338,-0.009905681014060974,0.3735492527484894,1.29946768283844,-0.015148060396313667,0.9414806962013245,-0.1305801123380661,-0.050950076431035995,0.11319956183433533,0.14993977546691895,4.3814158272245933e-16,0.03281394764780998,-0.0308165792375803,-0.41647588195781055,-0.41647588195781055,-0.061087,-0.46434169259416486,-1.599812602515149,0.0,-0.08729649275227443,-0.08729649275227443,-0.8486578145620959,0.37300654276086553,0.7374556178210305,0.0,0.011916284152007479,0.011916284152007479,-0.13684659560073686,0.021488811443051682,0.15132689132024688,0.0,0.30626105763837097,-0.0037958333550283056,0.3001155295991753,0.314101613568,-0.010576210176,0.3,0.14330281889229154,-0.09675179061580913,0.0033536919191522307,True,True,True,False,True,False,0
1.880302836,1772663308.5234954,-0.01564852148294449,0.3867107927799225,1.3171602487564087,-0.015148060396313667,0.9471532702445984,-0.13518205285072327,-0.0604347325861454,0.13949637115001678,0.18818657100200653,4.3814158272245933e-16,0.055641043931245804,-0.0410887710750103,-0.41822181181285606,-0.41822181181285606,-0.061087,-0.45688156173894756,-1.5850634901587282,0.0,-0.08689789112427784,-0.08689789112427784,-0.8511478000774472,0.37255814790812847,0.7393712820879619,0.0,0.01993008139982917,0.01993008139982917,-0.12449927576756437,-0.022419742636853292,0.09578321334656739,0.0,0.3089118045360876,-0.0055995614331601365,0.30020087370282805,0.31481819663199995,-0.011113647474,0.3,0.12923117436738396,-0.08251543960019134,0.0034797000185137327,True,True,True,False,True,False,0
1.90030613,1772663308.5434988,-0.01564852148294449,0.3867107927799225,1.3171602487564087,-0.015148060396313667,0.9471532702445984,-0.13518205285072327,-0.0604347325861454,0.13949637115001678,0.18818657100200653,4.3814158272245933e-16,0.055641043931245804,-0.0410887710750103,-0.4199597696353416,-0.4199597696353416,-0.061087,-0.449430398780785,-1.5702760645169689,0.0,-0.08634410410492463,-0.08634410410492463,-0.8534017017815074,0.3713029889128586,0.7401917043046059,0.0,0.02768935096766065,0.02768935096766065,-0.11269508520301276,-0.0627579497634922,0.041021110832201134,0.0,0.3089118045360876,-0.0055995614331601365,0.30020087370282805,0.315543013376,-0.011657260032000004,0.3,0.1369777228073844,-0.08832535093019137,0.0034797000185137327,True,True,True,False,True,False,0
1.920267146,1772663308.5634599,-0.01564852148294449,0.3867107927799225,1.3171602487564087,-0.015148060396313667,0.9471532702445984,-0.13518205285072327,-0.0604347325861454,0.13949637115001678,0.18818657100200653,4.3814158272245933e-16,0.055641043931245804,-0.0410887710750103,-0.4216866517174401,-0.4216866517174401,-0.061087,-0.44200433900252784,-1.5554722304308768,0.0,-0.08564090648324041,-0.08564090648324041,-0.8554312198256959,0.36931015910987186,0.7399352065912514,0.0,0.035159881084210996,0.035159881084210996,-0.10147590220942462,-0.09964149014933801,-0.012824885667722651,0.0,0.3089118045360876,-0.0055995614331601365,0.30020087370282805,0.316274925,-0.012206193750000004,0.3,0.14472060524738434,-0.09413251276019138,0.0034797000185137327,True,True,True,False,True,False,0
1.940276828,1772663308.5834696,-0.01564852148294449,0.3867107927799225,1.3171602487564087,-0.015148060396313667,0.9471532702445984,-0.13518205285072327,-0.0604347325861454,0.13949637115001678,0.18818657100200653,4.3814158272245933e-16,0.055641043931245804,-0.0410887710750103,-0.42339946984710486,-0.42339946984710486,-0.061087,-0.4346181358203305,-1.5406735262990519,0.0,-0.08479464880016906,-0.08479464880016906,-0.8572486927890004,0.3666460154047226,0.7386222473401123,0.0,0.042312884153568056,0.042312884153568056,-0.09087364816522485,-0.13320718525746536,-0.06564796255695904,0.0,0.3089118045360876,-0.0055995614331601365,0.30020087370282805,0.31701277542399997,-0.012759581568,0.3,0.1524472312873842,-0.09992748229019133,0.0034797000185137327,True,True,True,False,True,False,0
1.960194012,1772663308.6033866,-0.01564852148294449,0.3867107927799225,1.3171602487564087,-0.015148060396313667,0.9471532702445984,-0.13518205285072327,-0.0604347325861454,0.13949637115001678,0.18818657100200653,4.3814158272245933e-16,0.055641043931245804,-0.0410887710750103,-0.4250953628231082,-0.4250953628231082,-0.061087,-0.427285215512236,-1.5259010813522496,0.0,-0.0838121525293903,-0.0838121525293903,-0.8588669161181032,0.36337385224926566,0.7362749077607079,0.0,0.04912481353893795,0.04912481353893795,-0.08091116645513867,-0.16360815777284585,-0.11736697897021797,0.0,0.3089118045360876,-0.0055995614331601365,0.30020087370282805,0.31775539416799997,-0.013316545626000001,0.3,0.1601450537273842,-0.10570084912019134,0.0034797000185137327,True,True,True,False,True,False,0
1.980251714,1772663308.6234446,-0.022321337834000587,0.40328162908554077,1.3394873142242432,-0.015148060396313667,0.9527458548545837,-0.13978399336338043,-0.06837856024503708,0.17086081206798553,0.229104146361351,4.3814158272245933e-16,0.048507578670978546,-0.05478502810001373,-0.42677160587369606,-0.42677160587369606,-0.061087,-0.4200177384672507,-1.5111755831970355,0.0,-0.08270061077141228,-0.08270061077141222,-0.8602989855823752,0.3595536983780262,0.7329164617568935,0.0,0.05557708789890101,0.05557708789890379,-0.07160347321359943,-0.19100769356197295,-0.16792230019072027,0.0,0.3123161775796605,-0.007740726008772571,0.3002750748252703,0.318501599232,-0.013876199424,0.3,0.13946078369533574,-0.08801613972561566,0.0032278294881281956,True,True,True,False,True,False,0
2.000433335,1772663308.643626,-0.022321337834000587,0.40328162908554077,1.3394873142242432,-0.015148060396313667,0.9527458548545837,-0.13978399336338043,-0.06837856024503708,0.17086081206798553,0.229104146361351,4.3814158272245933e-16,0.048507578670978546,-0.05478502810001373,-0.4284256180891243,-0.4284256180891243,-0.061087,-0.4128266644996902,-1.4965172539618976,0.0,-0.08146749649337517,-0.08146749649337517,-0.8615581589266297,0.35524220101999365,0.728571003696241,0.0,0.06165571390185498,0.061655713901852205,-0.06295866721272575,-0.21557486790162708,-0.21727290303262795,0.0,0.3123161775796605,-0.007740726008772571,0.3002750748252703,0.319250199976,-0.014437649982000006,0.3,0.14706367413533586,-0.09371830755561569,0.0032278294881281956,True,True,True,False,True,False,0
2.02037635,1772663308.6635692,-0.022321337834000587,0.40328162908554077,1.3394873142242432,-0.015148060396313667,0.9527458548545837,-0.13978399336338043,-0.06837856024503708,0.17086081206798553,0.229104146361351,4.3814158272245933e-16,0.048507578670978546,-0.05478502810001373,-0.43005496801899185,-0.43005496801899185,-0.061087,-0.4057218204792903,-1.4819458338879727,0.0,-0.08012047878345276,-0.08012047878345276,-0.8626577368494791,0.35049255138341906,0.7232631621227232,0.0,0.06735088549612087,0.06735088549612087,-0.05497889614247126,-0.23748248182872944,-0.26539207867588543,0.0,0.3123161775796605,-0.007740726008772571,0.3002750748252703,0.32,-0.015000000000000001,0.3,0.15460066657533578,-0.09937105188561565,0.0032278294881281956,True,True,True,False,True,False,0
2.040268893,1772663308.6834617,-0.022321337834000587,0.40328162908554077,1.3394873142242432,-0.015148060396313667,0.9527458548545837,-0.13978399336338043,-0.06837856024503708,0.17086081206798553,0.229104146361351,4.3814158272245933e-16,0.048507578670978546,-0.05478502810001373,-0.4316573775946609,-0.4316573775946609,-0.061087,-0.3987119694516219,-1.4674805706455183,0.0,-0.07866734586329978,-0.07866734586329978,-0.8636109630525317,0.3453545312779996,0.7170178542844436,0.0,0.0726566460076488,0.0726566460076488,-0.04766131015263016,-0.25690100527097337,-0.31226539191397923,0.0,0.3123161775796605,-0.007740726008772571,0.3002750748252703,0.32074980002399994,-0.015562350018000009,0.3,0.1620596746153351,-0.1049653079156157,0.0032278294881281956,True,True,True,False,True,False,0
2.060399765,1772663308.7035925,-0.022321337834000587,0.40328162908554077,1.3394873142242432,-0.015148060396313667,0.9527458548545837,-0.13978399336338043,-0.06837856024503708,0.17086081206798553,0.229104146361351,4.3814158272245933e-16,0.048507578670978546,-0.05478502810001373,-0.4332307245119269,-0.4332307245119269,-0.061087,-0.3918048788260619,-1.4531402135598295,0.0,-0.07711593801009767,-0.07711593801009767,-0.8644309364602053,0.3398745475249261,0.7098601361382866,0.0,0.07757039266010547,0.07757039266010547,-0.04099867038367951,-0.2739991876536755,-0.35788590730785297,0.0,0.3123161775796605,-0.007740726008772571,0.3002750748252703,0.321498400768,-0.016123800576,0.3,0.16942879905533587,-0.11049215124561565,0.0032278294881281956,True,True,True,False,True,False,0
2.080300226,1772663308.7234929,-0.029375731945037842,0.4211064875125885,1.363695502281189,-0.015148060396313667,0.9586580991744995,-0.1455364227294922,-0.07156294584274292,0.18513914942741394,0.2516687214374542,4.3814158272245933e-16,0.06705459207296371,-0.05478502810001373,-0.43477304327212885,-0.43477304327212885,-0.061087,-0.3850073878755634,-1.4389430108370638,0.0,-0.07547408667468354,-0.07547408667468354,-0.8651305392213723,0.3340957393790348,0.7018150826117668,0.0,0.08209256677070627,0.08209256677070627,-0.03498013805834918,-0.2889404072945631,-0.4022526763259867,0.0,0.3159604801136244,-0.010055780672075491,0.3003456096454679,0.322244605832,-0.016683454373999998,0.3,0.1430063407507836,-0.0909816998570174,0.002655752245799282,True,True,True,False,True,False,0
2.10018366,1772663308.7433765,-0.029375731945037842,0.4211064875125885,1.363695502281189,-0.015148060396313667,0.9586580991744995,-0.1455364227294922,-0.07156294584274292,0.18513914942741394,0.2516687214374542,4.3814158272245933e-16,0.06705459207296371,-0.05478502810001373,-0.43628252500562253,-0.43628252500562253,-0.061087,-0.3783254730879827,-1.4249067091848284,0.0,-0.07374956183199843,-0.07374956183199843,-0.8657223779047967,0.32805810398241986,0.6929077314602667,0.0,0.08622624213425528,0.08622624213425528,-0.029591934171219164,-0.30188176983074716,-0.4453675575750045,0.0,0.3159604801136244,-0.010055780672075491,0.3003456096454679,0.322987224576,-0.017240418432,0.3,0.1501608931907836,-0.0963476141870174,0.002655752245799282,True,True,True,False,True,False,0
2.120187215,1772663308.76338,-0.029375731945037842,0.4211064875125885,1.363695502281189,-0.015148060396313667,0.9586580991744995,-0.1455364227294922,-0.07156294584274292,0.18513914942741394,0.2516687214374542,4.3814158272245933e-16,0.06705459207296371,-0.05478502810001373,-0.4377575162422625,-0.4377575162422625,-0.061087,-0.3717643110083343,-1.411048554555623,0.0,-0.071950026278035,-0.071950026278035,-0.8662187307163549,0.32179863076620013,0.6831630708841676,0.0,0.0899767776981717,0.0899767776981717,-0.024817640577912116,-0.31297366081098593,-0.487233028804956,0.0,0.3159604801136244,-0.010055780672075491,0.3003456096454679,0.32372507500000003,-0.01779380625000001,0.3,0.15719127563078397,-0.10162040101701746,0.002655752245799282,True,True,True,False,True,False,0
2.140168469,1772663308.7833612,-0.029375731945037842,0.4211064875125885,1.363695502281189,-0.015148060396313667,0.9586580991744995,-0.1455364227294922,-0.07156294584274292,0.18513914942741394,0.2516687214374542,4.3814158272245933e-16,0.06705459207296371,-0.05478502810001373,-0.4391965167678232,-0.4391965167678232,-0.061087,-0.36532833839301027,-1.3973852931379398,0.0,-0.07008299646482231,-0.07008299646482231,-0.8666315104951221,0.31535148499478943,0.6726060644866789,0.0,0.09335149066063411,0.09335149066063411,-0.020638988938359564,-0.32235728857053475,-0.527850319874434,0.0,0.3159604801136244,-0.010055780672075491,0.3003456096454679,0.32445698662399997,-0.018342739968000003,0.3,0.16408662567078336,-0.10679191354701739,0.002655752245799282,True,True,True,False,True,False,0
2.160144526,1772663308.803337,-0.029375731945037842,0.4211064875125885,1.363695502281189,-0.015148060396313667,0.9586580991744995,-0.1455364227294922,-0.07156294584274292,0.18513914942741394,0.2516687214374542,4.3814158272245933e-16,0.06705459207296371,-0.05478502810001373,-0.44059817669711965,-0.44059817669711965,-0.061087,-0.3590213086931145,-1.3839331718482062,0.0,-0.06815580894160353,-0.06815580894160353,-0.8669722279419283,0.30874814172792464,0.6612617064156148,0.0,0.09635937616093915,0.09635937616093915,-0.017035872340309663,-0.3301671633432393,-0.5672179035532071,0.0,0.3159604801136244,-0.010055780672075491,0.3003456096454679,0.325181803368,-0.018886352526,0.3,0.17083641211078382,-0.1118542533770174,0.002655752245799282,True,True,True,False,True,False,0
2.180142515,1772663308.8233352,-0.03663529455661774,0.44089674949645996,1.3907625675201416,-0.015148060396313667,0.9656089544296265,-0.15128885209560394,-0.07354889810085297,0.19893813133239746,0.27272671461105347,4.3814158272245933e-16,0.08274821937084198,-0.05136096477508545,-0.4419612928759517,-0.4419612928759517,-0.061087,-0.352846345858556,-1.3707079377198939,0.0,-0.06617559309154614,-0.06617559309154614,-0.8672519664366856,0.3020175790474784,0.6491551141925983,0.0,0.09901079250286957,0.09901079250286957,-0.013986924737863215,-0.33652813402231224,-0.6053296111508227,0.0,0.3199511956950131,-0.012502148885751047,0.30040387471089125,0.325898386432,-0.019423789824000004,0.3,0.14015706945867706,-0.09039112324910697,0.0019563636151436765,True,True,True,False,True,False,0
2.200209214,1772663308.843402,-0.03663529455661774,0.44089674949645996,1.3907625675201416,-0.015148060396313667,0.9656089544296265,-0.15128885209560394,-0.07354889810085297,0.19893813133239746,0.27272671461105347,4.3814158272245933e-16,0.08274821937084198,-0.05136096477508545,-0.44328480473778265,-0.44328480473778265,-0.061087,-0.34680599427760644,-1.3577248354360418,0.0,-0.06414924823251594,-0.06414924823251594,-0.867481360484673,0.2951864395085323,0.6363116317187179,0.0,0.1013172429515096,0.1013172429515096,-0.011469702399369276,-0.3415569769473045,-0.642174123694022,0.0,0.3199511956950131,-0.012502148885751047,0.30040387471089125,0.32660561717599995,-0.019954212882000003,0.3,0.1465856038986768,-0.09521252407910691,0.0019563636151436765,True,True,True,False,True,False,0
2.220198508,1772663308.8633912,-0.03663529455661774,0.44089674949645996,1.3907625675201416,-0.015148060396313667,0.9656089544296265,-0.15128885209560394,-0.07354889810085297,0.19893813133239746,0.27272671461105347,4.3814158272245933e-16,0.08274821937084198,-0.05136096477508545,-0.444567789702433,-0.444567789702433,-0.061087,-0.3409022654874358,-1.3449986028016674,0.0,-0.06208342555656039,-0.06208342555656039,-0.8676705777375695,0.28827919044511363,0.6227569626413696,0.0,0.10329113379777742,0.10329113379777742,-0.009460862644827808,-0.34536245317093284,-0.6777334538674123,0.0,0.3199511956950131,-0.012502148885751047,0.30040387471089125,0.3273024,-0.020476800000000003,0.3,0.15283925633867723,-0.09990276340910695,0.0019563636151436765,True,True,True,False,True,False,0
2.240195064,1772663308.8833878,-0.03663529455661774,0.44089674949645996,1.3907625675201416,-0.015148060396313667,0.9656089544296265,-0.15128885209560394,-0.07354889810085297,0.19893813133239746,0.27272671461105347,4.3814158272245933e-16,0.08274821937084198,-0.05136096477508545,-0.4458094582135642,-0.4458094582135642,-0.061087,-0.3351366816785335,-1.33254346354884,0.0,-0.05998451443697805,-0.05998451443697805,-0.8678293072563664,0.2813182971159569,0.6085173071899804,0.0,0.1049455559791172,0.1049455559791172,-0.007936475939845915,-0.34804466645783594,-0.7119827725694576,0.0,0.3199511956950131,-0.012502148885751047,0.30040387471089125,0.327987665224,-0.020990748918000006,0.3,0.1589091083786776,-0.10445515243910697,0.0019563636151436765,True,True,True,False,True,False,0
2.260193525,1772663308.903386,-0.03663529455661774,0.44089674949645996,1.3907625675201416,-0.015148060396313667,0.9656089544296265,-0.15128885209560394,-0.07354889810085297,0.19893813133239746,0.27272671461105347,4.3814158272245933e-16,0.08274821937084198,-0.05136096477508545,-0.4470091485023038,-0.4470091485023038,-0.061087,-0.32951031573621437,-1.3203731174050404,0.0,-0.057858632010565444,-0.057858632010565444,-0.8679667468274012,0.27432436463384546,0.5936195113548614,0.0,0.10629412132063001,0.10629412132063001,-0.006871978551736818,-0.3496966241055718,-0.7448897917559532,0.0,0.3199511956950131,-0.012502148885751047,0.30040387471089125,0.328660371968,-0.021495278976000013,0.3,0.16478671681867751,-0.10886335876910705,0.0019563636151436765,True,True,True,False,True,False,0
2.280133336,1772663308.923326,-0.043741460889577866,0.4600178301334381,1.4171624183654785,-0.015148060396313667,0.9712015986442566,-0.15627428889274597,-0.0711178183555603,0.19280906021595,0.2601604163646698,4.3814158272245933e-16,0.0527876578271389,-0.047936901450157166,-0.4481663211425151,-0.4481663211425151,-0.061087,-0.32402382844353744,-1.3085007271779432,0.0,-0.0557116173778295,-0.0557116173778295,-0.8680915972116506,0.2673162987633583,0.578091236269105,0.0,0.10735073163679704,0.10735073163679704,-0.0062425192124737575,-0.35040329352435917,-0.7764137542878184,0.0,0.32384438794534104,-0.014952995784173605,0.3004532280606992,0.329319511032,-0.021989633274000015,0.3,0.13016564309832213,-0.08880732746650175,0.00022654530655912778,True,True,True,False,True,False,0
2.300174654,1772663308.9433675,-0.043741460889577866,0.4600178301334381,1.4171624183654785,-0.015148060396313667,0.9712015986442566,-0.15627428889274597,-0.0711178183555603,0.19280906021595,0.2601604163646698,4.3814158272245933e-16,0.0527876578271389,-0.047936901450157166,-0.4492805534900717,-0.4492805534900717,-0.061087,-0.31867750246827026,-1.296938902452561,0.0,-0.05354902760681585,-0.05354902760681585,-0.8682120552532488,0.2603114368507246,0.5619611090206984,0.0,0.10812948855068266,0.10812948855068266,-0.006022902079910736,-0.3502430956316829,-0.8065063624203277,0.0,0.32384438794534104,-0.014952995784173605,0.3004532280606992,0.329964107776,-0.022473080832000003,0.3,0.13563547953832195,-0.09290970479650161,0.00022654530655912778,True,True,True,False,True,False,0
2.320188479,1772663308.9633813,-0.043741460889577866,0.4600178301334381,1.4171624183654785,-0.015148060396313667,0.9712015986442566,-0.15627428889274597,-0.0711178183555603,0.19280906021595,0.2601604163646698,4.3814158272245933e-16,0.0527876578271389,-0.047936901450157166,-0.450351534042208,-0.450351534042208,-0.061087,-0.3134712737312558,-1.285699680272147,0.0,-0.05137613853262133,-0.05137613853262133,-0.8683358076362627,0.2533256754008651,0.5452588983344976,0.0,0.1086444537097257,0.1086444537097257,-0.006187619150693763,-0.34928807249297555,-0.8351105343100399,0.0,0.32384438794534104,-0.014952995784173605,0.3004532280606992,0.330593225,-0.022944918750000008,0.3,0.14089088197832184,-0.09685125662650161,0.00022654530655912778,True,True,True,False,True,False,0
2.340299385,1772663308.9834921,-0.043741460889577866,0.4600178301334381,1.4171624183654785,-0.015148060396313667,0.9712015986442566,-0.15627428889274597,-0.0711178183555603,0.19280906021595,0.2601604163646698,4.3814158272245933e-16,0.0527876578271389,-0.047936901450157166,-0.4513790568128604,-0.4513790568128604,-0.061087,-0.3084047602232386,-1.2747945023054572,0.0,-0.04919794724805669,-0.04919794724805669,-0.8684700300676342,0.24637360254285667,0.5280156727742287,0.0,0.10890956422823425,0.10890956422823425,-0.006711121568575705,-0.3476036429004283,-0.8621612780134642,0.0,0.32384438794534104,-0.014952995784173605,0.3004532280606992,0.33120596582399997,-0.023404474368000007,0.3,0.14592559601832156,-0.10062729215650165,0.00022654530655912778,True,True,True,False,True,False,0
2.360196263,1772663309.003389,-0.043741460889577866,0.4600178301334381,1.4171624183654785,-0.015148060396313667,0.9712015986442566,-0.15627428889274597,-0.0711178183555603,0.19280906021595,0.2601604163646698,4.3814158272245933e-16,0.0527876578271389,-0.047936901450157166,-0.4523630157578215,-0.4523630157578215,-0.061087,-0.30347728817238145,-1.2642341888499726,0.0,-0.047019177461659324,-0.047019177461659324,-0.8686213815791349,0.2394686023527321,0.5102639637841851,0.0,0.1089384893198683,0.1089384893198683,-0.007567575575034839,-0.34525000950622853,-0.8875854495021754,0.0,0.32384438794534104,-0.014952995784173605,0.3004532280606992,0.33180147656799996,-0.023851107426,0.3,0.15073398645832164,-0.10423358498650157,0.00022654530655912778,True,True,True,False,True,False,0
2.380300466,1772663309.023493,-0.05130590498447418,0.4818214476108551,1.447517991065979,-0.015339807607233524,0.9812683463096619,-0.1624102145433426,-0.07984917610883713,0.23821215331554413,0.3279911279678345,-0.0034240642562508583,0.12554901838302612,-0.06848128885030746,-0.4533033993070547,-0.4533033993070547,-0.061087,-0.2986879161253268,-1.254028909574289,0.0,-0.044844288715334024,-0.044844288715334024,-0.8687960050932623,0.2326229633911618,0.4920379297762991,0.0,0.1087444373162649,0.1087444373162649,-0.008731175706366827,-0.34228194807851386,-0.9113017003943006,0.0,0.3280148559702972,-0.017637906991174915,0.30049636191343004,0.332378949632,-0.02428421222400001,0.3,0.12173141747388821,-0.07539876856404717,0.000624363357715956,True,True,True,False,True,False,0
2.400380482,1772663309.0435731,-0.05130590498447418,0.4818214476108551,1.447517991065979,-0.015339807607233524,0.9812683463096619,-0.1624102145433426,-0.07984917610883713,0.23821215331554413,0.3279911279678345,-0.0034240642562508583,0.12554901838302612,-0.06848128885030746,-0.4542002850813614,-0.4542002850813614,-0.061087,-0.29403545685750354,-1.244188150978763,0.0,-0.04267748695175216,-0.04267748695175216,-0.8689995226873728,0.22584796909030846,0.4733735063581007,0.0,0.10834008817909327,0.10834008817909327,-0.010175879705526239,-0.33874971504266715,-0.9332211709099195,0.0,0.3280148559702972,-0.017637906991174915,0.30049636191343004,0.332937626376,-0.02470321978200001,0.3,0.12607287591388833,-0.07865486239404718,0.000624363357715956,True,True,True,False,True,False,0
2.420393901,1772663309.0635865,-0.05130590498447418,0.4818214476108551,1.447517991065979,-0.015339807607233524,0.9812683463096619,-0.1624102145433426,-0.07984917610883713,0.23821215331554413,0.3279911279678345,-0.0034240642562508583,0.12554901838302612,-0.06848128885030746,-0.45505383482039646,-0.45505383482039646,-0.061087,-0.28951849747569736,-1.234720680851601,0.0,-0.040522738014676,-0.040522738014676,-0.8692370362116905,0.21915399574864122,0.4543085463224976,0.0,0.10773744685380779,0.10773744685380779,-0.011875676215883358,-0.3346986670833618,-0.9532480017801539,0.0,0.3280148559702972,-0.017637906991174915,0.30049636191343004,0.3334768,-0.02510759999999999,0.3,0.1301751083538886,-0.08173153672404707,0.000624363357715956,True,True,True,False,True,False,0
2.440391097,1772663309.0835838,-0.05130590498447418,0.4818214476108551,1.447517991065979,-0.015339807607233524,0.9812683463096619,-0.1624102145433426,-0.07984917610883713,0.23821215331554413,0.3279911279678345,-0.0034240642562508583,0.12554901838302612,-0.06848128885030746,-0.45586428958069,-0.45586428958069,-0.061087,-0.2851354175607245,-1.2256345099251509,0.0,-0.03838378409326525,-0.03838378409326525,-0.869513124266756,0.21255058656789405,0.4348829711693921,0.0,0.10694769607053752,0.10694769607053752,-0.013804402753275756,-0.3301704590373583,-0.9712787576552742,0.0,0.3280148559702972,-0.017637906991174915,0.30049636191343004,0.333995818424,-0.025496863817999996,0.3,0.13403524439388856,-0.08462663875404715,0.000624363357715956,True,True,True,False,True,False,0
2.460367807,1772663309.1035604,-0.05130590498447418,0.4818214476108551,1.447517991065979,-0.015339807607233524,0.9812683463096619,-0.1624102145433426,-0.07984917610883713,0.23821215331554413,0.3279911279678345,-0.0034240642562508583,0.12554901838302612,-0.06848128885030746,-0.4566319652625553,-0.4566319652625553,-0.061087,-0.28088440582936663,-1.216936850501763,0.0,-0.03626416229173424,-0.03626416229173424,-0.8698318409099712,0.20604652117120226,0.41513889415340305,0.0,0.10598109007655042,0.10598109007655042,-0.01593583216076276,-0.3252032698345894,-0.9872038507994526,0.0,0.3280148559702972,-0.017637906991174915,0.30049636191343004,0.334494087168,-0.025870565376000014,0.3,0.1376511768338884,-0.08733858808404729,0.000624363357715956,True,True,True,False,True,False,0
2.480250064,1772663309.1234426,-0.05902949720621109,0.5035675168037415,1.4777776002883911,-0.015339807607233524,0.9871805310249329,-0.1672039031982422,-0.06947426497936249,0.19434988498687744,0.2719734311103821,4.3814158272245933e-16,0.05849443003535271,-0.03424064442515373,-0.45735724850839,-0.45735724850839,-0.061087,-0.2767634754059426,-1.208634072618695,0.0,-0.03416722601768061,-0.03416722601768061,-0.870196713576686,0.1996498871993365,0.395120745270814,0.0,0.10484681370268129,0.10484681370268129,-0.01824363333574051,-0.3198316985932881,-1.0009074441294525,0.0,0.3323436233471889,-0.020438297728040466,0.30045198283293084,0.33497107223199996,-0.026228304174000017,0.3,0.09040235681992641,-0.06489612778464426,-0.001173884842311278,True,True,True,False,True,False,0
2.500194707,1772663309.1433873,-0.05902949720621109,0.5035675168037415,1.4777776002883911,-0.015339807607233524,0.9871805310249329,-0.1672039031982422,-0.06947426497936249,0.19434988498687744,0.2719734311103821,4.3814158272245933e-16,0.05849443003535271,-0.03424064442515373,-0.4580405930287436,-0.4580405930287436,-0.061087,-0.27277047766195583,-1.2007316577132787,0.0,-0.032096168302123355,-0.032096168302123355,-0.8706107406858873,0.19336813105041817,0.37487538120414204,0.0,0.10355288577786258,0.10355288577786258,-0.020701355460062115,-0.3140878074459158,-1.0122682033335957,0.0,0.3323436233471889,-0.020438297728040466,0.30045198283293084,0.3354263029759999,-0.02656972723200001,0.3,0.0935267572599259,-0.0672394281146442,-0.001173884842311278,True,True,True,False,True,False,0
2.520261414,1772663309.1634543,-0.05902949720621109,0.5035675168037415,1.4777776002883911,-0.015339807607233524,0.9871805310249329,-0.1672039031982422,-0.06947426497936249,0.19434988498687744,0.2719734311103821,4.3814158272245933e-16,0.05849443003535271,-0.03424064442515373,-0.4586825163947861,-0.4586825163947861,-0.061087,-0.2689031150409475,-1.1932341500891959,0.0,-0.030054047974548352,-0.030054047974548352,-0.8710763914913695,0.18720812403838832,0.3544521885298848,0.0,0.10210601637875007,0.10210601637875007,-0.02328254027411101,-0.30800035060149195,-1.021159633712861,0.0,0.3323436233471889,-0.020438297728040466,0.30045198283293084,0.335859375,-0.026894531250000006,0.3,0.09640549969992707,-0.06939848494464418,-0.001173884842311278,True,True,True,False,True,False,0
2.540195514,1772663309.1833882,-0.05902949720621109,0.5035675168037415,1.4777776002883911,-0.015339807607233524,0.9871805310249329,-0.1672039031982422,-0.06947426497936249,0.19434988498687744,0.2719734311103821,4.3814158272245933e-16,0.05849443003535271,-0.03424064442515373,-0.45928359735427704,-0.45928359735427704,-0.061087,-0.26515895256017974,-1.1861451063185982,0.0,-0.028043817896387498,-0.028043817896387498,-0.8715956034505924,0.18117620115096414,0.33390317476987375,0.0,0.10051150390804264,0.10051150390804264,-0.025960597961144336,-0.30159614437120896,-1.027450688000552,0.0,0.3323436233471889,-0.020438297728040466,0.30045198283293084,0.33626995302400003,-0.027202464768000013,0.3,0.0990398177399271,-0.07137422347464421,-0.001173884842311278,True,True,True,False,True,False,0
2.560147869,1772663309.2033405,-0.05902949720621109,0.5035675168037415,1.4777776002883911,-0.015339807607233524,0.9871805310249329,-0.1672039031982422,-0.06947426497936249,0.19434988498687744,0.2719734311103821,4.3814158272245933e-16,0.05849443003535271,-0.03424064442515373,-0.45984447371220477,-0.45984447371220477,-0.061087,-0.26153542853716044,-1.1794670428232006,0.0,-0.02606835607127746,-0.02606835607127746,-0.872169776999427,0.1752781941691332,0.31328305756397856,0.0,0.09877309125550177,0.09877309125550177,-0.028708677441729977,-0.2949003490915464,-1.0310058602947583,0.0,0.3323436233471889,-0.020438297728040466,0.30045198283293084,0.336657773768,-0.027493330326000015,0.3,0.10143185217992678,-0.07316824930464423,-0.001173884842311278,True,True,True,False,True,False,0
