JLDominguezM/dreamteam-T3001B/M1-Kinematics/Lab2/src/xarm_ros2/xarm_perturbations/xarm_perturbations/results/challenge/trial_ctc_nopert_2026-03-04_16-26-58/trial_ctc_nopert_2026-03-04_16-26-58.csv
time,time_abs,q1,q2,q3,q4,q5,q6,qd1,qd2,qd3,qd4,qd5,qd6,q_des1,q_des2,q_des3,q_des4,q_des5,q_des6,qd_des1,qd_des2,qd_des3,qd_des4,qd_des5,qd_des6,qdd_des1,qdd_des2,qdd_des3,qdd_des4,qdd_des5,qdd_des6,px,py,pz,px_des,py_des,pz_des,cmd_x,cmd_y,cmd_z,sat1,sat2,sat3,sat4,sat5,sat6,pert_enabled
0.020193214,1772663219.5893717,-0.03704371675848961,0.9417625665664673,2.1010820865631104,-0.01131310872733593,1.1827630996704102,-0.2003762423992157,-7.067758849524537e-16,3.6637359812630166e-15,2.030122192925245e-15,4.0840347355422253e-16,1.0785023819043118e-15,1.2371057013876537e-15,0.0,0.0,0.0,0.0,0.0,0.0,-6.769699044394746,-6.769699044394746,-1.0086718422823742,-0.30555170587246916,-46.12279569842235,0.0,0.0,0.0,0.0,0.0,0.0,0.0,0.4035246874735164,-0.015604086999908045,0.28751117901855516,0.35,0.0,0.3,-0.25,0.1560408699990809,0.12488820981444815,False,False,False,False,False,False,0
0.04029526,1772663219.6094737,-0.03704371675848961,0.9417625665664673,2.1010820865631104,-0.01131310872733593,1.1827630996704102,-0.2003762423992157,-7.067758849524537e-16,3.6637359812630166e-15,2.030122192925245e-15,4.0840347355422253e-16,1.0785023819043118e-15,1.2371057013876537e-15,-0.13539398088789492,-0.13539398088789492,-0.020173436845647482,-0.006111034117449383,-0.9224559139684471,0.0,-3.626548133737746,-3.626548133737746,-1.2344946926136287,-0.21658245256279066,-12.905092130384848,0.0,157.15754553284998,157.15754553284998,-11.291142516562724,4.448462665483925,1660.8851784018752,0.0,0.4035246874735164,-0.015604086999908045,0.28751117901855516,0.35,0.0,0.3,-0.25,0.1560408699990809,0.12488820981444815,False,False,False,False,False,False,0
0.060290704,1772663219.6294692,-0.03704371675848961,0.9417625665664673,2.1010820865631104,-0.01131310872733593,1.1827630996704102,-0.2003762423992157,-7.067758849524537e-16,3.6637359812630166e-15,2.030122192925245e-15,4.0840347355422253e-16,1.0785023819043118e-15,1.2371057013876537e-15,-0.20792494356264984,-0.20792494356264984,-0.044863330697920055,-0.010442683168705197,-1.180557756576144,0.0,-2.785927814813639,-2.785927814813639,-1.1264656581025667,-0.15221869329253318,-4.243507807103541,0.0,42.03101594620535,42.03101594620535,5.4014517255530965,3.218187963512874,433.0792161640653,0.0,0.4035246874735164,-0.015604086999908045,0.28751117901855516,0.35,0.0,0.3,-0.25,0.1560408699990809,0.12488820981444815,False,False,False,False,False,False,0
0.080419149,1772663219.6495976,-0.03704371675848961,0.9417625665664673,2.1010820865631104,-0.01131310872733593,1.1827630996704102,-0.2003762423992157,-7.067758849524537e-16,3.6637359812630166e-15,2.030122192925245e-15,4.0840347355422253e-16,1.0785023819043118e-15,1.2371057013876537e-15,-0.2636434998589226,-0.2636434998589226,-0.061087,-0.01348705703455586,-1.2654279127182149,0.0,-2.1708514039954805,-2.1708514039954805,-1.0256120089499148,-0.11840729409917704,0.1336140573910598,0.0,30.75382054090792,30.75382054090792,5.042682457632598,1.6905699596678074,218.85609322473005,0.0,0.4035246874735164,-0.015604086999908045,0.28751117901855516,0.35,0.0,0.3,-0.25,0.1560408699990809,0.12488820981444815,False,False,False,False,False,False,0
0.100381045,1772663219.6695595,-0.03704371675848961,0.9417625665664673,2.1010820865631104,-0.01131310872733593,1.1827630996704102,-0.2003762423992157,-7.067758849524537e-16,3.6637359812630166e-15,2.030122192925245e-15,4.0840347355422253e-16,1.0785023819043118e-15,1.2371057013876537e-15,-0.3070605279388322,-0.3070605279388322,-0.061087,-0.015855202916539402,-1.2627556315703936,0.0,-1.6265567303118442,-1.6265567303118442,-1.0137211517659184,-0.10697208939094918,1.869957826671664,0.0,27.21473368418181,27.21473368418181,0.5945428591998202,0.5717602354113926,86.8171884640302,0.0,0.4035246874735164,-0.015604086999908045,0.28751117901855516,0.35,0.0,0.3,-0.25,0.1560408699990809,0.12488820981444815,False,False,False,False,False,False,0
0.120417305,1772663219.689596,-0.03704371675848961,0.9417625665664673,2.1010820865631104,-0.01131310872733593,1.1827630996704102,-0.2003762423992157,-7.067758849524537e-16,3.6637359812630166e-15,2.030122192925245e-15,4.0840347355422253e-16,1.0785023819043118e-15,1.2371057013876537e-15,-0.3395916625450691,-0.3395916625450691,-0.061087,-0.017994644704358388,-1.2253564750369603,0.0,-1.179304334710154,-1.179304334710154,-1.0030423980365115,-0.10362752108794615,2.2448456420181278,0.0,22.36261978008451,22.36261978008451,0.5339376864703426,0.16722841515015155,18.74439076732318,0.0,0.4035246874735164,-0.015604086999908045,0.28751117901855516,0.35,0.0,0.3,-0.25,0.1560408699990809,0.12488820981444815,False,False,False,False,False,False,0
0.140775963,1772663219.7099545,-0.03465837985277176,0.9282616376876831,2.0808775424957275,-0.01131310872733593,1.1794074773788452,-0.2003762423992157,0.04252687841653824,-0.2403693050146103,-0.35973218083381653,4.0840347355422253e-16,-0.05992112308740616,1.2371057013876537e-15,-0.3631777492392722,-0.3631777492392722,-0.061087,-0.02006719512611731,-1.1804595621965979,0.0,-0.8402333973860376,-0.8402333973860376,-0.9937764805198713,-0.10418694310771709,2.061313802890186,0.0,16.953546866205823,16.953546866205823,0.4632958758320096,-0.02797110098854695,-9.17659195639709,0.0,0.4035246874735164,-0.015604086999908045,0.28751117901855516,0.35,0.0,0.3,-0.25,0.11200100948279526,0.14253431696643842,False,False,False,False,False,False,0
0.160282007,1772663219.7294605,-0.03465837985277176,0.9282616376876831,2.0808775424957275,-0.01131310872733593,1.1794074773788452,-0.2003762423992157,0.04252687841653824,-0.2403693050146103,-0.35973218083381653,4.0840347355422253e-16,-0.05992112308740616,1.2371057013876537e-15,-0.379982417186993,-0.379982417186993,-0.061087,-0.022150933988271653,-1.1392332861387942,0.0,-0.5950989379564794,-0.5950989379564794,-0.986248036368767,-0.10615487165948467,1.7103289230346315,0.0,12.2567229714779,12.2567229714779,0.3764222075552156,-0.0983964275883791,-17.549243992777715,0.0,0.40166657413821577,-0.014574972012541355,0.2880597195551087,0.35,0.0,0.3,-0.25,0.10170985960912834,0.13704891160090332,False,False,False,False,False,False,0
0.180421286,1772663219.7495997,-0.03465837985277176,0.9282616376876831,2.0808775424957275,-0.01131310872733593,1.1794074773788452,-0.2003762423992157,0.04252687841653824,-0.2403693050146103,-0.35973218083381653,4.0840347355422253e-16,-0.05992112308740616,1.2371057013876537e-15,-0.39188439594612257,-0.39188439594612257,-0.061087,-0.024274031421461346,-1.1050267076781015,0.0,-0.42148847616607543,-0.42148847616607543,-0.9802905275502977,-0.10825880364112203,1.3514183861694704,0.0,8.680523089520202,8.680523089520202,0.29787544092346757,-0.10519659908186796,-17.94552684325806,0.0,0.40166657413821577,-0.014574972012541355,0.2880597195551087,0.35,0.0,0.3,-0.25,0.10170985960912834,0.13704891160090332,False,False,False,False,False,False,0
0.202614375,1772663219.771793,-0.03465837985277176,0.9282616376876831,2.0808775424957275,-0.01131310872733593,1.1794074773788452,-0.2003762423992157,0.04252687841653824,-0.2403693050146103,-0.35973218083381653,4.0840347355422253e-16,-0.05992112308740616,1.2371057013876537e-15,-0.4003141654694441,-0.4003141654694441,-0.061087,-0.026439207494283787,-1.0779983399547122,0.0,-0.29928140881853316,-0.29928140881853316,-0.9755696773710132,-0.10993182233620538,1.0397410765088466,0.0,6.110353367377117,6.110353367377117,0.23604250896422385,-0.08365093475416756,-15.583865483031197,0.0,0.40166657413821577,-0.014574972012541355,0.2880597195551087,0.35,0.0,0.3,-0.25,0.10170985960912834,0.13704891160090332,False,True,True,False,False,False,0
0.220243867,1772663219.7894223,-0.03465837985277176,0.9282616376876831,2.0808775424957275,-0.01131310872733593,1.1794074773788452,-0.2003762423992157,0.04252687841653824,-0.2403693050146103,-0.35973218083381653,4.0840347355422253e-16,-0.05992112308740616,1.2371057013876537e-15,-0.40629979364581476,-0.40629979364581476,-0.061087,-0.028637843941007896,-1.0572035184245352,0.0,-0.21320934717773327,-0.21320934717773327,-0.9717674200189698,-0.11097529265718575,0.7875644859163514,0.0,4.303603082039991,4.303603082039991,0.1901128676021711,-0.05217351604901855,-12.60882952962475,0.0,0.40166657413821577,-0.014574972012541355,0.2880597195551087,0.35,0.0,0.3,-0.25,0.10170985960912834,0.13704891160090332,False,True,True,False,False,False,0
0.240449423,1772663219.809628,-0.02232900820672512,0.8667854070663452,1.9991681575775146,-0.010162622667849064,1.157755970954895,-0.18906313180923462,0.12994323670864105,-0.6649532914161682,-0.8782724738121033,0.05820909142494202,-0.2468179613351822,0.11299411952495575,-0.41056398058936944,-0.41056398058936944,-0.061087,-0.03085734979415161,-1.0414522287062082,0.0,-0.15239458966143513,-0.15239458966143513,-0.9686324406727473,-0.11137107342387836,0.5909509840489637,0.0,3.0407378758149086,3.0407378758149086,0.15674896731112117,-0.019789038334630537,-9.83067509336939,0.0,0.40166657413821577,-0.014574972012541355,0.2880597195551087,0.35,0.0,0.3,-0.25,0.0368231481247623,0.15402884027331204,True,True,True,False,False,False,0
0.260262003,1772663219.8294406,-0.02232900820672512,0.8667854070663452,1.9991681575775146,-0.010162622667849064,1.157755970954895,-0.18906313180923462,0.12994323670864105,-0.6649532914161682,-0.8782724738121033,0.05820909142494202,-0.2468179613351822,0.11299411952495575,-0.4136118723825981,-0.4136118723825981,-0.061087,-0.03308477126262918,-1.029633209025229,0.0,-0.10925968019109764,-0.10925968019109764,-0.9659796261381162,-0.11118184755045513,0.4409244162374181,0.0,2.1567454735168754,2.1567454735168754,0.13264072673155886,0.00946129367116189,-7.501328390577284,0.0,0.39392316369761726,-0.009373762543293977,0.2927567771360884,0.35,0.0,0.3,-0.25,-0.015188946567711484,0.10705826446351491,True,True,True,False,False,False,0
0.280337615,1772663219.849516,-0.02232900820672512,0.8667854070663452,1.9991681575775146,-0.010162622667849064,1.157755970954895,-0.18906313180923462,0.12994323670864105,-0.6649532914161682,-0.8782724738121033,0.05820909142494202,-0.2468179613351822,0.11299411952495575,-0.4157970659864201,-0.4157970659864201,-0.061087,-0.03530840821363829,-1.0208147207004805,0.0,-0.07855228814888605,-0.07855228814888605,-0.9636765209656042,-0.11049967272738265,0.32796302197365845,0.0,1.5353696021105776,1.5353696021105776,0.11515525862559874,0.03410874115362392,-5.6480697131879785,0.0,0.39392316369761726,-0.009373762543293977,0.2927567771360884,0.35,0.0,0.3,-0.25,-0.015188946567711484,0.10705826446351491,True,True,True,False,False,False,0
0.300322258,1772663219.8695006,-0.02232900820672512,0.8667854070663452,1.9991681575775146,-0.010162622667849064,1.157755970954895,-0.18906313180923462,0.12994323670864105,-0.6649532914161682,-0.8782724738121033,0.05820909142494202,-0.2468179613351822,0.11299411952495575,-0.4173681117493978,-0.4173681117493978,-0.061087,-0.037518401668185944,-1.0142554602610074,0.0,-0.05662251300556784,-0.05662251300556784,-0.9616294429011409,-0.10942042119112602,0.24363722943994365,0.0,1.0964887571659099,1.0964887571659099,0.1023539032231623,0.05396257681283124,-4.216289626685737,0.0,0.39392316369761726,-0.009373762543293977,0.2927567771360884,0.35,0.0,0.3,-0.25,-0.015188946567711484,0.10705826446351491,True,True,True,False,False,False,0
0.320372904,1772663219.8895514,-0.02232900820672512,0.8667854070663452,1.9991681575775146,-0.010162622667849064,1.157755970954895,-0.18906313180923462,0.12994323670864105,-0.6649532914161682,-0.8782724738121033,0.05820909142494202,-0.2468179613351822,0.11299411952495575,-0.41850056200950914,-0.41850056200950914,-0.061087,-0.03970681009200846,-1.0093827156722086,0.0,-0.040920400057074466,-0.040920400057074466,-0.9597723668023559,-0.10803209022097267,0.18104338906030093,0.0,0.78510564742467,0.78510564742467,0.09285380493925262,0.0694165485076678,-3.129692018982142,0.0,0.39392316369761726,-0.009373762543293977,0.2927567771360884,0.35,0.0,0.3,-0.25,-0.015188946567711484,0.10705826446351491,True,True,True,False,False,False,0
0.340547901,1772663219.9097264,-0.01921694353222847,0.8394441604614258,1.962601900100708,-0.011696603149175644,1.1503257751464844,-0.18791264295578003,0.003937673754990101,-0.19270633161067963,-0.26262572407722473,-0.0410887710750103,-0.0527876578271389,0.006848128512501717,-0.4193189700106506,-0.4193189700106506,-0.061087,-0.04186745189642791,-1.0057618478910026,0.0,-0.02965385594334098,-0.02965385594334098,-0.9580587455600524,-0.10641033613614924,0.13475552846066138,0.0,0.5633272056866737,0.5633272056866737,0.08568106211517261,0.08108770424117138,-2.314393029981975,0.0,0.39392316369761726,-0.009373762543293977,0.2927567771360884,0.35,0.0,0.3,-0.25,0.05793714852724579,0.08295009566676444,True,True,True,False,False,False,0
0.360362029,1772663219.9295406,-0.01921694353222847,0.8394441604614258,1.962601900100708,-0.011696603149175644,1.1503257751464844,-0.18791264295578003,0.003937673754990101,-0.19270633161067963,-0.26262572407722473,-0.0410887710750103,-0.0527876578271389,0.006848128512501717,-0.4199120471295174,-0.4199120471295174,-0.061087,-0.0439956586191509,-1.0030667373217894,0.0,-0.021556441264020936,-0.021556441264020936,-0.9564556800043802,-0.10461769448343762,0.10061099591539537,0.0,0.40487073396600193,0.40487073396600193,0.08015327778361218,0.08963208263558084,-1.7072266272632994,0.0,0.3900631763260717,-0.008158813896669483,0.29464294898220134,0.35,0.0,0.3,-0.25,0.04578766206100086,0.06408837720563494,True,True,True,False,True,False,0
0.380279727,1772663219.9494581,-0.01921694353222847,0.8394441604614258,1.962601900100708,-0.011696603149175644,1.1503257751464844,-0.18791264295578003,0.003937673754990101,-0.19270633161067963,-0.26262572407722473,-0.0410887710750103,-0.0527876578271389,0.006848128512501717,-0.4203431759547978,-0.4203431759547978,-0.061087,-0.046088012508819644,-1.0010545174034815,0.0,-0.015728953346888327,-0.015728953346888327,-0.954939830644668,-0.10270451572416435,0.07546428163427235,0.0,0.291374395856631,0.291374395856631,0.07579246798560826,0.09565893796366372,-1.2573357140561532,0.0,0.3900631763260717,-0.008158813896669483,0.29464294898220134,0.35,0.0,0.3,-0.25,0.04578766206100086,0.06408837720563494,True,True,True,False,True,False,0
0.400386321,1772663219.969565,-0.01921694353222847,0.8394441604614258,1.962601900100708,-0.011696603149175644,1.1503257751464844,-0.18791264295578003,0.003937673754990101,-0.19270633161067963,-0.26262572407722473,-0.0410887710750103,-0.0527876578271389,0.006848128512501717,-0.4206577550217356,-0.4206577550217356,-0.061087,-0.04814210282330293,-0.999545231770796,0.0,-0.011530472651151246,-0.011530472651151246,-0.9534945541014382,-0.10071058271815793,0.05696175616779313,0.0,0.2099240347868539,0.2099240347868539,0.07226382716148942,0.09969665030032096,-0.9251262733239602,0.0,0.3900631763260717,-0.008158813896669483,0.29464294898220134,0.35,0.0,0.3,-0.25,0.04578766206100086,0.06408837720563494,True,True,True,False,True,False,0
0.420341334,1772663219.9895198,-0.01921694353222847,0.8394441604614258,1.962601900100708,-0.011696603149175644,1.1503257751464844,-0.18791264295578003,0.003937673754990101,-0.19270633161067963,-0.26262572407722473,-0.0410887710750103,-0.0527876578271389,0.006848128512501717,-0.4208883644747586,-0.4208883644747586,-0.061087,-0.050156314477666095,-0.9984059966474401,0.0,-0.008502779080118485,-0.008502779080118485,-0.9521079141324901,-0.09866686938980845,0.04335384619656548,0.0,0.1513846785516379,0.1513846785516379,0.06933199844740828,0.10218566641747366,-0.6803954985613818,0.0,0.3900631763260717,-0.008158813896669483,0.29464294898220134,0.35,0.0,0.3,-0.25,0.04578766206100086,0.06408837720563494,True,True,True,False,True,False,0
0.440590385,1772663220.009769,-0.02048247866332531,0.8127394318580627,1.9295618534088135,-0.01073786523193121,1.142336368560791,-0.18752914667129517,-0.011847262270748615,-0.3172053098678589,-0.4011291265487671,0.013696257025003433,-0.11128208786249161,0.0034240642562508583,-0.42105842005636096,-0.42105842005636096,-0.061087,-0.052129651865462256,-0.9975389197235088,0.0,-0.006317494265380134,-0.006317494265380134,-0.9507712806842784,-0.0965972143629493,0.033345787797744844,0.0,0.10926424073691773,0.10926424073691773,0.06683167241058342,0.10348275134295806,-0.5004029199410328,0.0,0.3900631763260717,-0.008158813896669483,0.29464294898220134,0.35,0.0,0.3,-0.25,0.02670003690688342,0.06691685720010813,True,True,True,False,True,False,0
0.460336927,1772663220.0295155,-0.02048247866332531,0.8127394318580627,1.9295618534088135,-0.01073786523193121,1.142336368560791,-0.18752914667129517,-0.011847262270748615,-0.3172053098678589,-0.4011291265487671,0.013696257025003433,-0.11128208786249161,0.0034240642562508583,-0.42118476994166854,-0.42118476994166854,-0.061087,-0.05406159615272124,-0.9968720039675539,0.0,-0.004738860773676723,-0.004738860773676723,-0.9494783591234885,-0.0945197649559302,0.0259823245698428,0.0,0.07893167458517052,0.07893167458517052,0.06464607803949302,0.10387247035095461,-0.3681731613951019,0.0,0.3864020500360527,-0.008520834771122254,0.297032550613637,0.35,0.0,0.3,-0.25,0.030320245651411136,0.04302084088575168,True,True,True,False,True,False,0
0.480370342,1772663220.0495489,-0.02048247866332531,0.8127394318580627,1.9295618534088135,-0.01073786523193121,1.142336368560791,-0.18752914667129517,-0.011847262270748615,-0.3172053098678589,-0.4011291265487671,0.013696257025003433,-0.11128208786249161,0.0034240642562508583,-0.42127954715714205,-0.42127954715714205,-0.061087,-0.05595199145183985,-0.996352357476157,0.0,-0.0035973839107822717,-0.0035973839107822717,-0.9482245034924232,-0.09244819057096201,0.020560161096426485,0.0,0.0570738431447225,0.0570738431447225,0.06269278155326957,0.10357871924840935,-0.27110817367081547,0.0,0.3864020500360527,-0.008520834771122254,0.297032550613637,0.35,0.0,0.3,-0.25,0.030320245651411136,0.04302084088575168,True,True,True,False,True,False,0
0.500269363,1772663220.069448,-0.02048247866332531,0.8127394318580627,1.9295618534088135,-0.01073786523193121,1.142336368560791,-0.18752914667129517,-0.011847262270748615,-0.3172053098678589,-0.4011291265487671,0.013696257025003433,-0.11128208786249161,0.0034240642562508583,-0.4213514948353577,-0.4213514948353577,-0.061087,-0.05780095526325909,-0.9959411542542285,0.0,-0.002771079804343962,-0.002771079804343962,-0.947006234902999,-0.09039268813394077,0.01656227464761008,0.0,0.04131520532191555,0.04131520532191555,0.06091342947121004,0.10277512185106216,-0.19989432244082073,0.0,0.3864020500360527,-0.008520834771122254,0.297032550613637,0.35,0.0,0.3,-0.25,0.030320245651411136,0.04302084088575168,True,True,True,False,True,False,0
0.520362236,1772663220.089541,-0.02048247866332531,0.8127394318580627,1.9295618534088135,-0.01073786523193121,1.142336368560791,-0.18752914667129517,-0.011847262270748615,-0.3172053098678589,-0.4011291265487671,0.013696257025003433,-0.11128208786249161,0.0034240642562508583,-0.4214069164314446,-0.4214069164314446,-0.061087,-0.0596088090259379,-0.9956099087612763,0.0,-0.0021720889672563557,-0.0021720889672563557,-0.9458209066946024,-0.08836075730963214,0.01360895964133528,0.0,0.029949541854380295,0.029949541854380295,0.05926641041982811,0.10159654121543173,-0.14766575031373977,0.0,0.3864020500360527,-0.008520834771122254,0.297032550613637,0.35,0.0,0.3,-0.25,0.030320245651411136,0.04302084088575168,True,True,True,False,True,False,0
0.540217413,1772663220.109396,-0.01947963796555996,0.7813369631767273,1.8834925889968872,-0.01073786523193121,1.1262774467468262,-0.18733739852905273,0.017496967688202858,-0.3237452805042267,-0.47221270203590393,4.103860071068304e-16,-0.18547014892101288,1.2133151928772406e-15,-0.42145035821078974,-0.42145035821078974,-0.061087,-0.06137602417213055,-0.9953377295684496,0.0,-0.0017370922835857061,-0.0017370922835857061,-0.9446664608561219,-0.08635784095669569,0.011421565547786283,0.0,0.02174983418353246,0.02174983418353246,0.057722291924022735,0.10014581764682248,-0.10936970467744976,0.0,0.3864020500360527,-0.008520834771122254,0.297032550613637,0.35,0.0,0.3,-0.25,0.027543320540845684,0.04301379977526414,True,True,True,False,True,False,0
0.560336923,1772663220.1295154,-0.01947963796555996,0.7813369631767273,1.8834925889968872,-0.01073786523193121,1.1262774467468262,-0.18733739852905273,0.017496967688202858,-0.3237452805042267,-0.47221270203590393,4.103860071068304e-16,-0.18547014892101288,1.2133151928772406e-15,-0.42148510005646145,-0.42148510005646145,-0.061087,-0.06310318099126447,-0.9951092982574938,0.0,-0.0014204367283858071,-0.0014204367283858071,-0.9435412627486727,-0.08438780305018136,0.009795692760749056,0.0,0.015832777759994934,0.015832777759994934,0.05625990537246323,0.0985018953257164,-0.0812936393518613,0.0,0.3817618664069902,-0.008038327851673818,0.29796973920156,0.35,0.0,0.3,-0.25,0.022718251346361323,0.03364191389603393,True,True,True,False,True,False,0
0.580344653,1772663220.1495233,-0.01947963796555996,0.7813369631767273,1.8834925889968872,-0.01073786523193121,1.1262774467468262,-0.18733739852905273,0.017496967688202858,-0.3237452805042267,-0.47221270203590393,4.103860071068304e-16,-0.18547014892101288,1.2133151928772406e-15,-0.42151350879102917,-0.42151350879102917,-0.061087,-0.0647909370522681,-0.9949133844022788,0.0,-0.0011891954569859479,-0.0011891954569859479,-0.9424439803826312,-0.08245331316174226,0.00858147441319132,0.0,0.011562063569992953,0.011562063569992953,0.05486411830207256,0.0967244944219548,-0.060710917377886725,0.0,0.3817618664069902,-0.008038327851673818,0.29796973920156,0.35,0.0,0.3,-0.25,0.022718251346361323,0.03364191389603393,True,True,True,False,True,False,0
0.600292343,1772663220.169471,-0.01947963796555996,0.7813369631767273,1.8834925889968872,-0.01073786523193121,1.1262774467468262,-0.18733739852905273,0.017496967688202858,-0.3237452805042267,-0.47221270203590393,4.103860071068304e-16,-0.18547014892101288,1.2133151928772406e-15,-0.4215372927001689,-0.4215372927001689,-0.061087,-0.06644000331550294,-0.994741754914015,0.0,-0.0010196144378333133,-0.0010196144378333133,-0.9413735016212291,-0.08055613573467361,0.007669045957303278,0.0,0.00847905095763177,0.00847905095763177,0.05352393807010494,0.09485887135343266,-0.04562142279440234,0.0,0.3817618664069902,-0.008038327851673818,0.29796973920156,0.35,0.0,0.3,-0.25,0.022718251346361323,0.03364191389603393,True,True,True,False,True,False,0
0.620337924,1772663220.1895165,-0.01947963796555996,0.7813369631767273,1.8834925889968872,-0.01073786523193121,1.1262774467468262,-0.18733739852905273,0.017496967688202858,-0.3237452805042267,-0.47221270203590393,4.103860071068304e-16,-0.18547014892101288,1.2133151928772406e-15,-0.42155768498892554,-0.42155768498892554,-0.061087,-0.06805112603019642,-0.9945883739948689,0.0,-0.000894554407687001,-0.000894554407687001,-0.9403288714413348,-0.07869735711265957,0.006977884907886325,0.0,0.006253001507315609,0.006253001507315609,0.05223150899471558,0.09293893110070206,-0.03455805247084759,0.0,0.3817618664069902,-0.008038327851673818,0.29796973920156,0.35,0.0,0.3,-0.25,0.022718251346361323,0.03364191389603393,True,True,True,False,True,False,0
0.640484154,1772663220.2096627,-0.01753915287554264,0.7502776980400085,1.8399946689605713,-0.009970875456929207,1.1146926879882812,-0.18733739852905273,0.01123093068599701,-0.2782394587993622,-0.3839060962200165,0.02054438553750515,-0.11841555684804916,1.2133151928772406e-15,-0.4215755760770793,-0.4215755760770793,-0.061087,-0.0696250731724496,-0.9944488162967111,0.0,-0.0008016471713567334,-0.0008016471713567334,-0.9393092526653999,-0.07687755075921233,0.006448993807827277,0.0,0.004645361816513374,0.004645361816513374,0.05098093879674632,0.09099031767236176,-0.026444555002952373,0.0,0.3817618664069902,-0.008038327851673818,0.29796973920156,0.35,0.0,0.3,-0.25,0.03475420267594612,0.02948857342933588,True,True,True,False,True,False,0
0.660331485,1772663220.2295098,-0.01753915287554264,0.7502776980400085,1.8399946689605713,-0.009970875456929207,1.1146926879882812,-0.18733739852905273,0.01123093068599701,-0.2782394587993622,-0.3839060962200165,0.02054438553750515,-0.11841555684804916,1.2133151928772406e-15,-0.4215916090205064,-0.4215916090205064,-0.061087,-0.07116262418763386,-0.9943198364205545,0.0,-0.0007319666585423011,-0.0007319666585423011,-0.9383138932279901,-0.0750969165813859,0.006039133923453566,0.0,0.0034840256407216133,0.0034840256407216133,0.04976797187049016,0.08903170889132178,-0.020492994218685567,0.0,0.3769108082106786,-0.007165852053650298,0.29926765173962666,0.35,0.0,0.3,-0.25,0.026029444695710925,0.01650944804866929,True,True,True,False,True,False,0
0.680348667,1772663220.2495272,-0.01753915287554264,0.7502776980400085,1.8399946689605713,-0.009970875456929207,1.1146926879882812,-0.18733739852905273,0.01123093068599701,-0.2782394587993622,-0.3839060962200165,0.02054438553750515,-0.11841555684804916,1.2133151928772406e-15,-0.42160624835367727,-0.42160624835367727,-0.061087,-0.07266456251926158,-0.9941990537420855,0.0,-0.0006790710865341894,-0.0006790710865341894,-0.9373421082402277,-0.07335536660741485,0.0057166403258107484,0.0,0.0026447786004055846,0.0026447786004055846,0.048589249388120107,0.0870774986985525,-0.01612467988214085,0.0,0.3769108082106786,-0.007165852053650298,0.29926765173962666,0.35,0.0,0.3,-0.25,0.026029444695710925,0.01650944804866929,True,True,True,False,True,False,0
0.70040781,1772663220.2695863,-0.01753915287554264,0.7502776980400085,1.8399946689605713,-0.009970875456929207,1.1146926879882812,-0.18733739852905273,0.01123093068599701,-0.2782394587993622,-0.3839060962200165,0.02054438553750515,-0.11841555684804916,1.2133151928772406e-15,-0.42161982977540796,-0.42161982977540796,-0.061087,-0.07413166985140988,-0.9940847209355693,0.0,-0.000638311197388327,-0.000638311197388327,-0.9363932596004545,-0.07165261306592902,0.005458311908203381,0.0,0.0020379944572931196,0.0020379944572931196,0.04744243198865901,0.08513767707429142,-0.012916420880368361,0.0,0.3769108082106786,-0.007165852053650298,0.29926765173962666,0.35,0.0,0.3,-0.25,0.026029444695710925,0.01650944804866929,True,True,True,False,True,False,0
0.720275637,1772663220.289454,-0.01753915287554264,0.7502776980400085,1.8399946689605713,-0.009970875456929207,1.1146926879882812,-0.18733739852905273,0.01123093068599701,-0.2782394587993622,-0.3839060962200165,0.02054438553750515,-0.11841555684804916,1.2133151928772406e-15,-0.4216325959993557,-0.4216325959993557,-0.061087,-0.07556472211272847,-0.9939755546974053,0.0,-0.00060633190905552,-0.00060633190905552,-0.9354667501379603,-0.06998821396589563,0.005247161293401872,0.0,0.001598964416640347,0.001598964416640347,0.04632547312470865,0.083219955001669,-0.010557530740075418,0.0,0.3769108082106786,-0.007165852053650298,0.29926765173962666,0.35,0.0,0.3,-0.25,0.026029444695710925,0.01650944804866929,True,True,True,False,True,False,0
0.740504841,1772663220.3096836,-0.017057865858078003,0.7224359512329102,1.798567533493042,-0.010354369878768921,1.100950837135315,-0.18733739852905273,0.006985091138631105,-0.30056434869766235,-0.438691109418869,0.017120322212576866,-0.1440960317850113,1.2133151928772406e-15,-0.42164472263753683,-0.42164472263753683,-0.061087,-0.07696448639204637,-0.9938706114715372,0.0,-0.0005807118511754368,-0.0005807118511754368,-0.9345620128079907,-0.0683616185520385,0.005070745831804321,0.0,0.0012810028940041648,0.0012810028940041648,0.04523686649848278,0.08132977069285725,-0.008820773079877595,0.0,0.3769108082106786,-0.007165852053650298,0.29926765173962666,0.35,0.0,0.3,-0.25,0.02187715356615831,0.01597230347586447,True,True,True,False,True,False,0
0.76039762,1772663220.3295763,-0.017057865858078003,0.7224359512329102,1.798567533493042,-0.010354369878768921,1.100950837135315,-0.18733739852905273,0.006985091138631105,-0.30056434869766235,-0.438691109418869,0.017120322212576866,-0.1440960317850113,1.2133151928772406e-15,-0.42165633687456033,-0.42165633687456033,-0.061087,-0.07833171876308714,-0.9937691965549011,0.0,-0.0005597042854120909,-0.0005597042854120909,-0.9336785054790222,-0.06677220945881687,0.004919962004970135,0.0,0.0010503782881672924,0.0010503782881672924,0.04417536644842342,0.07947045466108117,-0.0075391913417092934,0.0,0.3723893615341404,-0.00692491837700536,0.29972545202085665,0.35,0.0,0.3,-0.25,0.019467816799708923,0.01139430066356455,True,True,True,False,True,False,0
0.780400112,1772663220.3495789,-0.017057865858078003,0.7224359512329102,1.798567533493042,-0.010354369878768921,1.100950837135315,-0.18733739852905273,0.006985091138631105,-0.30056434869766235,-0.438691109418869,0.017120322212576866,-0.1440960317850113,1.2133151928772406e-15,-0.4216675309602686,-0.4216675309602686,-0.061087,-0.07966716295226348,-0.9936707973148018,0.0,-0.0005420487727082375,-0.0005420487727082375,-0.9328157085787243,-0.06521930932690956,0.004788149768192515,0.0,0.0008827756351926708,0.0008827756351926708,0.0431398450148945,0.07764500659536565,-0.00659061183888101,0.0,0.3723893615341404,-0.00692491837700536,0.29972545202085665,0.35,0.0,0.3,-0.25,0.019467816799708923,0.01139430066356455,True,True,True,False,True,False,0
0.800373726,1772663220.3695521,-0.017057865858078003,0.7224359512329102,1.798567533493042,-0.010354369878768921,1.100950837135315,-0.18733739852905273,0.006985091138631105,-0.30056434869766235,-0.438691109418869,0.017120322212576866,-0.1440960317850113,1.2133151928772406e-15,-0.4216783719357228,-0.4216783719357228,-0.061087,-0.08097154913880167,-0.9935750343194379,0.0,-0.0005268365099879331,-0.0005268365099879331,-0.9319731187880342,-0.06370221219085062,0.0046704319992531,0.0,0.0007606131360152195,0.0007606131360152195,0.04212948953450365,0.07585485680294678,-0.0058858884469707665,0.0,0.3723893615341404,-0.00692491837700536,0.29972545202085665,0.35,0.0,0.3,-0.25,0.019467816799708923,0.01139430066356455,True,True,True,False,True,False,0
0.820311735,1772663220.3894901,-0.017057865858078003,0.7224359512329102,1.798567533493042,-0.010354369878768921,1.100950837135315,-0.18733739852905273,0.006985091138631105,-0.30056434869766235,-0.438691109418869,0.017120322212576866,-0.1440960317850113,1.2133151928772406e-15,-0.4216889086659225,-0.4216889086659225,-0.061087,-0.08224559338261868,-0.9934816256794529,0.0,-0.000513412189307838,-0.000513412189307838,-0.9311502511201202,-0.062220188624072734,0.0045632455497361946,0.0,0.0006712160340047521,0.0006712160340047521,0.04114338339570308,0.0741011783388943,-0.0053593224758452475,0.0,0.3723893615341404,-0.00692491837700536,0.29972545202085665,0.35,0.0,0.3,-0.25,0.019467816799708923,0.01139430066356455,True,True,True,False,True,False,0
0.840203311,1772663220.4093819,-0.015289953909814358,0.688007652759552,1.7485674619674683,-0.009970875456929207,1.087049126625061,-0.18695390224456787,0.018079059198498726,-0.32901832461357117,-0.47467803955078125,0.027392514050006866,-0.12412232905626297,0.006848128512501717,-0.42169917690970865,-0.42169917690970865,-0.061087,-0.08348999715510014,-0.9933903607684581,0.0,-0.000501303341682937,-0.000501303341682937,-0.9303466343316295,-0.060772497647651025,0.004463986343229101,0.0,0.0006054423812450535,0.0006054423812450535,0.04018083942453617,0.07238454882108537,-0.004962960325354672,0.0,0.3723893615341404,-0.00692491837700536,0.29972545202085665,0.35,0.0,0.3,-0.25,0.01907057109542764,0.009909447062766114,True,True,True,False,True,False,0
0.860276349,1772663220.4294548,-0.015289953909814358,0.688007652759552,1.7485674619674683,-0.009970875456929207,1.087049126625061,-0.18695390224456787,0.018079059198498726,-0.32901832461357117,-0.47467803955078125,0.027392514050006866,-0.12412232905626297,0.006848128512501717,-0.4217092029765423,-0.4217092029765423,-0.061087,-0.08470544710805315,-0.9933010810415935,0.0,-0.0004901698771177208,-0.0004901698771177208,-0.9295618096635538,-0.05935839708933996,0.004370755404579957,0.0,0.0005566732282608093,0.0005566732282608093,0.03924123340378079,0.07070502791555361,-0.004661546932457233,0.0,0.36652993929237737,-0.006151576852710054,0.3004368629368855,0.35,0.0,0.3,-0.21611863924134464,0.011337155852474586,0.002795337902477795,True,True,True,False,True,False,0
0.880387445,1772663220.449566,-0.015289953909814358,0.688007652759552,1.7485674619674683,-0.009970875456929207,1.087049126625061,-0.18695390224456787,0.018079059198498726,-0.32901832461357117,-0.47467803955078125,0.027392514050006866,-0.12412232905626297,0.006848128512501717,-0.42171900637408466,-0.42171900637408466,-0.061087,-0.08589261504983996,-0.9932136659335019,0.0,-0.0004797668970811207,-0.0004797668970811207,-0.9287953316929606,-0.057977149433645736,0.00428216581799655,0.0,0.0005201490018300055,0.0005201490018300055,0.03832389852966297,0.06906238278471111,-0.0044294793291703395,0.0,0.36652993929237737,-0.006151576852710054,0.3004368629368855,0.35,0.0,0.3,-0.21611863924134464,0.011337155852474586,0.002795337902477795,True,True,True,False,True,False,0
0.900342673,1772663220.469521,-0.015289953909814358,0.688007652759552,1.7485674619674683,-0.009970875456929207,1.087049126625061,-0.18695390224456787,0.018079059198498726,-0.32901832461357117,-0.47467803955078125,0.027392514050006866,-0.12412232905626297,0.006848128512501717,-0.4217286017120263,-0.4217286017120263,-0.061087,-0.08705215803851288,-0.993128022617142,0.0,-0.00046991831552032834,-0.00046991831552032834,-0.928046766576575,-0.056628016445481086,0.004197209470133509,0.0,0.0004924290780396186,0.0004924290780396186,0.0374282558192773,0.06745664940823246,-0.00424781739315205,0.0,0.36652993929237737,-0.006151576852710054,0.3004368629368855,0.35,0.0,0.3,-0.21611863924134464,0.011337155852474586,0.002795337902477795,True,True,True,False,True,False,0
0.920323407,1772663220.489502,-0.015289953909814358,0.688007652759552,1.7485674619674683,-0.009970875456929207,1.087049126625061,-0.18695390224456787,0.018079059198498726,-0.32901832461357117,-0.47467803955078125,0.027392514050006866,-0.12412232905626297,0.006848128512501717,-0.42173800007833673,-0.42173800007833673,-0.061087,-0.0881847183674225,-0.9930440784277392,0.0,-0.0004604973174018451,-0.0004604973174018451,-0.9273156917821768,-0.05531027091727453,0.004115147200234134,0.0,0.0004710499059241628,0.0004710499059241628,0.036553739719913346,0.0658872764103278,-0.004103113494968721,0.0,0.36652993929237737,-0.006151576852710054,0.3004368629368855,0.35,0.0,0.3,-0.21611863924134464,0.011337155852474586,0.002795337902477795,True,True,True,False,True,False,0
0.940641004,1772663220.5098195,-0.014555560424923897,0.6588351726531982,1.704843282699585,-0.010354369878768921,1.0723484754562378,-0.18695390224456787,0.004759449511766434,-0.3063852787017822,-0.45735225081443787,0.017120322212576866,-0.1583629697561264,1.2133151928772406e-15,-0.42174721002468474,-0.42174721002468474,-0.061087,-0.089290923785768,-0.9929617754837345,0.0,-0.00045141333954133375,-0.00045141333954133375,-0.9266016941992408,-0.05402320053770518,0.004035448435602856,0.0,0.0004541988930255657,0.0004541988930255657,0.035699879146799916,0.06435351897846742,-0.003984938231563897,0.0,0.36652993929237737,-0.006151576852710054,0.3004368629368855,0.35,0.0,0.3,-0.21672995319889565,0.01460885470034734,0.00020588756299099072,True,True,True,False,True,False,0
0.960388831,1772663220.5295672,-0.014555560424923897,0.6588351726531982,1.704843282699585,-0.010354369878768921,1.0723484754562378,-0.18695390224456787,0.004759449511766434,-0.3063852787017822,-0.45735225081443787,0.017120322212576866,-0.1583629697561264,1.2133151928772406e-15,-0.42175623829147557,-0.42175623829147557,-0.061087,-0.09037138779652211,-0.9928810665150225,0.0,-0.00044260129355220765,-0.00044260129355220765,-0.9259043723117033,-0.052766100993581894,0.003957729278239314,0.0,0.00044060229945630487,0.00044060229945630487,0.03486609437687302,0.06285497720616423,-0.0038859578681771333,0.0,0.36144055325327923,-0.005825108221026092,0.30057437710196167,0.35,0.0,0.3,-0.16583609280791423,0.01134416838350772,-0.0011692540877708112,True,True,True,False,True,False,0
0.980267741,1772663220.549446,-0.014555560424923897,0.6588351726531982,1.704843282699585,-0.010354369878768921,1.0723484754562378,-0.18695390224456787,0.004759449511766434,-0.3063852787017822,-0.45735225081443787,0.017120322212576866,-0.1583629697561264,1.2133151928772406e-15,-0.4217650903173466,-0.4217650903173466,-0.061087,-0.09142670981639374,-0.9928019119294578,0.0,-0.00043401439439399656,-0.00043401439439399656,-0.9252233327002349,-0.05153828232200311,0.003881705218625922,0.0,0.0004293449579105566,0.0004293449579105566,0.034051980573418676,0.061390933578939495,-0.0038012029806695946,0.0,0.36144055325327923,-0.005825108221026092,0.30057437710196167,0.35,0.0,0.3,-0.16583609280791423,0.01134416838350772,-0.0011692540877708112,True,True,True,False,True,False,0
1.000395326,1772663220.5695739,-0.014555560424923897,0.6588351726531982,1.704843282699585,-0.010354369878768921,1.0723484754562378,-0.18695390224456787,0.004759449511766434,-0.3063852787017822,-0.45735225081443787,0.017120322212576866,-0.1583629697561264,1.2133151928772406e-15,-0.42177377060523447,-0.42177377060523447,-0.061087,-0.0924574754628338,-0.9927242778250852,0.0,-0.00042561968651666157,-0.00042561968651666157,-0.9245581936873108,-0.05033906778863714,0.0038071776780963934,0.0,0.0004197353938667488,0.0004197353938667488,0.03325695064620435,0.05996072666829827,-0.0037263770264764316,0.0,0.36144055325327923,-0.005825108221026092,0.30057437710196167,0.35,0.0,0.3,-0.16583609280791423,0.01134416838350772,-0.0011692540877708112,True,True,True,False,True,False,0
1.020329203,1772663220.5895078,-0.014555560424923897,0.6588351726531982,1.704843282699585,-0.010354369878768921,1.0723484754562378,-0.18695390224456787,0.004759449511766434,-0.3063852787017822,-0.45735225081443787,0.017120322212576866,-0.1583629697561264,1.2133151928772406e-15,-0.4217822829989648,-0.4217822829989648,-0.061087,-0.09346425681860654,-0.9926481342715233,0.0,-0.0004173933587331563,-0.0004173933587331563,-0.9239085810631237,-0.04916779306557287,0.003734001323255534,0.0,0.00041131638917526293,0.00041131638917526293,0.032480631209358374,0.058563736153213704,-0.0036588177420429605,0.0,0.36144055325327923,-0.005825108221026092,0.30057437710196167,0.35,0.0,0.3,-0.16583609280791423,0.01134416838350772,-0.0011692540877708112,True,True,True,False,True,False,0
1.041171704,1772663220.6103504,-0.013928545638918877,0.627432644367218,1.659063458442688,-0.010162622667849064,1.0590858459472656,-0.18695390224456787,0.006779647432267666,-0.29135361313819885,-0.4219474494457245,0.02054438553750515,-0.11413547396659851,1.2133151928772406e-15,-0.4217906308661395,-0.4217906308661395,-0.061087,-0.094447612679918,-0.9925734542450582,0.0,-0.0004908351196250341,-0.0004908351196250341,-0.9232565746708392,-0.047990995637553144,0.004645973534285586,0.0,-0.0036720880445938846,-0.0036720880445938846,0.032600319614223244,0.05883987140098615,0.045598610551502536,0.0,0.35576267664129363,-0.005504874765606928,0.3008915876653602,0.350000394024,-2.955180000000008e-07,0.3,-0.10768219217880685,0.014407903711073828,-0.006397135502284014,True,True,True,False,True,False,0
1.060317498,1772663220.629496,-0.013928545638918877,0.627432644367218,1.659063458442688,-0.010162622667849064,1.0590858459472656,-0.18695390224456787,0.006779647432267666,-0.29135361313819885,-0.4219474494457245,0.02054438553750515,-0.11413547396659851,1.2133151928772406e-15,-0.42180044756853197,-0.42180044756853197,-0.061087,-0.09540743259266907,-0.9924805347743725,0.0,-0.0007260764969388052,-0.0007260764969388052,-0.9225789607685754,-0.046776300794497516,0.00752036578682215,0.0,-0.011762068865688546,-0.011762068865688546,0.033880695113192,0.060734742152781324,0.14371961262682809,0.0,0.35576267664129363,-0.005504874765606928,0.3008915876653602,0.35000310476799995,-2.3285760000000057e-06,0.3,-0.10743188773880752,0.014220175381073823,-0.006397135502284014,True,True,True,False,True,False,0
1.080410342,1772663220.6495888,-0.013928545638918877,0.627432644367218,1.659063458442688,-0.010162622667849064,1.0590858459472656,-0.18695390224456787,0.006779647432267666,-0.29135361313819885,-0.4219474494457245,0.02054438553750515,-0.11413547396659851,1.2133151928772406e-15,-0.4218149690984707,-0.4218149690984707,-0.061087,-0.09634295860855902,-0.992330127458636,0.0,-0.001108403357901168,-0.001108403357901168,-0.9218676067297981,-0.045530849706923976,0.012197374974758993,0.0,-0.019116343048118118,-0.019116343048118118,0.03556770193886557,0.06227255437867696,0.23385045939684193,0.0,0.35576267664129363,-0.005504874765606928,0.3008915876653602,0.3500103198319999,-7.739874000000021e-06,0.3,-0.10699887009880774,0.013895412151073823,-0.006397135502284014,True,True,True,False,True,False,0
1.100358891,1772663220.6695373,-0.013928545638918877,0.627432644367218,1.659063458442688,-0.010162622667849064,1.0590858459472656,-0.18695390224456787,0.006779647432267666,-0.29135361313819885,-0.4219474494457245,0.02054438553750515,-0.11413547396659851,1.2133151928772406e-15,-0.42183713716562876,-0.42183713716562876,-0.061087,-0.0972535756026975,-0.9920861799591408,0.0,-0.0016247326461630088,-0.0016247326461630088,-0.9211148821305615,-0.044261112553491244,0.01853236717359419,0.0,-0.02581646441309202,-0.02581646441309202,0.037636229961829325,0.06348685767163653,0.3167496099417595,0.0,0.35576267664129363,-0.005504874765606928,0.3008915876653602,0.350024088576,-1.8066432000000045e-05,0.3,-0.10637153765880722,0.01342491282107382,-0.006397135502284014,True,True,True,False,True,False,0
1.120257398,1772663220.689436,-0.013928545638918877,0.627432644367218,1.659063458442688,-0.010162622667849064,1.0590858459472656,-0.18695390224456787,0.006779647432267666,-0.29135361313819885,-0.4219474494457245,0.02054438553750515,-0.11413547396659851,1.2133151928772406e-15,-0.421869631818552,-0.421869631818552,-0.061087,-0.09813879785376732,-0.9917155326156689,0.0,-0.0022631165326361703,-0.0022631165326361703,-0.9203136305585669,-0.04297299169327701,0.026392409615028832,0.0,-0.03191919432365805,-0.03191919432365805,0.04006257859973102,0.06440604301071179,0.3930021220717318,0.0,0.35576267664129363,-0.005504874765606928,0.3008915876653602,0.35004632499999994,-3.474375000000009e-05,0.3,-0.10553945521880766,0.012800850991073818,-0.006397135502284014,True,True,True,False,True,False,0
1.140564016,1772663220.7097425,-0.013535463251173496,0.6115463972091675,1.634847640991211,-0.010546118021011353,1.0510165691375732,-0.18695390224456787,0.004451283719390631,-0.14346829056739807,-0.2205439805984497,0.017120322212576866,-0.08417491614818573,1.2133151928772406e-15,-0.42191489414920474,-0.42191489414920474,-0.061087,-0.09899825768763286,-0.9911876844233684,0.0,-0.003012388013765044,-0.003012388013765044,-0.9194571398094242,-0.04167192397985178,0.035653737812643506,0.0,-0.03746357405644366,-0.03746357405644366,0.04282453745713118,0.06505338567126118,0.4630664098807333,0.0,0.35576267664129363,-0.005504874765606928,0.3008915876653602,0.3500788106239999,-5.910796800000016e-05,0.3,-0.08009621677944004,0.03237775786353845,-0.008389837551521194,True,True,True,False,True,False,0
1.160388218,1772663220.7295668,-0.013535463251173496,0.6115463972091675,1.634847640991211,-0.010546118021011353,1.0510165691375732,-0.18695390224456787,0.004451283719390631,-0.14346829056739807,-0.2205439805984497,0.017120322212576866,-0.08417491614818573,1.2133151928772406e-15,-0.42197514190948004,-0.42197514190948004,-0.061087,-0.0998316961672299,-0.9904746096671155,0.0,-0.0038619111262046812,-0.0038619111262046812,-0.9185391145351817,-0.04036293659826916,0.046199892130237966,0.0,-0.042476155621981815,-0.042476155621981815,0.04590126371212806,0.06544936907913115,0.5273077158797225,0.0,0.3527994531494019,-0.005343238924786548,0.3007412967278089,0.35012319736799996,-9.239802600000023e-05,0.3,-0.049195615420522594,0.029810124625334635,-0.006886928176008076,True,True,True,False,True,False,0
1.180280593,1772663220.7494593,-0.013535463251173496,0.6115463972091675,1.634847640991211,-0.010546118021011353,1.0510165691375732,-0.18695390224456787,0.004451283719390631,-0.14346829056739807,-0.2205439805984497,0.017120322212576866,-0.08417491614818573,1.2133151928772406e-15,-0.42205238013200413,-0.42205238013200413,-0.061087,-0.10063895489919526,-0.9895506118245108,0.0,-0.004801407194480087,-0.004801407194480087,-0.9175536505327163,-0.03905070553533056,0.057920377940505356,0.0,-0.04697480341377078,-0.04697480341377078,0.04927320012326814,0.06561155314693046,0.5860242905133756,0.0,0.3527994531494019,-0.005343238924786548,0.3007412967278089,0.350181010432,-0.0001357578239999998,0.3,-0.04769790378052215,0.028686840895334652,-0.006886928176008076,True,True,True,False,True,False,0
1.200387572,1772663220.7695663,-0.013535463251173496,0.6115463972091675,1.634847640991211,-0.010546118021011353,1.0510165691375732,-0.18695390224456787,0.004451283719390631,-0.14346829056739807,-0.2205439805984497,0.017120322212576866,-0.08417491614818573,1.2133151928772406e-15,-0.4221484082758937,-0.4221484082758937,-0.061087,-0.10141996900990187,-0.9883922042657006,0.0,-0.005820838161886782,-0.005820838161886782,-0.9164952109150952,-0.03773958886504468,0.07070968074001663,0.0,-0.050971548370334685,-0.050971548370334685,0.05292198088105433,0.06555583351429412,0.6394651399755631,0.0,0.3527994531494019,-0.005343238924786548,0.3007412967278089,0.350253651176,-0.00019023838199999982,0.3,-0.0459647893405223,0.02738700506533465,-0.006886928176008076,True,True,True,False,True,False,0
1.220245988,1772663220.7894244,-0.013535463251173496,0.6115463972091675,1.634847640991211,-0.010546118021011353,1.0510165691375732,-0.18695390224456787,0.004451283719390631,-0.14346829056739807,-0.2205439805984497,0.017120322212576866,-0.08417491614818573,1.2133151928772406e-15,-0.4222648250391315,-0.4222648250391315,-0.061087,-0.10217476078720276,-0.9869780106509003,0.0,-0.00691033229834276,-0.00691033229834276,-0.9153586067780511,-0.03643365122327384,0.08446655340826492,0.0,-0.05447470682279887,-0.05447470682279887,0.05683020685220414,0.06529688208854184,0.6878436334124141,0.0,0.3527994531494019,-0.005343238924786548,0.3007412967278089,0.3503424,-0.00025679999999999985,0.3,-0.04399123690052223,0.025906840735334648,-0.006886928176008076,True,True,True,False,True,False,0
1.240765463,1772663220.8099442,-0.012544128112494946,0.5986340641975403,1.6153603792190552,-0.010929613374173641,1.0453439950942993,-0.18695390224456787,0.00979282334446907,-0.11963680386543274,-0.1797291338443756,-0.0034240642562508583,-0.06134781613945961,1.2133151928772406e-15,-0.42240303168509835,-0.42240303168509835,-0.061087,-0.10290343381166825,-0.985288679582735,0.0,-0.008060141335978804,-0.008060141335978804,-0.914138975495078,-0.03513669476308308,0.09909353349622685,0.0,-0.05749045188180212,-0.05749045188180212,0.060981564148654355,0.06484782300953806,0.7313490043980957,0.0,0.3527994531494019,-0.005343238924786548,0.3007412967278089,0.35044841922399994,-0.0003363144179999999,0.3,-0.03779864525483277,0.028278126887670813,-0.007248067182004354,True,True,True,False,True,False,0
1.260361199,1772663220.8295398,-0.012544128112494946,0.5986340641975403,1.6153603792190552,-0.010929613374173641,1.0453439950942993,-0.18695390224456787,0.00979282334446907,-0.11963680386543274,-0.1797291338443756,-0.0034240642562508583,-0.06134781613945961,1.2133151928772406e-15,-0.4225642345118179,-0.4225642345118179,-0.061087,-0.10360616770692992,-0.9833068089128105,0.0,-0.009260621642233055,-0.009260621642233055,-0.912831766782318,-0.033852261263926195,0.11449656828599163,0.0,-0.060024015312712516,-0.060024015312712516,0.06536043563800104,0.06422167495784414,0.7701517394882382,0.0,0.35032643827782023,-0.004981335585801409,0.30063895286355724,0.35057275596799997,-0.00042956697599999994,0.3,-0.010602908099015554,0.02280990216781943,-0.006224628539487604,True,True,True,False,True,False,0
1.280397558,1772663220.8495762,-0.012544128112494946,0.5986340641975403,1.6153603792190552,-0.010929613374173641,1.0453439950942993,-0.18695390224456787,0.00979282334446907,-0.11963680386543274,-0.1797291338443756,-0.0034240642562508583,-0.06134781613945961,1.2133151928772406e-15,-0.42274944694466254,-0.42274944694466254,-0.061087,-0.10428321293220844,-0.9810168775470907,0.0,-0.010502232799828395,-0.010502232799828395,-0.9114327279304288,-0.03258365579137257,0.1305847965122298,0.0,-0.06208055787976693,-0.06208055787976693,0.06995194259445942,0.0634302736276813,0.8044114113119074,0.0,0.35032643827782023,-0.004981335585801409,0.30063895286355724,0.350716345032,-0.000537258774,0.3,-0.007887622459015288,0.020773437937819425,-0.006224628539487604,True,True,True,False,True,False,0
1.300380496,1772663220.869559,-0.012544128112494946,0.5986340641975403,1.6153603792190552,-0.010929613374173641,1.0453439950942993,-0.18695390224456787,0.00979282334446907,-0.11963680386543274,-0.1797291338443756,-0.0034240642562508583,-0.06134781613945961,1.2133151928772406e-15,-0.4229594916006591,-0.4229594916006591,-0.061087,-0.10493488604803589,-0.9784051816168461,0.0,-0.011775549750727261,-0.011775549750727261,-0.9099378932422529,-0.0313339467474979,0.14727037441333068,0.0,-0.06366584754494327,-0.06366584754494327,0.07474173440879521,0.062485452193733415,0.834278895055044,0.0,0.35032643827782023,-0.004981335585801409,0.30063895286355724,0.3508800117759999,-0.0006600088320000002,0.3,-0.004921406019016047,0.018548775607819427,-0.006224628539487604,True,True,True,False,True,False,0
1.32034716,1772663220.8895257,-0.012544128112494946,0.5986340641975403,1.6153603792190552,-0.010929613374173641,1.0453439950942993,-0.18695390224456787,0.00979282334446907,-0.11963680386543274,-0.1797291338443756,-0.0034240642562508583,-0.06134781613945961,1.2133151928772406e-15,-0.42319500259567366,-0.42319500259567366,-0.061087,-0.10556156498298584,-0.9754597741285794,0.0,-0.013071284141492577,-0.013071284141492577,-0.9083435777572308,-0.030105971075039123,0.16446838091996915,0.0,-0.06478671953826573,-0.06478671953826573,0.07971577425110447,0.06139878362293871,0.8599003253319227,0.0,0.35032643827782023,-0.004981335585801409,0.30063895286355724,0.351064475,-0.0007983562500000003,0.3,-0.001703903579015403,0.01613564877781943,-0.006224628539487604,True,True,True,False,True,False,0
1.340582848,1772663220.9097612,-0.010818399488925934,0.5938519239425659,1.6075505018234253,-0.010929613374173641,1.0427074432373047,-0.18695390224456787,0.01910627819597721,-0.03472001105546951,-0.06238644942641258,4.0939474033052647e-16,-0.017120322212576866,1.2133151928772406e-15,-0.4234564282785035,-0.4234564282785035,-0.061087,-0.10616368440448662,-0.97217040651018,0.0,-0.014380312601545549,-0.014380312601545549,-0.9066463696919133,-0.028902346073550064,0.18209676507192435,0.0,-0.06545142300264853,-0.06545142300264853,0.08486040326587944,0.06018125007445288,0.8814192075977589,0.0,0.35032643827782023,-0.004981335585801409,0.30063895286355724,0.35127034982399996,-0.0009527623680000004,0.3,0.017365064162240797,0.025259924072781312,-0.0063454015234590926,True,True,True,False,True,False,0
1.360368856,1772663220.9295473,-0.010818399488925934,0.5938519239425659,1.6075505018234253,-0.010929613374173641,1.0427074432373047,-0.18695390224456787,0.01910627819597721,-0.03472001105546951,-0.06238644942641258,4.0939474033052647e-16,-0.017120322212576866,1.2133151928772406e-15,-0.4237440345305344,-0.4237440345305344,-0.061087,-0.10674173132595761,-0.9685284712087415,0.0,-0.015693710332675227,-0.015693710332675227,-0.9048431303998192,-0.027725458199103076,0.20007631010890642,0.0,-0.06566988655648387,-0.06566988655648387,0.0901619646047013,0.05884439372234937,0.8989772518491027,0.0,0.3493782663575734,-0.004365532766256272,0.30045283373014015,0.35149815056799993,-0.0011236129260000006,0.3,0.030564553804708735,0.016313568047329946,-0.00448421018928814,True,True,True,False,True,False,0
1.380365632,1772663220.9495442,-0.010818399488925934,0.5938519239425659,1.6075505018234253,-0.010929613374173641,1.0427074432373047,-0.18695390224456787,0.01910627819597721,-0.03472001105546951,-0.06238644942641258,4.0939474033052647e-16,-0.017120322212576866,1.2133151928772406e-15,-0.4240579087371879,-0.4240579087371879,-0.061087,-0.10729624048993967,-0.9645269450065634,0.0,-0.017002786292409297,-0.017002786292409297,-0.902930993365017,-0.026577476704820746,0.21833063752161216,0.0,-0.06545379798670344,-0.06545379798670344,0.09560685174010977,0.057399074714116434,0.9127163706352864,0.0,0.3493782663575734,-0.004365532766256272,0.30045283373014015,0.351748293632,-0.001311220224000001,0.3,0.03452969344470937,0.013339713317329938,-0.00448421018928814,True,True,True,False,True,False,0
1.400321424,1772663220.9694998,-0.010818399488925934,0.5938519239425659,1.6075505018234253,-0.010929613374173641,1.0427074432373047,-0.18695390224456787,0.01910627819597721,-0.03472001105546951,-0.06238644942641258,4.0939474033052647e-16,-0.017120322212576866,1.2133151928772406e-15,-0.42439796446303607,-0.42439796446303607,-0.061087,-0.10782779002403609,-0.9601603322561312,0.0,-0.018299120855503056,-0.018299120855503056,-0.9009073688809692,-0.02546034748513787,0.2367861973156918,0.0,-0.06481672815468788,-0.06481672815468788,0.10118122420239009,0.055856460984143826,0.9227779897039815,0.0,0.3493782663575734,-0.004365532766256272,0.30045283373014015,0.352021100376,-0.0015158252820000012,0.3,0.03873933188470924,0.010182484487329934,-0.00448421018928814,True,True,True,False,True,False,0
1.420288928,1772663220.9894674,-0.010818399488925934,0.5938519239425659,1.6075505018234253,-0.010929613374173641,1.0427074432373047,-0.18695390224456787,0.01910627819597721,-0.03472001105546951,-0.06238644942641258,4.0939474033052647e-16,-0.017120322212576866,1.2133151928772406e-15,-0.4247639468801461,-0.4247639468801461,-0.061087,-0.10833699697373884,-0.9554246083098173,0.0,-0.019574603075124306,-0.019574603075124306,-0.8987699482132151,-0.024375793298788972,0.2553722926463189,0.0,-0.06377411098106242,-0.06377411098106242,0.10687103338770644,0.05422770931744476,0.9293047665313531,0.0,0.3493782663575734,-0.004365532766256272,0.30045283373014015,0.35231679999999993,-0.0017376000000000017,0.3,0.0431898643247087,0.006844585157329932,-0.00448421018928814,True,True,True,False,True,False,0
1.440314149,1772663221.0094926,-0.008994880132377148,0.5920283794403076,1.604459524154663,-0.010929613374173641,1.042387843132019,-0.18695390224456787,0.014141385443508625,-0.008902567438781261,-0.014791958034038544,4.0939474033052647e-16,1.0785023819043118e-15,1.2133151928772406e-15,-0.4251554389416486,-0.4251554389416486,-0.061087,-0.10882451283971462,-0.950317162456891,0.0,-0.02082146746767534,-0.02082146746767534,-0.8965167118566385,-0.023325315031823585,0.2740210715451441,0.0,-0.06234321962755232,-0.06234321962755232,0.11266181782883082,0.052523913348269925,0.9324389449412702,0.0,0.3493782663575734,-0.004365532766256272,0.30045283373014015,0.352635532424,-0.001976649317999999,0.3,0.05310849159142377,0.007192069658702314,-0.00448421492111283,True,True,True,False,True,False,0
1.460380871,1772663221.0295594,-0.008994880132377148,0.5920283794403076,1.604459524154663,-0.010929613374173641,1.042387843132019,-0.18695390224456787,0.014141385443508625,-0.008902567438781261,-0.014791958034038544,4.0939474033052647e-16,1.0785023819043118e-15,1.2133151928772406e-15,-0.4255718682910021,-0.4255718682910021,-0.061087,-0.10929101914035108,-0.9448367410259881,0.0,-0.02203232866000697,-0.02203232866000697,-0.8941459368547388,-0.02231019021082714,0.2926675466516668,0.0,-0.06054305961658146,-0.06054305961658146,0.11853875009498738,0.05075624104982214,0.932323755326133,0.0,0.34896457058326935,-0.0037245404532426883,0.30035545948663356,0.352977351168,-0.002233013375999999,0.3,0.062164161774464564,-0.0029068878014335293,-0.003510472486046959,True,True,True,False,True,False,0
1.480401627,1772663221.04958,-0.008994880132377148,0.5920283794403076,1.604459524154663,-0.010929613374173641,1.042387843132019,-0.18695390224456787,0.014141385443508625,-0.008902567438781261,-0.014791958034038544,4.0939474033052647e-16,1.0785023819043118e-15,1.2133151928772406e-15,-0.4260125148642022,-0.4260125148642022,-0.061087,-0.10973722294456763,-0.9389833900929548,0.0,-0.023200214498786696,-0.023200214498786696,-0.8916562082624938,-0.021331481850889067,0.3112495924041995,0.0,-0.058394291938986286,-0.058394291938986286,0.1244864296122471,0.048935417996903666,0.9291022876266367,0.0,0.34896457058326935,-0.0037245404532426883,0.30035545948663356,0.35334222623199996,-0.002506669674,0.3,0.06730883541446415,-0.006765393031433532,-0.003510472486046959,True,True,True,False,True,False,0
1.500384347,1772663221.069563,-0.008994880132377148,0.5920283794403076,1.604459524154663,-0.010929613374173641,1.042387843132019,-0.18695390224456787,0.014141385443508625,-0.008902567438781261,-0.014791958034038544,4.0939474033052647e-16,1.0785023819043118e-15,1.2133151928772406e-15,-0.42647651915417795,-0.42647651915417795,-0.061087,-0.11016385258158541,-0.9327583982448708,0.0,-0.02431859548562799,-0.02431859548562799,-0.8890464334157201,-0.020390023417914238,0.329707929823715,0.0,-0.055919049342064694,-0.055919049342064694,0.13048874233868568,0.0470729216487414,0.9229168709757727,0.0,0.34896457058326935,-0.0037245404532426883,0.30035545948663356,0.353730046976,-0.002797535232,0.3,0.07267321585446482,-0.010788678361433534,-0.003510472486046959,True,True,True,False,True,False,0
1.520276053,1772663221.0894547,-0.008994880132377148,0.5920283794403076,1.604459524154663,-0.010929613374173641,1.042387843132019,-0.18695390224456787,0.014141385443508625,-0.008902567438781261,-0.014791958034038544,4.0939474033052647e-16,1.0785023819043118e-15,1.2133151928772406e-15,-0.4269628910638905,-0.4269628910638905,-0.061087,-0.1105716530499437,-0.9261642396483966,0.0,-0.025381411741512427,-0.025381411741512427,-0.8863158483772287,-0.019486442805450893,0.3479861172867861,0.0,-0.05314081279422177,-0.05314081279422177,0.13652925192457188,0.04517903062316721,0.9139093731535534,0.0,0.34896457058326935,-0.0037245404532426883,0.30035545948663356,0.354140625,-0.00310546875,0.3,0.07825045829446445,-0.014971610191433539,-0.003510472486046959,True,True,True,False,True,False,0
1.540494184,1772663221.1096728,-0.008780122734606266,0.597930371761322,1.6132702827453613,-0.010929613374173641,1.042387843132019,-0.18695390224456787,0.0017120321281254292,0.07772625982761383,0.1158018559217453,4.0939474033052647e-16,1.0785023819043118e-15,1.2133151928772406e-15,-0.42747051929872076,-0.42747051929872076,-0.061087,-0.11096138190605272,-0.9192045173026608,0.0,-0.026383095763763298,-0.026383095763763298,-0.8834640372451825,-0.018621142931552176,0.36603050990610947,0.0,-0.05008420111254348,-0.05008420111254348,0.14259055660230655,0.04326499369493582,0.9022196309661688,0.0,0.34896457058326935,-0.0037245404532426883,0.30035545948663356,0.354573697024,-0.0034302727680000002,0.3,0.09977501820464148,-0.008443762395810427,-0.004004385963482478,True,True,True,False,True,False,0
1.560293722,1772663221.1294723,-0.008780122734606266,0.597930371761322,1.6132702827453613,-0.010929613374173641,1.042387843132019,-0.18695390224456787,0.0017120321281254292,0.07772625982761383,0.1158018559217453,4.0939474033052647e-16,1.0785023819043118e-15,1.2133151928772406e-15,-0.427998181213996,-0.427998181213996,-0.061087,-0.11133380476468376,-0.9118839071045386,0.0,-0.02731859198576396,-0.02731859198576396,-0.8804909393657112,-0.01779433464300835,0.38379022424342457,0.0,-0.04677481110003305,-0.04677481110003305,0.14865489397356532,0.04134041442719127,0.8879857168657543,0.0,0.35026068841437585,-0.003660940104071147,0.30038379464118625,0.355028927768,-0.003771695826,0.3,0.09279405433357647,-0.013564926717525835,-0.004287737509009422,True,True,True,False,True,False,0
1.580382612,1772663221.1495612,-0.008780122734606266,0.597930371761322,1.6132702827453613,-0.010929613374173641,1.042387843132019,-0.18695390224456787,0.0017120321281254292,0.07772625982761383,0.1158018559217453,4.0939474033052647e-16,1.0785023819043118e-15,1.2133151928772406e-15,-0.4285445530537113,-0.4285445530537113,-0.061087,-0.11168969145754393,-0.9042081026196701,0.0,-0.028183372088843667,-0.028183372088843667,-0.877396866241794,-0.01700601654683717,0.40121708310218546,0.0,-0.04323900515398531,-0.04323900515398531,0.1547036561958591,0.03941590480855888,0.8713429429380435,0.0,0.35026068841437585,-0.003660940104071147,0.30038379464118625,0.35550591283199995,-0.0041294346240000005,0.3,0.09896334197357605,-0.018191892447525837,-0.004287737509009422,True,True,True,False,True,False,0
1.600392665,1772663221.1695712,-0.008780122734606266,0.597930371761322,1.6132702827453613,-0.010929613374173641,1.042387843132019,-0.18695390224456787,0.0017120321281254292,0.07772625982761383,0.1158018559217453,4.0939474033052647e-16,1.0785023819043118e-15,1.2133151928772406e-15,-0.4291082204954882,-0.4291082204954882,-0.061087,-0.11202981178848068,-0.8961837609576264,0.0,-0.02897344647546797,-0.02897344647546797,-0.874182511256566,-0.016255999928720746,0.4182655488366588,0.0,-0.03950371933121515,-0.03950371933121515,0.1607177492614019,0.03750083090582123,0.8524232867236656,0.0,0.35026068841437585,-0.003660940104071147,0.30038379464118625,0.35600418157599995,-0.0045031361820000015,0.3,0.10531278441357603,-0.02295397427752585,-0.004287737509009422,True,True,True,False,True,False,0
1.620261257,1772663221.1894398,-0.008780122734606266,0.597930371761322,1.6132702827453613,-0.010929613374173641,1.042387843132019,-0.18695390224456787,0.0017120321281254292,0.07772625982761383,0.1158018559217453,4.0939474033052647e-16,1.0785023819043118e-15,1.2133151928772406e-15,-0.4296876894249976,-0.4296876894249976,-0.061087,-0.11235493178705509,-0.8878184499808932,0.0,-0.029685371769192025,-0.029685371769192025,-0.8708489612883473,-0.01554391694395027,0.4348926535559539,0.0,-0.035596264686202674,-0.035596264686202674,0.16667749841093302,0.03560414923852378,0.8313552359647556,0.0,0.35026068841437585,-0.003660940104071147,0.30038379464118625,0.3565232,-0.004892400000000001,0.3,0.11183301685357641,-0.027844148607525845,-0.004287737509009422,True,True,True,False,True,False,0
1.640582916,1772663221.2097616,-0.008638229221105576,0.6074007749557495,1.6268556118011475,-0.010929613374173641,1.0463826656341553,-0.18695390224456787,-7.119800553803842e-16,0.09607924520969391,0.13778434693813324,4.0939474033052647e-16,0.049934271723032,1.2133151928772406e-15,-0.4302813968603814,-0.4302813968603814,-0.061087,-0.1126658101259341,-0.8791205969097742,0.0,-0.030316254980246024,-0.030316254980246024,-0.867397707081867,-0.014869229228672384,0.45105790064640094,0.0,-0.03154416055269994,-0.03154416055269994,0.17256271032401443,0.03373438576389426,0.808262354522351,0.0,0.35026068841437585,-0.003660940104071147,0.30038379464118625,0.35706237362399995,-0.005296780218000003,0.3,0.1207816067736322,-0.02987717100650654,-0.004096430347785365,True,True,True,False,True,False,0
1.660312986,1772663221.2294915,-0.008638229221105576,0.6074007749557495,1.6268556118011475,-0.010929613374173641,1.0463826656341553,-0.18695390224456787,-7.119800553803842e-16,0.09607924520969391,0.13778434693813324,4.0939474033052647e-16,0.049934271723032,1.2133151928772406e-15,-0.4308877219599863,-0.4308877219599863,-0.061087,-0.11296319471050754,-0.8700994388968462,0.0,-0.030863752930402236,-0.030863752930402236,-0.8638306514688863,-0.014231242514513506,0.4667231870538282,0.0,-0.027374897507810556,-0.027374897507810556,0.17835278064903798,0.03189933570794387,0.7832643203713623,0.0,0.35201827168551875,-0.0036277473356217697,0.3002938483978218,0.35762105036799996,-0.005715787776000002,0.3,0.11003785050220337,-0.03533315602100031,-0.003196967914140894,True,True,True,False,True,False,0
1.680296355,1772663221.2494748,-0.008638229221105576,0.6074007749557495,1.6268556118011475,-0.010929613374173641,1.0463826656341553,-0.18695390224456787,-7.119800553803842e-16,0.09607924520969391,0.13778434693813324,4.0939474033052647e-16,0.049934271723032,1.2133151928772406e-15,-0.43150499701859435,-0.43150499701859435,-0.061087,-0.11324781956079781,-0.8607649751557696,0.0,-0.03132606924058425,-0.03132606924058425,-0.8601501161538563,-0.013629125055165503,0.48185268980196183,0.0,-0.023115815509100794,-0.023115815509100794,0.18402676575149918,0.030105872967400138,0.7564751374066807,0.0,0.35201827168551875,-0.0036277473356217697,0.3002938483978218,0.35819852343200004,-0.006148892574000004,0.3,0.11701023214220413,-0.040562442251000336,-0.003196967914140894,True,True,True,False,True,False,0
1.700403524,1772663221.269582,-0.008638229221105576,0.6074007749557495,1.6268556118011475,-0.010929613374173641,1.0463826656341553,-0.18695390224456787,-7.119800553803842e-16,0.09607924520969391,0.13778434693813324,4.0939474033052647e-16,0.049934271723032,1.2133151928772406e-15,-0.432131518403406,-0.432131518403406,-0.061087,-0.11352040206190112,-0.8511279213597304,0.0,-0.031701947357188454,-0.031701947357188454,-0.8563588463393289,-0.013061922117901165,0.496412762216313,0.0,-0.01879390583021027,-0.01879390583021027,0.18956349072637074,0.028360146863217205,0.7280036207175646,0.0,0.35201827168551875,-0.0036277473356217697,0.3002938483978218,0.358794034176,-0.006595525631999999,0.3,0.1241120565822035,-0.04588881058100026,-0.003196967914140894,True,True,True,False,True,False,0
1.720297694,1772663221.2894762,-0.008638229221105576,0.6074007749557495,1.6268556118011475,-0.010929613374173641,1.0463826656341553,-0.18695390224456787,-7.119800553803842e-16,0.09607924520969391,0.13778434693813324,4.0939474033052647e-16,0.049934271723032,1.2133151928772406e-15,-0.4327655573505498,-0.4327655573505498,-0.061087,-0.11378164050425914,-0.8411996661154041,0.0,-0.03199066049619255,-0.03199066049619255,-0.8524600146609527,-0.012528573917610988,0.5103718285586231,0.0,-0.014435656950204783,-0.014435656950204783,0.1949415839188116,0.02666741001450879,0.6979533171155038,0.0,0.35201827168551875,-0.0036277473356217697,0.3002938483978218,0.359406775,-0.0070550812499999985,0.3,0.13133215902220385,-0.05130388741100027,-0.003196967914140894,True,True,True,False,True,False,0
1.740308383,1772663221.3094869,-0.008638229221105576,0.6074007749557495,1.6268556118011475,-0.010929613374173641,1.0463826656341553,-0.18695390224456787,-7.119800553803842e-16,0.09607924520969391,0.13778434693813324,4.0939474033052647e-16,0.049934271723032,1.2133151928772406e-15,-0.4334053705604736,-0.4334053705604736,-0.061087,-0.11403221198261136,-0.8309922295442316,0.0,-0.03219199922346132,-0.03219199922346132,-0.8484572198749211,-0.012027938586555736,0.5237002615894081,0.0,-0.010066936363438408,-0.010066936363438408,0.20013973930158008,0.025031766552762576,0.6664216515392501,0.0,0.35201827168551875,-0.0036277473356217697,0.3002938483978218,0.36003589222399995,-0.007526919168,0.3,0.13865910106220328,-0.05679909394100028,-0.003196967914140894,True,True,True,False,True,False,0
1.760356071,1772663221.3295345,-0.010185632854700089,0.6211299300193787,1.6470696926116943,-0.010929613374173641,1.0533335208892822,-0.18695390224456787,-0.019893813878297806,0.15004248917102814,0.22116030752658844,4.0939474033052647e-16,0.07418806105852127,1.2133151928772406e-15,-0.43404921054494283,-0.43404921054494283,-0.061087,-0.11427277075434247,-0.8205182243124434,0.0,-0.032306255353954,-0.032306255353954,-0.8443544871976583,-0.011558808794403408,0.5363702695521163,0.0,-0.005712806524633957,-0.005712806524633957,0.20513663386313977,0.023456489607616406,0.6335003981354109,0.0,0.35451664512455827,-0.00420026910537054,0.3002642943634562,0.360680488968,-0.008010366726,0.3,0.1295954539620368,-0.049333398355124305,-0.0035807002441222797,True,True,True,False,True,False,0
1.780281272,1772663221.3494596,-0.010185632854700089,0.6211299300193787,1.6470696926116943,-0.010929613374173641,1.0533335208892822,-0.18695390224456787,-0.019893813878297806,0.15004248917102814,0.22116030752658844,4.0939474033052647e-16,0.07418806105852127,1.2133151928772406e-15,-0.4346953356520219,-0.4346953356520219,-0.061087,-0.11450394693023054,-0.809790818921401,0.0,-0.0323342049877291,-0.0323342049877291,-0.840156260674501,-0.011119939453458058,0.5483557905491255,0.0,-0.0013974816887550577,-0.0013974816887550577,0.20991132615786315,0.02194346704726747,0.5992760498504607,0.0,0.35451664512455827,-0.00420026910537054,0.3002642943634562,0.361339628032,-0.008504721024000001,0.3,0.1371008096020368,-0.054962415085124325,-0.0035807002441222797,True,True,True,False,True,False,0
1.800323045,1772663221.3695014,-0.010185632854700089,0.6211299300193787,1.6470696926116943,-0.010929613374173641,1.0533335208892822,-0.18695390224456787,-0.019893813878297806,0.15004248917102814,0.22116030752658844,4.0939474033052647e-16,0.07418806105852127,1.2133151928772406e-15,-0.4353420197517765,-0.4353420197517765,-0.061087,-0.1147263457192997,-0.7988237031104185,0.0,-0.03227708809223597,-0.03227708809223597,-0.8358673990089084,-0.010710062183247368,0.5596323729720815,0.0,0.0028558447746563466,0.0028558447746563466,0.2144430832796305,0.020493863510534487,0.5638291211477958,0.0,0.35451664512455827,-0.00420026910537054,0.3002642943634562,0.362012334776,-0.009009251082,0.3,0.14467733604203678,-0.06064480991512433,-0.0035807002441222797,True,True,True,False,True,False,0
1.82042302,1772663221.3896015,-0.010185632854700089,0.6211299300193787,1.6470696926116943,-0.010929613374173641,1.0533335208892822,-0.18695390224456787,-0.019893813878297806,0.15004248917102814,0.22116030752658844,4.0939474033052647e-16,0.07418806105852127,1.2133151928772406e-15,-0.4359875615136212,-0.4359875615136212,-0.061087,-0.11494054696296464,-0.7876310556509769,0.0,-0.03213658699355634,-0.03213658699355634,-0.8314931636698306,-0.010327917838795081,0.5701770731541249,0.0,0.007025054933981403,0.007025054933981403,0.2187117669538883,0.019107217222614336,0.5272350091021722,0.0,0.35451664512455827,-0.00420026910537054,0.3002642943634562,0.3626976,-0.009523200000000004,0.3,0.15231278848203708,-0.06637139924512436,-0.0035807002441222797,True,True,True,False,True,False,0
1.840764424,1772663221.409943,-0.01251153089106083,0.6384083032608032,1.6728425025939941,-0.010929613374173641,1.0602043867111206,-0.18695390224456787,-0.025783203542232513,0.16668345034122467,0.25129207968711853,4.0939474033052647e-16,0.06562789529561996,1.2133151928772406e-15,-0.43663029325349234,-0.43663029325349234,-0.061087,-0.11514710531974054,-0.7762275141878944,0.0,-0.031914803189827354,-0.031914803189827354,-0.827039206605439,-0.009972270066902017,0.5799683510892184,0.0,0.011089190186449455,0.011089190186449455,0.22269785321958316,0.01778238859465318,0.48956389675467404,0.0,0.35451664512455827,-0.00420026910537054,0.3002642943634562,0.36339438282399994,-0.010045787117999999,0.3,0.16263377255477413,-0.06923213287432076,-0.004552396319835593,True,True,True,False,True,False,0
1.860366706,1772663221.4295452,-0.01251153089106083,0.6384083032608032,1.6728425025939941,-0.010929613374173641,1.0602043867111206,-0.18695390224456787,-0.025783203542232513,0.16668345034122467,0.25129207968711853,4.0939474033052647e-16,0.06562789529561996,1.2133151928772406e-15,-0.4372685893172889,-0.4372685893172889,-0.061087,-0.11534655072107858,-0.76462814716611,0.0,-0.031614232409953855,-0.031614232409953855,-0.8225115552724697,-0.009641934761853502,0.5889859754899298,0.0,0.015028538993674942,0.015028538993674942,0.22638256664846404,0.01651676525242575,0.45088122003557013,0.0,0.3577639903531268,-0.005067820505600947,0.30026238968815283,0.36410161356799997,-0.010576210176,0.3,0.13787640070908935,-0.06634367920201668,-0.004533349566801935,True,True,True,False,True,False,0
1.880234754,1772663221.4494133,-0.01251153089106083,0.6384083032608032,1.6728425025939941,-0.010929613374173641,1.0602043867111206,-0.18695390224456787,-0.025783203542232513,0.16668345034122467,0.25129207968711853,4.0939474033052647e-16,0.06562789529561996,1.2133151928772406e-15,-0.437900873965488,-0.437900873965488,-0.061087,-0.11553938941631565,-0.7528484276563114,0.0,-0.031237739050686913,-0.031237739050686913,-0.8179165934202443,-0.009335800484034179,0.5972109478451786,0.0,0.01882466796334704,0.01882466796334704,0.2297480926112703,0.01530671389096612,0.4112486177624382,0.0,0.3577639903531268,-0.005067820505600947,0.30026238968815283,0.364818196632,-0.011113647474,0.3,0.14561401034908952,-0.07214688643201668,-0.004533349566801935,True,True,True,False,True,False,0
1.900356326,1772663221.4695346,-0.01251153089106083,0.6384083032608032,1.6728425025939941,-0.010929613374173641,1.0602043867111206,-0.18695390224456787,-0.025783203542232513,0.16668345034122467,0.25129207968711853,4.0939474033052647e-16,0.06562789529561996,1.2133151928772406e-15,-0.43852562874650175,-0.43852562874650175,-0.061087,-0.11572610542599635,-0.7409042086994079,0.0,-0.030788529251568136,-0.030788529251568136,-0.8132610400725757,-0.009052849411968683,0.6046254106343408,0.0,0.022460489955938835,0.022460489955938835,0.23277766738342678,0.014147553603274786,0.37072313945811197,0.0,0.3577639903531268,-0.005067820505600947,0.30026238968815283,0.365543013376,-0.011657260032000004,0.3,0.1533605587890894,-0.07795679776201672,-0.004533349566801935,True,True,True,False,True,False,0
1.920238008,1772663221.4894164,-0.01251153089106083,0.6384083032608032,1.6728425025939941,-0.010929613374173641,1.0602043867111206,-0.18695390224456787,-0.025783203542232513,0.16668345034122467,0.25129207968711853,4.0939474033052647e-16,0.06562789529561996,1.2133151928772406e-15,-0.4391413993315331,-0.4391413993315331,-0.061087,-0.11590716241423572,-0.7288117004867211,0.0,-0.03027012320899461,-0.03027012320899461,-0.8085519262498828,-0.008792178034698034,0.6112125967873941,0.0,0.02592030212867633,0.02592030212867633,0.23545569113464482,0.013033568863532451,0.32935930765266547,0.0,0.3577639903531268,-0.005067820505600947,0.30026238968815283,0.366274925,-0.012206193750000004,0.3,0.16110344122908934,-0.08376395959201673,-0.004533349566801935,True,True,True,False,True,False,0
1.940293651,1772663221.5094724,-0.01251153089106083,0.6384083032608032,1.6728425025939941,-0.010929613374173641,1.0602043867111206,-0.18695390224456787,-0.025783203542232513,0.16668345034122467,0.25129207968711853,4.0939474033052647e-16,0.06562789529561996,1.2133151928772406e-15,-0.439746801795713,-0.439746801795713,-0.061087,-0.11608300597492968,-0.7165874485509733,0.0,-0.029686327190812642,-0.029686327190812642,-0.8037965683337337,-0.008553019396801129,0.6169567637970791,0.0,0.029189800909098666,0.029189800909098666,0.23776789580745825,0.01195793189484538,0.28720835048425003,0.0,0.3577639903531268,-0.005067820505600947,0.30026238968815283,0.36701277542399996,-0.012759581568,0.3,0.16883006726908922,-0.08955892912201666,-0.004533349566801935,True,True,True,False,True,False,0
1.960335708,1772663221.5295143,-0.016202671453356743,0.6551229357719421,1.6975817680358887,-0.011121360585093498,1.0672352313995361,-0.18791264295578003,-0.03858920559287071,0.1687721312046051,0.24868978559970856,-0.0034240642562508583,0.07561475038528442,-0.006848128512501717,-0.44034052833952925,-0.44034052833952925,-0.061087,-0.1162540663628657,-0.7042483132750318,0.0,-0.029041204821532426,-0.029041204821532426,-0.7990025395031393,-0.008334757364321169,0.6218431682287324,0.0,0.03225611846401075,0.03225611846401075,0.2397014415297214,0.01091310162399799,0.24432022158266653,0.0,0.3608003140193904,-0.006450638649875722,0.3001725405258898,0.36775539416799996,-0.013316545626000001,0.3,0.14459389899410158,-0.0815918581536697,-0.00413809254128613,True,True,True,False,True,False,0
1.980301912,1772663221.5494804,-0.016202671453356743,0.6551229357719421,1.6975817680358887,-0.011121360585093498,1.0672352313995361,-0.18791264295578003,-0.03858920559287071,0.1687721312046051,0.24868978559970856,-0.0034240642562508583,0.07561475038528442,-0.006848128512501717,-0.4409213524359599,-0.4409213524359599,-0.061087,-0.11642076151015213,-0.6918114499104572,0.0,-0.028339047668145687,-0.028339047668145687,-0.7941776393276216,-0.008136941451767146,0.6258580226607453,0.0,0.03510785766933693,0.03510785766933693,0.24124500877588084,0.009890795627701112,0.20074272160064394,0.0,0.3608003140193904,-0.006450638649875722,0.3001725405258898,0.36850159923199993,-0.013876199424,0.3,0.15225044263410134,-0.0873342658836697,-0.00413809254128613,True,True,True,False,True,False,0
2.000452677,1772663221.5696313,-0.016202671453356743,0.6551229357719421,1.6975817680358887,-0.011121360585093498,1.0672352313995361,-0.18791264295578003,-0.03858920559287071,0.1687721312046051,0.24868978559970856,-0.0034240642562508583,0.07561475038528442,-0.006848128512501717,-0.44148813338932286,-0.44148813338932286,-0.061087,-0.11658350033918748,-0.6792942894572422,0.0,-0.027584346444215063,-0.027584346444215063,-0.7893298592779961,-0.007959305636321523,0.6289885012873365,0.0,0.03773506119653117,0.03773506119653117,0.24238900248127448,0.008881790772281148,0.15652393132956063,0.0,0.3608003140193904,-0.006450638649875722,0.3001725405258898,0.369250199976,-0.014437649982000006,0.3,0.15985333307410202,-0.09303643371366975,-0.00413809254128613,True,True,True,False,True,False,0
2.020251539,1772663221.58943,-0.016202671453356743,0.6551229357719421,1.6975817680358887,-0.011121360585093498,1.0672352313995361,-0.18791264295578003,-0.03858920559287071,0.1687721312046051,0.24868978559970856,-0.0034240642562508583,0.07561475038528442,-0.006848128512501717,-0.44203982031820716,-0.44203982031820716,-0.061087,-0.11674268645191391,-0.6667145194314955,0.0,-0.026781761212179407,-0.026781761212179407,-0.7844673484395067,-0.007801773157208924,0.6312227331619853,0.0,0.04012926160178277,0.04012926160178277,0.24312554192447133,0.007876623955629929,0.11171159373243857,0.0,0.3608003140193904,-0.006450638649875722,0.3001725405258898,0.37,-0.015000000000000001,0.3,0.16739032551410193,-0.09868917804366971,-0.00413809254128613,True,True,True,False,True,False,0
2.040432884,1772663221.6096115,-0.020304152742028236,0.6746907830238342,1.7271300554275513,-0.01131310872733593,1.0776214599609375,-0.1902136206626892,-0.04399922490119934,0.20633411407470703,0.31015172600746155,-0.0034240642562508583,0.1084287017583847,-0.023968450725078583,-0.44257545554245076,-0.44257545554245076,-0.061087,-0.11689872191505808,-0.6540900647682558,0.0,-0.02593609168784984,-0.02593609168784984,-0.7795983784962638,-0.007664468105343769,0.6325498275072321,0.0,0.04228347621647827,0.04228347621647827,0.24344849716214623,0.0068652525932577585,0.06635471726234016,0.0,0.3608003140193904,-0.006450638649875722,0.3001725405258898,0.370749800024,-0.015562350018000009,0.3,0.1804935446264107,-0.09745056607732175,-0.005562311000197865,True,True,True,False,True,False,0
2.060257208,1772663221.6294355,-0.020304152742028236,0.6746907830238342,1.7271300554275513,-0.01131310872733593,1.0776214599609375,-0.1902136206626892,-0.04399922490119934,0.20633411407470703,0.31015172600746155,-0.0034240642562508583,0.1084287017583847,-0.023968450725078583,-0.44309417737620777,-0.44309417737620777,-0.061087,-0.11705201127716496,-0.6414390682181111,0.0,-0.025052248130680632,-0.025052248130680632,-0.7747313039236312,-0.007547719604812458,0.6329599090174395,0.0,0.0441921778584604,0.0441921778584604,0.24335372863162874,0.0058374250265655295,0.02050407551036913,0.0,0.3642106836393907,-0.008014172865162702,0.30015784397614637,0.371498400768,-0.016123800576,0.3,0.15375897286640797,-0.0873420672544519,-0.005415345502763328,True,True,True,False,True,False,0
2.080240604,1772663221.649419,-0.020304152742028236,0.6746907830238342,1.7271300554275513,-0.01131310872733593,1.0776214599609375,-0.1902136206626892,-0.04399922490119934,0.20633411407470703,0.31015172600746155,-0.0034240642562508583,0.1084287017583847,-0.023968450725078583,-0.44359522233882137,-0.44359522233882137,-0.061087,-0.11720296566926121,-0.6287798700377624,0.0,-0.02413522095628387,-0.02413522095628387,-0.7698745244653782,-0.0074520623121853286,0.6324441762038421,0.0,0.045851358719838045,0.045851358719838045,0.242838972912651,0.004782864631356488,-0.025786640679870108,0.0,0.3642106836393907,-0.008014172865162702,0.30015784397614637,0.372244605832,-0.016683454373999998,0.3,0.1610265305064077,-0.0927927354844519,-0.005415345502763328,True,True,True,False,True,False,0
2.100229981,1772663221.6694086,-0.020304152742028236,0.6746907830238342,1.7271300554275513,-0.01131310872733593,1.0776214599609375,-0.1902136206626892,-0.04399922490119934,0.20633411407470703,0.31015172600746155,-0.0034240642562508583,0.1084287017583847,-0.023968450725078583,-0.44407792675794705,-0.44407792675794705,-0.061087,-0.11735200691550492,-0.6161309865136855,0.0,-0.0231900522010332,-0.0231900522010332,-0.7650364453779155,-0.007378234849251472,0.6309949709850864,0.0,0.047258437762533495,0.047258437762533495,0.24190395437313472,0.003691373146692819,-0.07246026093778439,0.0,0.3642106836393907,-0.008014172865162702,0.30015784397614637,0.372987224576,-0.017240418432,0.3,0.1681810829464077,-0.09815864981445188,-0.005415345502763328,True,True,True,False,True,False,0
2.120347989,1772663221.6895266,-0.020304152742028236,0.6746907830238342,1.7271300554275513,-0.01131310872733593,1.0776214599609375,-0.1902136206626892,-0.04399922490119934,0.20633411407470703,0.31015172600746155,-0.0034240642562508583,0.1084287017583847,-0.023968450725078583,-0.4445417278019677,-0.4445417278019677,-0.061087,-0.11749957161248994,-0.6035110870939837,0.0,-0.02222180503030395,-0.02222180503030395,-0.7602254382670988,-0.007327173044661253,0.6286058713322956,0.0,0.04841235853646239,0.04841235853646239,0.24055035554083593,0.0025530902295109437,-0.11945498263953847,0.0,0.3642106836393907,-0.008014172865162702,0.30015784397614637,0.373725075,-0.01779380625000001,0.3,0.17521146538640806,-0.10343143664445197,-0.005415345502763328,True,True,True,False,True,False,0
2.140488092,1772663221.7096665,-0.024835148826241493,0.6926191449165344,1.7542182207107544,-0.011696603149175644,1.0852115154266357,-0.1925145834684372,-0.04444435238838196,0.17630507051944733,0.27118587493896484,-0.006848128512501717,0.09130837768316269,-0.023968450725078583,-0.4449861639025738,-0.4449861639025738,-0.061087,-0.11764611507338317,-0.5909389696673378,0.0,-0.021235535227882123,-0.021235535227882123,-0.7554498001190466,-0.007300002234810907,0.6252717998259962,0.0,0.049313490121091375,0.049313490121091375,0.2387819074026074,0.0013585404925173226,-0.16670357531496913,0.0,0.3642106836393907,-0.008014172865162702,0.30015784397614637,0.37445698662399995,-0.018342739968000003,0.3,0.17677755051427713,-0.11254904716142769,-0.005689904589690429,True,True,True,False,True,False,0
2.160260121,1772663221.7294388,-0.024835148826241493,0.6926191449165344,1.7542182207107544,-0.011696603149175644,1.0852115154266357,-0.1925145834684372,-0.04444435238838196,0.17630507051944733,0.27118587493896484,-0.006848128512501717,0.09130837768316269,-0.023968450725078583,-0.4454108746071314,-0.4454108746071314,-0.061087,-0.11779211511807938,-0.5784335336708178,0.0,-0.02023626195490043,-0.02023626195490043,-0.7507177154237621,-0.007298019257231683,0.6209891484052731,0.0,0.04996366364908452,0.04996366364908452,0.23660423476422587,9.914887896117489e-05,-0.21413257103615727,0.0,0.36738047480519964,-0.009767702219612151,0.3000959645431402,0.37518180336799994,-0.018886352526,0.3,0.15182942529618754,-0.10007609344693322,-0.0050711102596286955,True,True,True,False,True,False,0
2.180252462,1772663221.7494311,-0.024835148826241493,0.6926191449165344,1.7542182207107544,-0.011696603149175644,1.0852115154266357,-0.1925145834684372,-0.04444435238838196,0.17630507051944733,0.27118587493896484,-0.006848128512501717,0.09130837768316269,-0.023968450725078583,-0.4458155998462294,-0.4458155998462294,-0.061087,-0.11793807550322402,-0.5660137507027124,0.0,-0.019228938853882237,-0.019228938853882237,-0.7460372160676346,-0.007322679486922126,0.6157559273725521,0.0,0.050366155050909696,0.050366155050909696,0.23402496780637308,-0.0012330114845221496,-0.26166105163604714,0.0,0.36738047480519964,-0.009767702219612151,0.3000959645431402,0.37589838643199996,-0.019423789824000004,0.3,0.15842347693618772,-0.10502163217693325,-0.0050711102596286955,True,True,True,False,True,False,0
2.200312139,1772663221.7694907,-0.024835148826241493,0.6926191449165344,1.7542182207107544,-0.011696603149175644,1.0852115154266357,-0.1925145834684372,-0.04444435238838196,0.17630507051944733,0.27118587493896484,-0.006848128512501717,0.09130837768316269,-0.023968450725078583,-0.4462001786233071,-0.4462001786233071,-0.061087,-0.11808452909296246,-0.5536986321552614,0.0,-0.01821842531016625,-0.01821842531016625,-0.7414161456319046,-0.007375567818301593,0.6095719234002165,0.0,0.050525677185799284,0.050525677185799284,0.23105352178650043,-0.0026444165689733213,-0.3092001986167822,0.0,0.36738047480519964,-0.009767702219612151,0.3000959645431402,0.37660561717599994,-0.019954212882000003,0.3,0.16485201137618744,-0.10984303300693318,-0.0050711102596286955,True,True,True,False,True,False,0
2.220313362,1772663221.789492,-0.024835148826241493,0.6926191449165344,1.7542182207107544,-0.011696603149175644,1.0852115154266357,-0.1925145834684372,-0.04444435238838196,0.17630507051944733,0.27118587493896484,-0.006848128512501717,0.09130837768316269,-0.023968450725078583,-0.4465645471295104,-0.4465645471295104,-0.061087,-0.1182320404493285,-0.5415071936872571,0.0,-0.01720945887400653,-0.01720945887400653,-0.7368621214384348,-0.007458377573518193,0.6024388800366433,0.0,0.05044832180798593,0.05044832180798593,0.22770120967349186,-0.004140487760830033,-0.3566521681786613,0.0,0.36738047480519964,-0.009767702219612151,0.3000959645431402,0.37730240000000004,-0.020476800000000003,0.3,0.1711056638161884,-0.11453327233693322,-0.0050711102596286955,True,True,True,False,True,False,0
2.240343,1772663221.8095214,-0.029569396749138832,0.7127469182014465,1.784859538078308,-0.011696603149175644,1.0956777334213257,-0.1961577981710434,-0.047457531094551086,0.2069161981344223,0.31337034702301025,4.0939474033052647e-16,0.1084287017583847,-0.0410887710750103,-0.4469087363069905,-0.4469087363069905,-0.061087,-0.11838120800079886,-0.5294584160865242,0.0,-0.016206627162111846,-0.016206627162111846,-0.7323825016080302,-0.007572875459502262,0.5943606919858286,0.0,0.050141585594734195,0.050141585594734195,0.22398099152022824,-0.005724894299203443,-0.4039094025407305,0.0,0.36738047480519964,-0.009767702219612151,0.3000959645431402,0.377987665224,-0.020990748918000006,0.3,0.18102395869689625,-0.11354297972746771,-0.00674084641277168,True,True,True,False,True,False,0
2.260282266,1772663221.8294606,-0.029569396749138832,0.7127469182014465,1.784859538078308,-0.011696603149175644,1.0956777334213257,-0.1961577981710434,-0.047457531094551086,0.2069161981344223,0.31337034702301025,4.0939474033052647e-16,0.1084287017583847,-0.0410887710750103,-0.4472328688502328,-0.4472328688502328,-0.061087,-0.11853266550998891,-0.5175712022468076,0.0,-0.01521434098263396,-0.01521434098263396,-0.7279843518968866,-0.007720869122324239,0.5853436127641838,0.0,0.04961430897389425,0.04961430897389425,0.21990748555718012,-0.007399683141098838,-0.45085396108224224,0.0,0.37076097162894334,-0.011611785666349302,0.3000289509756561,0.378660371968,-0.021495278976000013,0.3,0.15309659889945923,-0.09951035159009629,-0.006070710737930481,True,True,True,False,True,False,0
2.280285429,1772663221.8494642,-0.029569396749138832,0.7127469182014465,1.784859538078308,-0.011696603149175644,1.0956777334213257,-0.1961577981710434,-0.047457531094551086,0.2069161981344223,0.31337034702301025,4.0939474033052647e-16,0.1084287017583847,-0.0410887710750103,-0.44753715566988544,-0.44753715566988544,-0.061087,-0.11868708289243539,-0.505864329991524,0.0,-0.014236808049631178,-0.014236808049631178,-0.7236744168662763,-0.007904165360538118,0.5753964774364698,0.0,0.04887664665013908,0.04887664665013908,0.21549675153051376,-0.009164811910693923,-0.4973567663856977,0.0,0.37076097162894334,-0.011611785666349302,0.3000289509756561,0.379319511032,-0.021989633274000015,0.3,0.1587740245394592,-0.10376842082009631,-0.006070710737930481,True,True,True,False,True,False,0
2.30033307,1772663221.8695116,-0.029569396749138832,0.7127469182014465,1.784859538078308,-0.011696603149175644,1.0956777334213257,-0.1961577981710434,-0.047457531094551086,0.2069161981344223,0.31337034702301025,4.0939474033052647e-16,0.1084287017583847,-0.0410887710750103,-0.44782189183087806,-0.44782189183087806,-0.061087,-0.11884516619964615,-0.49435640044279455,0.0,-0.013278007638426955,-0.013278007638426955,-0.7194590908305334,-0.008124531320281694,0.5645309311104918,0.0,0.04794002056021109,0.04794002056021109,0.2107663017871462,-0.01101829798717881,-0.5432773162989009,0.0,0.37076097162894334,-0.011611785666349302,0.3000289509756561,0.379964107776,-0.022473080832000003,0.3,0.16424386097945903,-0.10787079815009616,-0.006070710737930481,True,True,True,False,True,False,0
2.320253539,1772663221.889432,-0.029569396749138832,0.7127469182014465,1.784859538078308,-0.011696603149175644,1.0956777334213257,-0.1961577981710434,-0.047457531094551086,0.2069161981344223,0.31337034702301025,4.0939474033052647e-16,0.1084287017583847,-0.0410887710750103,-0.4480874519836466,-0.4480874519836466,-0.061087,-0.11900765682605179,-0.4830657818205847,0.0,-0.012341666212957968,-0.012341666212957968,-0.7153443941372445,-0.008383645372316978,0.5527616705949215,0.0,0.04681707127344929,0.04681707127344929,0.20573483466444478,-0.012955702601764168,-0.5884630257785123,0.0,0.37076097162894334,-0.011611785666349302,0.3000289509756561,0.3805932249999999,-0.022944918750000008,0.3,0.16949926341945837,-0.11181234998009616,-0.006070710737930481,True,True,True,False,True,False,0
2.340157997,1772663221.9093366,-0.034113816916942596,0.7305717468261719,1.8122659921646118,-0.011696603149175644,1.104625940322876,-0.19750002026557922,-0.044307392090559006,0.17445607483386993,0.2722131013870239,4.0939474033052647e-16,0.10414861887693405,-0.017120322212576866,-0.44833428530790576,-0.44833428530790576,-0.061087,-0.11917532973349812,-0.4720105484086865,0.0,-0.011431234439550481,-0.011431234439550481,-0.7113359524451832,-0.00868304917947088,0.5401066956775353,0.0,0.045521588670375326,0.045521588670375326,0.20042208460306782,-0.014970190357695465,-0.6327487458693238,0.0,0.37076097162894334,-0.011611785666349302,0.3000289509756561,0.38120596582399996,-0.023404474368000007,0.3,0.16929672748555646,-0.11963576025488858,-0.006001024019097697,True,True,True,False,True,False,0
2.360357302,1772663221.9295356,-0.034113816916942596,0.7305717468261719,1.8122659921646118,-0.011696603149175644,1.104625940322876,-0.19750002026557922,-0.044307392090559006,0.17445607483386993,0.2722131013870239,4.0939474033052647e-16,0.10414861887693405,-0.017120322212576866,-0.4485629099966968,-0.4485629099966968,-0.061087,-0.11934899071708754,-0.4612084144951358,0.0,-0.010549865997658819,-0.010549865997658819,-0.7074389766255065,-0.009024097696979691,0.5265875443377221,0.0,0.04406842209458309,0.04406842209458309,0.19484879098383684,-0.017052425875440494,-0.6759575669906587,0.0,0.373720857092918,-0.013402389445270682,0.2999860115009107,0.381801476568,-0.023851107426,0.3,0.14450626328581023,-0.10533601529567468,-0.00557162927164396,True,True,True,False,True,False,0
2.38033076,1772663221.9495094,-0.034113816916942596,0.7305717468261719,1.8122659921646118,-0.011696603149175644,1.104625940322876,-0.19750002026557922,-0.044307392090559006,0.17445607483386993,0.2722131013870239,4.0939474033052647e-16,0.10414861887693405,-0.017120322212576866,-0.44877390731664996,-0.44877390731664996,-0.061087,-0.11952947267102713,-0.4506766636083813,0.0,-0.009700397775601551,-0.009700397775601551,-0.7036582456086282,-0.00940790718484974,0.5122295535051019,0.0,0.04247341110286334,0.04247341110286334,0.18903655084391274,-0.01919047439350242,-0.7178995416310112,0.0,0.373720857092918,-0.013402389445270682,0.2999860115009107,0.382378949632,-0.02428421222400001,0.3,0.14908334292580983,-0.10876882502567475,-0.00557162927164396,True,True,True,False,True,False,0
2.400372832,1772663221.9695513,-0.034113816916942596,0.7305717468261719,1.8122659921646118,-0.011696603149175644,1.104625940322876,-0.19750002026557922,-0.044307392090559006,0.17445607483386993,0.2722131013870239,4.0939474033052647e-16,0.10414861887693405,-0.017120322212576866,-0.448967915272162,-0.448967915272162,-0.061087,-0.11971763081472413,-0.44043207253827926,0.0,-0.00888533272454909,-0.00888533272454909,-0.6999980965571786,-0.009835298823035743,0.49706209115722144,0.0,0.04075325255262302,0.04075325255262302,0.18300745257248102,-0.021369581909300144,-0.7583731173940227,0.0,0.373720857092918,-0.013402389445270682,0.2999860115009107,0.38293762637599993,-0.02470321978200001,0.3,0.1534248013658094,-0.11202491885567475,-0.00557162927164396,True,True,True,False,True,False,0
2.420400436,1772663221.989579,-0.034113816916942596,0.7305717468261719,1.8122659921646118,-0.011696603149175644,1.104625940322876,-0.19750002026557922,-0.044307392090559006,0.17445607483386993,0.2722131013870239,4.0939474033052647e-16,0.10414861887693405,-0.017120322212576866,-0.44914562192665297,-0.44914562192665297,-0.061087,-0.11991433679118484,-0.43049083071513483,0.0,-0.008106825029617584,-0.008106825029617584,-0.6964624119420415,-0.010306748509006397,0.4811187910004192,0.0,0.03892538474657526,0.03892538474657526,0.1767842307568544,-0.023572484298532682,-0.7971650078401109,0.0,0.373720857092918,-0.013402389445270682,0.2999860115009107,0.38347679999999995,-0.02510759999999999,0.3,0.15752703380580965,-0.11510159318567462,-0.00557162927164396,True,True,True,False,True,False,0
2.440216919,1772663222.0093954,-0.03878286853432655,0.7488223314285278,1.8402342796325684,-0.011696603149175644,1.113893747329712,-0.2003762423992157,-0.04252687841653824,0.18356408178806305,0.2794036567211151,4.0939474033052647e-16,0.10129523277282715,-0.023968450725078583,-0.4493077584272453,-0.4493077584272453,-0.061087,-0.12012047176136496,-0.4208684548951264,0.0,-0.007366668035211892,-0.007366668035211892,-0.6930546122456471,-0.010822331727108142,0.4644377703393213,0.0,0.037007849720284564,0.037007849720284564,0.17038998481971865,-0.025779160905087226,-0.8340510330548937,0.0,0.373720857092918,-0.013402389445270682,0.2999860115009107,0.38399581842399994,-0.025496863817999996,0.3,0.1616419229510192,-0.1162911502170014,-0.006574027943061233,True,True,True,False,True,False,0
2.460325532,1772663222.029504,-0.03878286853432655,0.7488223314285278,1.8402342796325684,-0.011696603149175644,1.113893747329712,-0.2003762423992157,-0.04252687841653824,0.18356408178806305,0.2794036567211151,4.0939474033052647e-16,0.10129523277282715,-0.023968450725078583,-0.4494550917879495,-0.4494550917879495,-0.061087,-0.12033691839590713,-0.41157969948834,0.0,-0.006666285424134581,-0.006666285424134581,-0.689777650894437,-0.011381672390365222,0.4470618320366727,0.0,0.03501913055386554,0.03501913055386554,0.16384806756050682,-0.02796703316285396,-0.8687969151324296,0.0,0.37666028808106716,-0.015266745457438223,0.2998736753499612,0.38449408716799993,-0.025870565376000014,0.3,0.13586354550952764,-0.10035953942532613,-0.00545066643356602,True,True,True,False,True,False,0
2.480320635,1772663222.049499,-0.03878286853432655,0.7488223314285278,1.8402342796325684,-0.011696603149175644,1.113893747329712,-0.2003762423992157,-0.04252687841653824,0.18356408178806305,0.2794036567211151,4.0939474033052647e-16,0.10129523277282715,-0.023968450725078583,-0.4495884174964322,-0.4495884174964322,-0.061087,-0.12056455184371444,-0.4026384628476065,0.0,-0.006006726127141929,-0.006006726127141929,-0.6866340092063707,-0.011983894393382932,0.42903864044262685,0.0,0.03297796484963254,0.03297796484963254,0.15718208440331213,-0.0301111001508855,-0.9011595797022923,0.0,0.37666028808106716,-0.015266745457438223,0.2998736753499612,0.384971072232,-0.026228304174000017,0.3,0.13923395914952832,-0.10288734965532614,-0.00545066643356602,True,True,True,False,True,False,0
2.500330444,1772663222.0695088,-0.03878286853432655,0.7488223314285278,1.8402342796325684,-0.011696603149175644,1.113893747329712,-0.2003762423992157,-0.04252687841653824,0.18356408178806305,0.2794036567211151,4.0939474033052647e-16,0.10129523277282715,-0.023968450725078583,-0.449708552018975,-0.449708552018975,-0.061087,-0.1208042297315821,-0.39405769003875396,0.0,-0.005388662943852833,-0.005388662943852833,-0.6836256961980977,-0.012627575810764902,0.41042086625634533,0.0,0.030903159164454772,0.030903159164454772,0.15041565041365432,-0.03218407086909844,-0.9308887093140753,0.0,0.37666028808106716,-0.015266745457438223,0.2998736753499612,0.38542630297599995,-0.02656972723200001,0.3,0.1423583595895278,-0.10523064998532608,-0.00545066643356602,True,True,True,False,True,False,0
2.520342548,1772663222.0895212,-0.03878286853432655,0.7488223314285278,1.8402342796325684,-0.011696603149175644,1.113893747329712,-0.2003762423992157,-0.04252687841653824,0.18356408178806305,0.2794036567211151,4.0939474033052647e-16,0.10129523277282715,-0.023968450725078583,-0.4498163252778521,-0.4498163252778521,-0.061087,-0.1210567812477974,-0.38584927271362707,0.0,-0.004812395362724269,-0.004812395362724269,-0.6807542445233123,-0.0133107088802739,0.39126630983315996,0.0,0.028813379056428206,0.028813379056428206,0.14357258373926526,-0.03415665347544988,-0.9577278211592674,0.0,0.37666028808106716,-0.015266745457438223,0.2998736753499612,0.38585937500000006,-0.026894531250000006,0.3,0.14523710202952897,-0.10738970681532607,-0.00545066643356602,True,True,True,False,True,False,0
2.540248554,1772663222.109427,-0.04281915724277496,0.7639262676239014,1.8638346195220947,-0.011696603149175644,1.1218034029006958,-0.20229372382164001,-0.04119149222970009,0.1471320390701294,0.23201459646224976,4.0939474033052647e-16,0.08274821937084198,-0.010272192768752575,-0.4499125731851066,-0.4499125731851066,-0.061087,-0.12132299542540287,-0.37802394651696386,0.0,-0.004277856904415721,-0.004277856904415721,-0.6780207100808214,-0.014030664385402042,0.3716379771797459,0.0,0.026726922915427356,0.026726922915427356,0.13667672212454562,-0.035997775256407065,-0.9814166326707027,0.0,0.37666028808106716,-0.015266745457438223,0.2998736753499612,0.38626995302399997,-0.027202464768000013,0.3,0.14251426072664183,-0.11483697932157463,-0.004884443971797844,True,True,True,False,True,False,0
2.560244267,1772663222.129423,-0.04281915724277496,0.7639262676239014,1.8638346195220947,-0.011696603149175644,1.1218034029006958,-0.20229372382164001,-0.04119149222970009,0.1471320390701294,0.23201459646224976,4.0939474033052647e-16,0.08274821937084198,-0.010272192768752575,-0.4499981303231949,-0.4499981303231949,-0.061087,-0.1216036087131109,-0.37059118697336896,0.0,-0.0037846273113637044,-0.0037846273113637044,-0.6754256729121559,-0.014784161168793844,0.351604121784577,0.0,0.024661479652600817,0.024661479652600817,0.12975185843327453,-0.03767483916959007,-1.0016927697584435,0.0,0.3790565234865357,-0.016894835983742106,0.2998554886017228,0.38665777376800003,-0.027493330326000015,0.3,0.12094394111195747,-0.10035009988853583,-0.004702576489413931,True,True,True,False,True,False,0
2.580350151,1772663222.1495285,-0.04281915724277496,0.7639262676239014,1.8638346195220947,-0.011696603149175644,1.1218034029006958,-0.20229372382164001,-0.04119149222970009,0.1471320390701294,0.23201459646224976,4.0939474033052647e-16,0.08274821937084198,-0.010272192768752575,-0.4500738228694222,-0.4500738228694222,-0.061087,-0.12189929193648678,-0.3635591045376774,0.0,-0.003331949295762751,-0.003331949295762751,-0.6729692313200772,-0.015567248327329378,0.33123824384440786,0.0,0.022633900780047653,0.022633900780047653,0.12282207960393465,-0.03915435792677665,-1.018293897008456,0.0,0.3790565234865357,-0.016894835983742106,0.2998554886017228,0.3870226488319999,-0.027766986624000005,0.3,0.12309676875195595,-0.1019647206185358,-0.004702576489413931,True,True,True,False,True,False,0
