JLDominguezM/dreamteam-T3001B/M1-Kinematics/Lab2/src/xarm_ros2/xarm_perturbations/xarm_perturbations/results/challenge/trial_ctc_nopert_2026-03-04_16-14-15/trial_ctc_nopert_2026-03-04_16-14-15.csv
time,time_abs,q1,q2,q3,q4,q5,q6,qd1,qd2,qd3,qd4,qd5,qd6,q_des1,q_des2,q_des3,q_des4,q_des5,q_des6,qd_des1,qd_des2,qd_des3,qd_des4,qd_des5,qd_des6,qdd_des1,qdd_des2,qdd_des3,qdd_des4,qdd_des5,qdd_des6,px,py,pz,px_des,py_des,pz_des,cmd_x,cmd_y,cmd_z,sat1,sat2,sat3,sat4,sat5,sat6,pert_enabled
0.020232471,1772662455.922549,-0.04566660895943642,-0.17517676949501038,0.7103941440582275,-0.0065194182097911835,0.8853945136070251,-0.06941263377666473,4.242637949146449e-16,4.2148825323494975e-15,2.18872530065035e-15,3.940300391233663e-16,1.506731217454393e-15,1.9230648516888266e-15,0.0,0.0,0.0,0.0,0.0,0.0,-6.515969262434116,-6.515969262434116,-1.0086718057218342,-0.305551693705187,-86.25563624221965,0.0,0.0,0.0,0.0,0.0,0.0,0.0,0.19619176237465386,-0.009280263522397636,0.3014549303071637,0.15,0.0,0.3,-0.25,0.09280263522397593,-0.014549303071636852,False,False,False,False,False,False,0
0.040387455,1772662455.942704,-0.04566660895943642,-0.17517676949501038,0.7103941440582275,-0.0065194182097911835,0.8853945136070251,-0.06941263377666473,4.242637949146449e-16,4.2148825323494975e-15,2.18872530065035e-15,3.940300391233663e-16,1.506731217454393e-15,1.9230648516888266e-15,-0.13031938524868233,-0.13031938524868233,-0.020173436114436685,-0.00611103387410374,-1.7251127248443932,0.0,3.2374976206246187,3.2374976206246187,-1.1895728281600777,-0.3004522860651979,-59.887316623555954,0.0,487.67334415293675,487.67334415293675,-9.045051121912174,0.2549703819994531,1318.4159809331848,0.0,0.19619176237465386,-0.009280263522397636,0.3014549303071637,0.15,0.0,0.3,-0.25,0.09280263522397593,-0.014549303071636852,False,False,False,False,False,False,0
0.060327178,1772662455.9626434,-0.04566660895943642,-0.17517676949501038,0.7103941440582275,-0.0065194182097911835,0.8853945136070251,-0.06941263377666473,4.242637949146449e-16,4.2148825323494975e-15,2.18872530065035e-15,3.940300391233663e-16,1.506731217454393e-15,1.9230648516888266e-15,-0.06556943283618996,-0.06556943283618996,-0.04396489267763824,-0.012120079595407698,-2.1642,0.0,3.446731132322051,3.446731132322051,-0.30175922669519056,-2.7387783284004223,-51.62129382237941,0.0,10.46167558487161,10.46167558487161,44.39068007324436,-121.9163021167612,413.30114005882734,0.0,0.19619176237465386,-0.009280263522397636,0.3014549303071637,0.15,0.0,0.3,-0.25,0.09280263522397593,-0.014549303071636852,False,False,False,False,False,False,0
0.080249404,1772662455.9825659,-0.04566660895943642,-0.17517676949501038,0.7103941440582275,-0.0065194182097911835,0.8853945136070251,-0.06941263377666473,4.242637949146449e-16,4.2148825323494975e-15,2.18872530065035e-15,3.940300391233663e-16,1.506731217454393e-15,1.9230648516888266e-15,0.0033651898102510513,0.0033651898102510513,-0.05000007721154205,-0.06689564616341613,-2.1642,0.0,3.3873218207888773,3.3873218207888773,2.1519073370290025,-15.318958782243925,-55.15716737580398,0.0,-2.9704655766586767,-2.9704655766586767,122.68332818620968,-629.0090226921752,-176.79367767122864,0.0,0.19619176237465386,-0.009280263522397636,0.3014549303071637,0.15,0.0,0.3,-0.25,0.09280263522397593,-0.014549303071636852,False,False,False,False,False,False,0
0.100213236,1772662456.0025296,-0.04566660895943642,-0.17517676949501038,0.7103941440582275,-0.0065194182097911835,0.8853945136070251,-0.06941263377666473,4.242637949146449e-16,4.2148825323494975e-15,2.18872530065035e-15,3.940300391233663e-16,1.506731217454393e-15,1.9230648516888266e-15,0.07111162622602861,0.07111162622602861,-0.006961930470961997,-0.3732748218082947,-2.1642,0.0,2.2674780385743905,2.2674780385743905,11.409083496590533,-66.87700648623264,-55.74083529681491,0.0,-55.99218911072433,-55.99218911072433,462.85880797807647,-2577.9023851994357,-29.1833960505464,0.0,0.19619176237465386,-0.009280263522397636,0.3014549303071637,0.15,0.0,0.3,-0.25,0.09280263522397593,-0.014549303071636852,False,False,False,False,False,False,0
0.120122524,1772662456.022439,-0.04566660895943642,-0.17517676949501038,0.7103941440582275,-0.0065194182097911835,0.8853945136070251,-0.06941263377666473,4.242637949146449e-16,4.2148825323494975e-15,2.18872530065035e-15,3.940300391233663e-16,1.506731217454393e-15,1.9230648516888266e-15,0.11646118699751642,0.11646118699751642,0.22121973946084872,-1.7108149515329478,-2.1642,0.0,-1.5097212083811038,-1.5097212083811038,6.637800055914224,-32.950790852860315,-45.56059406521635,0.0,-188.85996234777468,-188.85996234777468,-238.56417203381542,1696.310781668616,509.0120615799278,0.0,0.19619176237465386,-0.009280263522397636,0.3014549303071637,0.15,0.0,0.3,-0.25,0.09280263522397593,-0.014549303071636852,False,False,False,False,False,False,0
0.140168615,1772662456.042485,-0.04566660895943642,-0.17517676949501038,0.7103941440582275,-0.0065194182097911835,0.8853945136070251,-0.06941263377666473,4.242637949146449e-16,4.2148825323494975e-15,2.18872530065035e-15,3.940300391233663e-16,1.506731217454393e-15,1.9230648516888266e-15,0.08626676282989437,0.08626676282989437,0.35397574057913317,-2.3698307685901536,-2.1642,0.0,-2.3516637834367007,-2.3516637834367007,3.2967675502100877,-12.444485684951806,-40.619006317993474,0.0,-42.09712875277987,-42.09712875277987,-167.05162528520688,1025.3152583954259,247.07938736114392,0.0,0.19619176237465386,-0.009280263522397636,0.3014549303071637,0.15,0.0,0.3,-0.25,0.09280263522397593,-0.014549303071636852,False,False,False,False,False,False,0
0.160286329,1772662456.0626028,-0.04566660895943642,-0.17517676949501038,0.7103941440582275,-0.0065194182097911835,0.8853945136070251,-0.06941263377666473,4.242637949146449e-16,4.2148825323494975e-15,2.18872530065035e-15,3.940300391233663e-16,1.506731217454393e-15,1.9230648516888266e-15,0.03923348716116032,0.03923348716116032,0.41991109158333495,-2.61872048228919,-2.1642,0.0,-2.497932748479341,-2.497932748479341,1.9831134064731009,-5.9468871583063345,-37.26487821418924,0.0,-7.31344825213202,-7.31344825213202,-65.68270718684929,324.87992633227327,167.70640519021163,0.0,0.19619176237465386,-0.009280263522397636,0.3014549303071637,0.15,0.0,0.3,-0.25,0.09280263522397593,-0.014549303071636852,False,False,False,False,False,False,0
0.180234292,1772662456.0825508,-0.04566660895943642,-0.17517676949501038,0.7103941440582275,-0.0065194182097911835,0.8853945136070251,-0.06941263377666473,4.242637949146449e-16,4.2148825323494975e-15,2.18872530065035e-15,3.940300391233663e-16,1.506731217454393e-15,1.9230648516888266e-15,-0.01072516780842648,-0.01072516780842648,0.45957335971279695,-2.737658225455317,-2.1642,0.0,-2.415700912440212,-2.415700912440212,1.2083384130272115,-2.958128096948163,-34.46888400380142,0.0,4.111591801956462,4.111591801956462,-38.73874967229449,149.43795306790864,139.79971051939094,0.0,0.19619176237465386,-0.009280263522397636,0.3014549303071637,0.15,0.0,0.3,-0.25,0.09280263522397593,-0.014549303071636852,False,False,False,False,False,False,0
0.200127081,1772662456.1024435,-0.04566660895943642,-0.17517676949501038,0.7103941440582275,-0.0065194182097911835,0.8853945136070251,-0.06941263377666473,4.242637949146449e-16,4.2148825323494975e-15,2.18872530065035e-15,3.940300391233663e-16,1.506731217454393e-15,1.9230648516888266e-15,-0.05903918605723069,-0.05903918605723069,0.48374012797334115,-2.79682078739428,-2.1642,0.0,-2.2267283038854644,-2.2267283038854644,0.6904491419715795,-1.4303699037320552,-32.127126568955745,0.0,9.448630427737386,9.448630427737386,-25.894463552781612,76.38790966080543,117.08787174228382,0.0,0.19619176237465386,-0.009280263522397636,0.3014549303071637,0.15,0.0,0.3,-0.25,0.09280263522397593,-0.014549303071636852,False,False,False,False,False,False,0
0.220099418,1772662456.1224158,-0.0440482571721077,-0.1813855618238449,0.7053588628768921,-0.004985437728464603,0.8853945136070251,-0.06941263377666473,0.02889910154044628,-0.11087120324373245,-0.0899159237742424,0.027392514050006866,1.506731217454393e-15,1.9230648516888266e-15,-0.10357375213494002,-0.10357375213494002,0.49754911081277275,-2.825428185468921,-2.1642,0.0,-1.9905657126425071,-1.9905657126425071,0.32630832243114893,-0.611240182215484,-30.21087655576137,0.0,11.808129562147851,11.808129562147851,-18.20704097702151,40.95648607582852,95.81250065971868,0.0,0.195150423534806,-0.008841921003075705,0.3015057031841869,0.15,0.0,0.3,-0.25,0.0971710937687588,-0.02111039080234512,False,False,False,False,False,False,0
0.240129796,1772662456.142446,-0.0440482571721077,-0.1813855618238449,0.7053588628768921,-0.004985437728464603,0.8853945136070251,-0.06941263377666473,0.02889910154044628,-0.11087120324373245,-0.0899159237742424,0.027392514050006866,1.506731217454393e-15,1.9230648516888266e-15,-0.14338506638779014,-0.14338506638779014,0.5040752772613958,-2.8376529891132307,-2.1642,0.0,-1.7417758801985912,-1.7417758801985912,0.06751997376075602,-0.16566780465892395,-28.68191460649561,0.0,12.439491622195803,12.439491622195803,-12.939417433519653,22.278618877828016,76.44809746328804,0.0,0.195150423534806,-0.008841921003075705,0.3015057031841869,0.15,0.0,0.3,-0.25,0.0971710937687588,-0.02111039080234512,False,False,False,False,True,False,0
0.260138693,1772662456.162455,-0.0440482571721077,-0.1813855618238449,0.7053588628768921,-0.004985437728464603,0.8853945136070251,-0.06941263377666473,0.02889910154044628,-0.11087120324373245,-0.0899159237742424,0.027392514050006866,1.506731217454393e-15,1.9230648516888266e-15,-0.17822058399176194,-0.17822058399176194,0.5054256767366109,-2.840966345206409,-2.1642,0.0,-1.500751458536444,-1.500751458536444,-0.1142299325990127,0.07192486726466685,-27.487716522944385,0.0,12.051221083107361,12.051221083107361,-9.087495317988441,11.879633596179545,59.70990417756126,0.0,0.195150423534806,-0.008841921003075705,0.3015057031841869,0.15,0.0,0.3,-0.25,0.0971710937687588,-0.02111039080234512,False,False,False,False,True,False,0
0.280136802,1772662456.1824532,-0.0440482571721077,-0.1813855618238449,0.7053588628768921,-0.004985437728464603,0.8853945136070251,-0.06941263377666473,0.02889910154044628,-0.11087120324373245,-0.0899159237742424,0.027392514050006866,1.506731217454393e-15,1.9230648516888266e-15,-0.20823561316249084,-0.20823561316249084,0.5031410780846306,-2.839527847861116,-2.1642,0.0,-1.2786507033134114,-1.2786507033134114,-0.23873139462606918,0.1899051583417659,-26.5699708037133,0.0,11.105037761151626,11.105037761151626,-6.225073101352819,5.899014553854948,45.88728596155423,0.0,0.195150423534806,-0.008841921003075705,0.3015057031841869,0.15,0.0,0.3,-0.25,0.0971710937687588,-0.02111039080234512,False,False,True,False,True,False,0
0.300137048,1772662456.2024536,-0.0440482571721077,-0.1813855618238449,0.7053588628768921,-0.004985437728464603,0.8853945136070251,-0.06941263377666473,0.02889910154044628,-0.11087120324373245,-0.0899159237742424,0.027392514050006866,1.506731217454393e-15,1.9230648516888266e-15,-0.23380862722875909,-0.23380862722875909,0.49836645019210923,-2.8357297446942806,-2.1642,0.0,-1.0805597351463616,-1.0805597351463616,-0.3210765649395013,0.238411742428009,-25.872541103974395,0.0,9.904548408352479,9.904548408352479,-4.117258515671603,2.425329204312152,34.871484986945205,0.0,0.195150423534806,-0.008841921003075705,0.3015057031841869,0.15,0.0,0.3,-0.25,0.0971710937687588,-0.02111039080234512,False,False,True,False,True,False,0
0.320212378,1772662456.2225287,-0.029074687510728836,-0.2272765040397644,0.666340172290802,-0.0057524279691278934,0.8900284171104431,-0.055990297347307205,0.1744903177022934,-0.5385710597038269,-0.46094754338264465,-0.017120322212576866,0.05992112308740616,0.1403866410255432,-0.2554198219316863,-0.2554198219316863,0.4919449188933192,-2.8309615098457206,-2.1642,0.0,-0.9077627607407409,-0.907762760740741,-0.3729606775840667,0.2471746934315826,-25.34613152945661,0.0,8.639848720281051,8.639848720281046,-2.5942056322282743,0.43814755017868107,26.320478725889323,0.0,0.18692755267229835,-0.005714910079180719,0.3012340699647099,0.15,0.0,0.3,-0.25,0.10082948152206145,-0.04902228188626687,False,False,True,False,True,False,0
0.34015984,1772662456.2424762,-0.029074687510728836,-0.2272765040397644,0.666340172290802,-0.0057524279691278934,0.8900284171104431,-0.055990297347307205,0.1744903177022934,-0.5385710597038269,-0.46094754338264465,-0.017120322212576866,0.05992112308740616,0.1403866410255432,-0.2735750771465011,-0.2735750771465011,0.4844857053416379,-2.826018015977089,-2.1642,0.0,-0.7593413184494513,-0.7593413184494513,-0.403298851942801,0.2342609969014191,-24.950031280167448,0.0,7.421072114564474,7.42107211456448,-1.5169087179367144,-0.6456848265081744,19.8050124644581,0.0,0.18692755267229835,-0.005714910079180719,0.3012340699647099,0.15,0.0,0.3,-0.25,0.10082948152206145,-0.04902228188626687,False,False,True,False,True,False,0
0.360123736,1772662456.2624402,-0.029074687510728836,-0.2272765040397644,0.666340172290802,-0.0057524279691278934,0.8900284171104431,-0.055990297347307205,0.1744903177022934,-0.5385710597038269,-0.46094754338264465,-0.017120322212576866,0.05992112308740616,0.1403866410255432,-0.28876190351549014,-0.28876190351549014,0.47641972830278184,-2.8213327960390604,-2.1642,0.0,-0.6332388173866909,-0.633238817386691,-0.418714811124436,0.21070049576963257,-24.65200035323739,0.0,6.305125053138016,6.305125053138011,-0.7707979590817475,-1.1780250565893258,14.901546346502835,0.0,0.18692755267229835,-0.005714910079180719,0.3012340699647099,0.15,0.0,0.3,-0.25,0.10082948152206145,-0.04902228188626687,True,False,True,False,True,False,0
0.380159248,1772662456.2824755,-0.029074687510728836,-0.2272765040397644,0.666340172290802,-0.0057524279691278934,0.8900284171104431,-0.055990297347307205,0.1744903177022934,-0.5385710597038269,-0.46094754338264465,-0.017120322212576866,0.05992112308740616,0.1403866410255432,-0.3014266798632239,-0.3014266798632239,0.46804543208029314,-2.8171187861236677,-2.1642,0.0,-0.5269265544058126,-0.5269265544058126,-0.4240066532198108,0.18312532240587842,-24.42723066888148,0.0,5.315613149043923,5.315613149043928,-0.264592104768741,-1.37875866818771,11.238484217795474,0.0,0.18692755267229835,-0.005714910079180719,0.3012340699647099,0.15,0.0,0.3,-0.25,0.10082948152206145,-0.04902228188626687,True,False,True,False,True,False,0
0.400130848,1772662456.3024473,-0.029074687510728836,-0.2272765040397644,0.666340172290802,-0.0057524279691278934,0.8900284171104431,-0.055990297347307205,0.1744903177022934,-0.5385710597038269,-0.46094754338264465,-0.017120322212576866,0.05992112308740616,0.1403866410255432,-0.31196521095134017,-0.31196521095134017,0.45956529901589693,-2.8134562796755502,-2.1642,0.0,-0.4377944452185203,-0.43779444521852023,-0.4225739651050546,0.1553766611888392,-24.256999435088293,0.0,4.456605459364612,4.4566054593646145,0.07163440573780815,-1.38743306085196,8.511561689659423,0.0,0.18692755267229835,-0.005714910079180719,0.3012340699647099,0.15,0.0,0.3,-0.25,0.10082948152206145,-0.04902228188626687,True,False,True,True,True,False,0
0.420136114,1772662456.3224525,-0.016519054770469666,-0.262410432100296,0.6355704069137573,-0.007478156127035618,0.8938633799552917,-0.043718453496694565,0.10552965849637985,-0.2871762812137604,-0.2610164284706116,3.900649720181505e-16,0.009986854158341885,0.11299411952495575,-0.32072109985571057,-0.32072109985571057,0.4511138197137958,-2.8103487464517736,-2.1642,0.0,-0.3633629964639453,-0.3633629964639453,-0.41678121762641807,0.12952869782158416,-24.127352057499944,0.0,3.7215724377287454,3.7215724377287422,0.2896373739318278,-1.2923981683627506,6.482368879417416,0.0,0.18051809493839385,-0.003345763982974606,0.3005424790011139,0.15,0.0,0.3,-0.25,0.05610119365445791,-0.026570565832862963,True,False,True,True,True,False,0
0.440315958,1772662456.3426325,-0.016519054770469666,-0.262410432100296,0.6355704069137573,-0.007478156127035618,0.8938633799552917,-0.043718453496694565,0.10552965849637985,-0.2871762812137604,-0.2610164284706116,3.900649720181505e-16,0.009986854158341885,0.11299411952495575,-0.32798835978498947,-0.32798835978498947,0.4427781953612675,-2.8077581724953418,-2.1642,0.0,-0.3013850883069459,-0.3013850883069459,-0.40824768179914694,0.10655603645463296,-24.02796332566122,0.0,3.098895407849978,3.098895407849978,0.4266767913635569,-1.148633068347562,4.9694365919363035,0.0,0.18051809493839385,-0.003345763982974606,0.3005424790011139,0.15,0.0,0.3,-0.25,0.05610119365445791,-0.026570565832862963,True,False,True,True,True,False,0
0.460238981,1772662456.3625555,-0.016519054770469666,-0.262410432100296,0.6355704069137573,-0.007478156127035618,0.8938633799552917,-0.043718453496694565,0.10552965849637985,-0.2871762812137604,-0.2610164284706116,3.900649720181505e-16,0.009986854158341885,0.11299411952495575,-0.3340160615511284,-0.3340160615511284,0.43461324172528454,-2.805627051766249,-2.1642,0.0,-0.24988293119223867,-0.2498829311922387,-0.39806773140621576,0.08677136738683,-23.95121837282977,0.0,2.575107855735358,2.575107855735357,0.5089975196465586,-0.9892334533901472,3.8372476415723575,0.0,0.18051809493839385,-0.003345763982974606,0.3005424790011139,0.15,0.0,0.3,-0.25,0.05610119365445791,-0.026570565832862963,True,False,True,True,True,False,0
0.480318737,1772662456.382635,-0.016519054770469666,-0.262410432100296,0.6355704069137573,-0.007478156127035618,0.8938633799552917,-0.043718453496694565,0.10552965849637985,-0.2871762812137604,-0.2610164284706116,3.900649720181505e-16,0.009986854158341885,0.11299411952495575,-0.33901372017497317,-0.33901372017497317,0.42665188709716023,-2.803891624418512,-2.1642,0.0,-0.2071488903057555,-0.2071488903057555,-0.3869722654902694,0.07010950726932075,-23.891502097343782,0.0,2.1367020443241564,2.136702044324158,0.5547732957973168,-0.8330930058754619,2.98581377429947,0.0,0.18051809493839385,-0.003345763982974606,0.3005424790011139,0.15,0.0,0.3,-0.25,0.05610119365445791,-0.026570565832862963,True,True,True,True,True,False,0
0.500160576,1772662456.402477,-0.016519054770469666,-0.262410432100296,0.6355704069137573,-0.007478156127035618,0.8938633799552917,-0.043718453496694565,0.10552965849637985,-0.2871762812137604,-0.2610164284706116,3.900649720181505e-16,0.009986854158341885,0.11299411952495575,-0.3431566979810883,-0.3431566979810883,0.4189124417873549,-2.802489434273126,-2.1642,0.0,-0.1717276786868303,-0.1717276786868303,-0.37544381144418026,0.05630824808773305,-23.844664582172275,0.0,1.7710605809462632,1.7710605809462632,0.5764227023044588,-0.6900629590793863,2.341875758575367,0.0,0.18051809493839385,-0.003345763982974606,0.3005424790011139,0.15,0.0,0.3,-0.25,0.05610119365445791,-0.026570565832862963,True,False,True,True,True,False,0
0.520279223,1772662456.4225955,-0.0033459956757724285,-0.293293297290802,0.6065014600753784,-0.007286408916115761,0.8945025205612183,-0.03087136335670948,0.13418908417224884,-0.31843796372413635,-0.30285847187042236,-0.023968450725078583,0.007133467122912407,0.1403866410255432,-0.3465912515548249,-0.3465912515548249,0.41140356555847124,-2.8013632693113713,-2.1642,0.0,-0.1423902265466976,-0.14239022654669758,-0.3637970118134952,0.04501989527898864,-23.807626162469816,0.0,1.4668726070066336,1.466872607006635,0.5823399815342517,-0.5644176404372198,1.851920985122922,0.0,0.17480804998514388,-0.000939309992676944,0.29926834803273294,0.15,0.0,0.3,-0.25,0.03366809602814744,-0.018572372660777468,True,False,True,True,True,False,0
0.540214786,1772662456.442531,-0.0033459956757724285,-0.293293297290802,0.6065014600753784,-0.007286408916115761,0.8945025205612183,-0.03087136335670948,0.13418908417224884,-0.31843796372413635,-0.30285847187042236,-0.023968450725078583,0.007133467122912407,0.1403866410255432,-0.34943905608575887,-0.34943905608575887,0.4041276253222013,-2.8004628714057915,-2.1642,0.0,-0.11810508267934577,-0.11810508267934577,-0.35223390196254967,0.03587729053203592,-23.77808890516246,0.0,1.2142571933675907,1.2142571933675894,0.578155492547277,-0.45713023734763564,1.4768628653678548,0.0,0.17480804998514388,-0.000939309992676944,0.29926834803273294,0.15,0.0,0.3,-0.25,0.03366809602814744,-0.018572372660777468,True,False,True,True,True,False,0
0.560258802,1772662456.4625752,-0.0033459956757724285,-0.293293297290802,0.6065014600753784,-0.007286408916115761,0.8945025205612183,-0.03087136335670948,0.13418908417224884,-0.31843796372413635,-0.30285847187042236,-0.023968450725078583,0.007133467122912407,0.1403866410255432,-0.3518011577393458,-0.3518011577393458,0.3970829472829503,-2.799745325595151,-2.1642,0.0,-0.09801050636246889,-0.09801050636246889,-0.3408815823311466,0.02853009727676925,-23.75432726387108,0.0,1.0047288158438434,1.0047288158438434,0.5676159815701515,-0.3673596627633332,1.1880820645689727,0.0,0.17480804998514388,-0.000939309992676944,0.29926834803273294,0.15,0.0,0.3,-0.25,0.03366809602814744,-0.018572372660777468,True,False,True,True,True,False,0
0.580253911,1772662456.4825702,-0.0033459956757724285,-0.293293297290802,0.6065014600753784,-0.007286408916115761,0.8945025205612183,-0.03087136335670948,0.13418908417224884,-0.31843796372413635,-0.30285847187042236,-0.023968450725078583,0.007133467122912407,0.1403866410255432,-0.3537613678665952,-0.3537613678665952,0.3902653156363274,-2.7991747236496156,-2.1642,0.0,-0.0813888136971406,-0.08138881369714057,-0.3298175093902257,0.022663001674078753,-23.735036498454622,0.0,0.8310846332664136,0.8310846332664149,0.5532036470460462,-0.2933547801345246,0.9645382708228558,0.0,0.17480804998514388,-0.000939309992676944,0.29926834803273294,0.15,0.0,0.3,-0.25,0.03366809602814744,-0.018572372660777468,True,False,True,True,True,False,0
0.600304765,1772662456.5026212,-0.0033459956757724285,-0.293293297290802,0.6065014600753784,-0.007286408916115761,0.8945025205612183,-0.03087136335670948,0.13418908417224884,-0.31843796372413635,-0.30285847187042236,-0.023968450725078583,0.007133467122912407,0.1403866410255432,-0.35538914414053796,-0.35538914414053796,0.3836689654485229,-2.798721463616134,-2.1642,0.0,-0.06764360281354359,-0.06764360281354359,-0.3190864771845612,0.01800243470210816,-23.71922314444853,0.0,0.6872605441798536,0.6872605441798523,0.5365516102832283,-0.2330283485985307,0.7906677003045851,0.0,0.17480804998514388,-0.000939309992676944,0.29926834803273294,0.15,0.0,0.3,-0.25,0.03366809602814744,-0.018572372660777468,True,False,True,True,True,False,0
0.62012669,1772662456.522443,0.004406359978020191,-0.3264617919921875,0.5792484283447266,-0.0070946612395346165,0.900334894657135,-0.027419906109571457,0.05447686091065407,-0.343639075756073,-0.26967930793762207,3.95516952522712e-16,0.06848128885030746,0.037664707750082016,-0.35674201619680884,-0.35674201619680884,0.3772872359048317,-2.7983614149220917,-2.1642,0.0,-0.05628001477261385,-0.05628001477261385,-0.3087118651822043,0.014316908384524485,-23.70612538224992,0.0,0.5681794020464864,0.5681794020464864,0.5187306001178444,-0.18427631587918364,0.6548881099305953,0.0,0.16892151005823888,0.000397562685935534,0.29861930983691987,0.15,0.0,0.3,-0.21777945255324768,0.032392128970249616,-0.00856449487497318,True,False,True,True,True,False,0
0.640231093,1772662456.5425475,0.004406359978020191,-0.3264617919921875,0.5792484283447266,-0.0070946612395346165,0.900334894657135,-0.027419906109571457,0.05447686091065407,-0.343639075756073,-0.26967930793762207,3.95516952522712e-16,0.06848128885030746,0.037664707750082016,-0.3578676164922611,-0.3578676164922611,0.3711129986011876,-2.7980750767544014,-2.1642,0.0,-0.04688785710005933,-0.04688785710005933,-0.29870312716012626,0.01141412562657429,-23.69515515833546,0.0,0.46960788362772576,0.46960788362772576,0.5004369011039007,-0.14513913789750962,0.5485111957229445,0.0,0.16892151005823888,0.000397562685935534,0.29861930983691987,0.15,0.0,0.3,-0.21777945255324768,0.032392128970249616,-0.00856449487497318,True,False,True,True,True,False,0
0.660114219,1772662456.5624306,0.004406359978020191,-0.3264617919921875,0.5792484283447266,-0.0070946612395346165,0.900334894657135,-0.027419906109571457,0.05447686091065407,-0.343639075756073,-0.26967930793762207,3.95516952522712e-16,0.06848128885030746,0.037664707750082016,-0.3588053736342623,-0.3588053736342623,0.3651389360579851,-2.79784679424187,-2.1642,0.0,-0.03912733325212453,-0.03912733325212453,-0.2890607271445308,0.009136520760474998,-23.685855794263645,0.0,0.3880261923967395,0.3880261923967395,0.4821200007797728,-0.1138802433049645,0.4649682035907428,0.0,0.16892151005823888,0.000397562685935534,0.29861930983691987,0.15,0.0,0.3,-0.21777945255324768,0.032392128970249616,-0.00856449487497318,True,False,True,True,True,False,0
0.680140957,1772662456.5824573,0.004406359978020191,-0.3264617919921875,0.5792484283447266,-0.0070946612395346165,0.900334894657135,-0.027419906109571457,0.05447686091065407,-0.343639075756073,-0.26967930793762207,3.95516952522712e-16,0.06848128885030746,0.037664707750082016,-0.3595879202993048,-0.3595879202993048,0.3593577215150945,-2.7976640638266606,-2.1642,0.0,-0.032717075132222745,-0.03271707513222272,-0.2797794090411666,0.007356098415092216,-23.67787061446352,0.0,0.32051290599508897,0.32051290599509036,0.46406590516820906,-0.089021117269139,0.39925899000632337,0.0,0.16892151005823888,0.000397562685935534,0.29861930983691987,0.15,0.0,0.3,-0.21777945255324768,0.032392128970249616,-0.00856449487497318,True,False,True,True,True,False,0
0.700146022,1772662456.6024625,0.004406359978020191,-0.3264617919921875,0.5792484283447266,-0.0070946612395346165,0.900334894657135,-0.027419906109571457,0.05447686091065407,-0.343639075756073,-0.26967930793762207,3.95516952522712e-16,0.06848128885030746,0.037664707750082016,-0.36024226180194924,-0.36024226180194924,0.35376213333427114,-2.7975169418583588,-2.1642,0.0,-0.027424132893753922,-0.02742413289375395,-0.2708503259954257,0.005969847889857771,-23.67091981785484,0.0,0.2646471119234409,0.26464711192343815,0.4464541522870454,-0.06931252626172218,0.3475398304338736,0.0,0.16892151005823888,0.000397562685935534,0.29861930983691987,0.15,0.0,0.3,-0.21777945255324768,0.032392128970249616,-0.00856449487497318,True,False,True,True,True,False,0
0.720124507,1772662456.622441,0.007715923245996237,-0.3663817346096039,0.5502331852912903,-0.006902913562953472,0.9094429016113281,-0.025502430275082588,0.03280253708362579,-0.3796602487564087,-0.27272671461105347,3.95516952522712e-16,0.06848128885030746,0.027392514050006866,-0.36079074445982434,-0.36079074445982434,0.34834512681436264,-2.7973975449005617,-2.1642,0.0,-0.023055659212303736,-0.023055659212303736,-0.2622624874376064,0.004895168325881993,-23.664783026919572,0.0,0.2184236840725091,0.21842368407251048,0.42939192789096486,-0.05373397819878884,0.30683954676344855,0.0,0.16228632814156774,0.000912285995252821,0.29844934429237135,0.15,0.0,0.3,-0.15198084521777588,0.03480689527870366,-0.007595477038849465,True,False,True,True,True,False,0
0.740204793,1772662456.6425211,0.007715923245996237,-0.3663817346096039,0.5502331852912903,-0.006902913562953472,0.9094429016113281,-0.025502430275082588,0.03280253708362579,-0.3796602487564087,-0.27272671461105347,3.95516952522712e-16,0.06848128885030746,0.027392514050006866,-0.3612518576440704,-0.3612518576440704,0.3430998770656105,-2.797299641534044,-2.1642,0.0,-0.019451997772542196,-0.019451997772542196,-0.2540036744781886,0.004066251053955305,-23.659286133815716,0.0,0.18018307198807787,0.18018307198807787,0.41294064797089053,-0.04144586359633459,0.2748446551928309,0.0,0.16228632814156774,0.000912285995252821,0.29844934429237135,0.15,0.0,0.3,-0.15198084521777588,0.03480689527870366,-0.007595477038849465,True,False,True,True,True,False,0
0.760247019,1772662456.6625633,0.007715923245996237,-0.3663817346096039,0.5502331852912903,-0.006902913562953472,0.9094429016113281,-0.025502430275082588,0.03280253708362579,-0.3796602487564087,-0.27272671461105347,3.95516952522712e-16,0.06848128885030746,0.027392514050006866,-0.3616408975995213,-0.3616408975995213,0.3380198035760467,-2.7972183165129647,-2.1642,0.0,-0.016480961511549652,-0.016480961511549652,-0.24606107177553682,0.0034307191106361934,-23.654291334448,0.0,0.14855181304962703,0.14855181304962703,0.3971301351325892,-0.03177659716595557,0.24973996838575352,0.0,0.16228632814156774,0.000912285995252821,0.29844934429237135,0.15,0.0,0.3,-0.15198084521777588,0.03480689527870366,-0.007595477038849465,True,False,True,True,True,False,0
0.780324369,1772662456.6826406,0.007715923245996237,-0.3663817346096039,0.5502331852912903,-0.006902913562953472,0.9094429016113281,-0.025502430275082588,0.03280253708362579,-0.3796602487564087,-0.27272671461105347,3.95516952522712e-16,0.06848128885030746,0.027392514050006866,-0.3619705168297523,-0.3619705168297523,0.333098582140536,-2.797149702130752,-2.1642,0.0,-0.014033095125252165,-0.014033095125252193,-0.23842166464856862,0.0029470371006885543,-23.64968938127265,0.0,0.12239331931487424,0.12239331931487285,0.3819703563484097,-0.024184100497381934,0.2300976587674695,0.0,0.16228632814156774,0.000912285995252821,0.29844934429237135,0.15,0.0,0.3,-0.15198084521777588,0.03480689527870366,-0.007595477038849465,True,False,True,True,True,False,0
0.800233491,1772662456.70255,0.007715923245996237,-0.3663817346096039,0.5502331852912903,-0.006902913562953472,0.9094429016113281,-0.025502430275082588,0.03280253708362579,-0.3796602487564087,-0.27272671461105347,3.95516952522712e-16,0.06848128885030746,0.027392514050006866,-0.3622511787322573,-0.3622511787322573,0.3283301488475646,-2.797090761388738,-2.1642,0.0,-0.012017754848996448,-0.012017754848996476,-0.2310725145879604,0.0025822894429268217,-23.645393685563203,0.0,0.10076701381278577,0.10076701381278577,0.36745750303041025,-0.01823738288808661,0.21478478547241034,0.0,0.16228632814156774,0.000912285995252821,0.29844934429237135,0.15,0.0,0.3,-0.15198084521777588,0.03480689527870366,-0.007595477038849465,True,False,True,True,True,False,0
0.820123919,1772662456.7224402,0.012668764218688011,-0.3938092887401581,0.5306288599967957,-0.006902913562953472,0.9156746864318848,-0.02147573046386242,0.0562916174530983,-0.254818856716156,-0.1765105128288269,3.95516952522712e-16,0.05849443003535271,0.0410887710750103,-0.36249153382923727,-0.36249153382923727,0.3237086985558054,-2.7970391155998797,-2.1642,0.0,-0.010359867058523431,-0.010359867058523431,-0.22400092731554078,0.002310467751411416,-23.64133566432814,0.0,0.08289438952365079,0.08289438952365218,0.3535793636209813,-0.013591084575770284,0.20290106175320216,0.0,0.15781700671717977,0.0016577890099754538,0.2982423107928568,0.15,0.0,0.3,-0.09496377428953433,0.0097554476179826,0.0025055857776805947,True,False,True,True,True,False,0
0.8403717,1772662456.742688,0.012668764218688011,-0.3938092887401581,0.5306288599967957,-0.006902913562953472,0.9156746864318848,-0.02147573046386242,0.0562916174530983,-0.254818856716156,-0.1765105128288269,3.95516952522712e-16,0.05849443003535271,0.0410887710750103,-0.36269873117040774,-0.36269873117040774,0.3192286800094946,-2.7969929062448515,-2.1642,0.0,-0.008997247881000148,-0.008997247881000148,-0.2171945772585494,0.002111014282168533,-23.637461102959374,0.0,0.0681309588761641,0.0681309588761641,0.34031750284956835,-0.009972673462144135,0.1937280684382257,0.0,0.15781700671717977,0.0016577890099754538,0.2982423107928568,0.15,0.0,0.3,-0.09496377428953433,0.0097554476179826,0.0025055857776805947,True,False,True,True,True,False,0
0.860302565,1772662456.7626188,0.012668764218688011,-0.3938092887401581,0.5306288599967957,-0.006902913562953472,0.9156746864318848,-0.02147573046386242,0.0562916174530983,-0.254818856716156,-0.1765105128288269,3.95516952522712e-16,0.05849443003535271,0.0410887710750103,-0.36287867612802777,-0.36287867612802777,0.31488478846432366,-2.7969506859592084,-2.1642,0.0,-0.00787839152840436,-0.00787839152840436,-0.21064155761709824,0.001967650498531981,-23.633727245615553,0.0,0.05594281762978963,0.05594281762978963,0.3276509820725597,-0.007168189181827634,0.18669286719106368,0.0,0.15781700671717977,0.0016577890099754538,0.2982423107928568,0.15,0.0,0.3,-0.09496377428953433,0.0097554476179826,0.0025055857776805947,True,False,True,True,True,False,0
0.880264777,1772662456.7825813,0.012668764218688011,-0.3938092887401581,0.5306288599967957,-0.006902913562953472,0.9156746864318848,-0.02147573046386242,0.0562916174530983,-0.254818856716156,-0.1765105128288269,3.95516952522712e-16,0.05849443003535271,0.0410887710750103,-0.36303624395859585,-0.36303624395859585,0.3106719573119817,-2.7969113329492377,-2.1642,0.0,-0.006960631261053257,-0.006960631261053285,-0.2043304263061536,0.0018676054201129944,-23.63010061833733,0.0,0.04588801336755512,0.04588801336755373,0.31555656554723116,-0.0050022539209493245,0.18133136391114119,0.0,0.15781700671717977,0.0016577890099754538,0.2982423107928568,0.15,0.0,0.3,-0.09496377428953433,0.0097554476179826,0.0025055857776805947,True,False,True,True,True,False,0
0.90022612,1772662456.8025427,0.012668764218688011,-0.3938092887401581,0.5306288599967957,-0.006902913562953472,0.9156746864318848,-0.02147573046386242,0.0562916174530983,-0.254818856716156,-0.1765105128288269,3.95516952522712e-16,0.05849443003535271,0.0410887710750103,-0.3631754565838169,-0.3631754565838169,0.30658534878585864,-2.7968739808408354,-2.1642,0.0,-0.006208628888255963,-0.006208628888255963,-0.19825024487264475,0.001800730148245222,-23.626555052927465,0.0,0.0376001186398647,0.037600118639866086,0.3040090716754426,-0.0033437635933886126,0.177278270493275,0.0,0.15781700671717977,0.0016577890099754538,0.2982423107928568,0.15,0.0,0.3,-0.09496377428953433,0.0097554476179826,0.0025055857776805947,True,False,True,True,True,False,0
0.920125326,1772662456.8224418,0.019485391676425934,-0.41618624329566956,0.515262246131897,-0.007669903803616762,0.9233445525169373,-0.018024275079369545,0.06536538898944855,-0.20154042541980743,-0.13483965396881104,-0.013696257025003433,0.05849443003535271,0.013696257025003433,-0.36329962916158204,-0.36329962916158204,0.30262034388840575,-2.7968379662378706,-2.1642,0.0,-0.005593118676087555,-0.005593118676087527,-0.19239056843340918,0.001759048151009246,-23.623070349455578,0.0,0.030775510608420348,0.030775510608421736,0.29298382196177836,-0.002084099861798803,0.1742351735943613,0.0,0.15411349127418097,0.0026213311123634217,0.2981198432192819,0.15,0.0,0.3,-0.05310406301449821,-0.0072376445621171945,0.006746799216219344,True,False,True,True,True,False,0
0.940200425,1772662456.8425167,0.019485391676425934,-0.41618624329566956,0.515262246131897,-0.007669903803616762,0.9233445525169373,-0.018024275079369545,0.06536538898944855,-0.20154042541980743,-0.13483965396881104,-0.013696257025003433,0.05849443003535271,0.013696257025003433,-0.36341149153510377,-0.36341149153510377,0.29877253251973757,-2.7968027852748505,-2.1642,0.0,-0.005089867665811348,-0.005089867665811321,-0.18674144131949244,0.0017362978546326957,-23.619631059937007,0.0,0.025162550513810313,0.025162550513810313,0.28245635569583677,-0.0011375148188275108,0.17196447592855418,0.0,0.15411349127418097,0.0026213311123634217,0.2981198432192819,0.15,0.0,0.3,-0.05310406301449821,-0.0072376445621171945,0.006746799216219344,True,True,True,True,True,False,0
0.960343925,1772662456.8626604,0.019485391676425934,-0.41618624329566956,0.515262246131897,-0.007669903803616762,0.9233445525169373,-0.018024275079369545,0.06536538898944855,-0.20154042541980743,-0.13483965396881104,-0.013696257025003433,0.05849443003535271,0.013696257025003433,-0.36351328888842,-0.36351328888842,0.2950377036933477,-2.796768059317758,-2.1642,0.0,-0.004678815260617031,-0.004678815260617031,-0.18129340089638746,0.0017275434651096155,-23.616225520263555,0.0,0.020552620259715864,0.020552620259714476,0.2724020211552489,-0.0004377194761540078,0.17027698367257912,0.0,0.15411349127418097,0.0026213311123634217,0.2981198432192819,0.15,0.0,0.3,-0.05310406301449821,-0.0072376445621171945,0.006746799216219344,True,True,True,True,True,False,0
0.980264047,1772662456.8825805,0.019485391676425934,-0.41618624329566956,0.515262246131897,-0.007669903803616762,0.9233445525169373,-0.018024275079369545,0.06536538898944855,-0.20154042541980743,-0.13483965396881104,-0.013696257025003433,0.05849443003535271,0.013696257025003433,-0.36360686519363233,-0.36360686519363233,0.29141183567541995,-2.796733508448456,-2.1642,0.0,-0.004343361103264443,-0.004343361103264443,-0.17603745427643458,0.0017288966951629625,-23.612845165743536,0.0,0.01677270786762949,0.01677270786762949,0.26279733099764513,6.766150266734914e-05,0.16901772600093146,0.0,0.15411349127418097,0.0026213311123634217,0.2981198432192819,0.15,0.0,0.3,-0.05310406301449821,-0.0072376445621171945,0.006746799216219344,True,True,True,True,True,False,0
1.000289391,1772662456.9026058,0.019485391676425934,-0.41618624329566956,0.515262246131897,-0.007669903803616762,0.9233445525169373,-0.018024275079369545,0.06536538898944855,-0.20154042541980743,-0.13483965396881104,-0.013696257025003433,0.05849443003535271,0.013696257025003433,-0.36369373241569763,-0.36369373241569763,0.28789108658989127,-2.7966989305145527,-2.1642,0.0,-0.0040697757947838475,-0.0040697757947838475,-0.17096507003482642,0.0017373626510153173,-23.60948381322043,0.0,0.01367926542402974,0.01367926542402974,0.25361921208040794,0.000423297792617738,0.16806762615537693,0.0,0.15411349127418097,0.0026213311123634217,0.2981198432192819,0.15,0.0,0.3,-0.05310406301449821,-0.0072376445621171945,0.006746799216219344,True,True,True,True,True,False,0
1.0201255,1772662456.922442,0.020896652713418007,-0.4277467131614685,0.5080180168151855,-0.0070946612395346165,0.9262207746505737,-0.01764077879488468,0.0019174759509041905,-0.09491506218910217,-0.05680522695183754,-0.0034240642562508583,0.037094030529260635,1.9651939411446506e-15,-0.36377512793159333,-0.36377512793159333,0.28447178518919475,-2.7966641832615324,-2.1642,0.0,-0.00384670906349735,-0.0038467090634973222,-0.16606814434333017,0.0017505843957463796,-23.60613723115507,0.0,0.011153336564324868,0.011153336564326256,0.24484628457481206,0.0006610872365531145,0.16732910326791015,0.0,0.15237057393445588,0.002830362775109061,0.2981856526955961,0.15,0.0,0.3,-0.02997453448879665,-0.01603375560167787,0.013192657615371375,True,False,True,True,True,False,0
1.040169129,1772662456.9424856,0.020896652713418007,-0.4277467131614685,0.5080180168151855,-0.0070946612395346165,0.9262207746505737,-0.01764077879488468,0.0019174759509041905,-0.09491506218910217,-0.05680522695183754,-0.0034240642562508583,0.037094030529260635,1.9651939411446506e-15,-0.3638520621128633,-0.3638520621128633,0.2811504223023281,-2.7966291715736173,-2.1642,0.0,-0.003787930785318694,-0.003787930785318694,-0.1614201042363701,0.0019224077894337555,-23.601939969240885,0.0,0.0029389139089328028,0.002938913908931415,0.2324020053480034,0.008591169684368787,0.20986309570929487,0.0,0.15237057393445588,0.002830362775109061,0.2981856526955961,0.150000394024,-2.955180000000008e-07,0.3,-0.029894146448796538,-0.016094046631677867,0.013192657615371375,True,False,True,True,True,False,0
1.060306473,1772662456.962623,0.020896652713418007,-0.4277467131614685,0.5080180168151855,-0.0070946612395346165,0.9262207746505737,-0.01764077879488468,0.0019174759509041905,-0.09491506218910217,-0.05680522695183754,-0.0034240642562508583,0.037094030529260635,1.9651939411446506e-15,-0.36392782072856966,-0.36392782072856966,0.2779220202176007,-2.796590723417829,-2.1642,0.0,-0.0040191441041055875,-0.0040191441041055875,-0.15710439353111139,0.0024048634386706347,-23.59578881353243,0.0,-0.011560665939344673,-0.011560665939344673,0.21578553526293545,0.02412278246184394,0.30755778542275153,0.0,0.15237057393445588,0.002830362775109061,0.2981856526955961,0.150003104768,-2.3285760000000057e-06,0.3,-0.02964384200879664,-0.016281774961677865,0.013192657615371375,True,False,True,True,True,False,0
1.080266842,1772662456.9825833,0.020896652713418007,-0.4277467131614685,0.5080180168151855,-0.0070946612395346165,0.9262207746505737,-0.01764077879488468,0.0019174759509041905,-0.09491506218910217,-0.05680522695183754,-0.0034240642562508583,0.037094030529260635,1.9651939411446506e-15,-0.3640082036106518,-0.3640082036106518,0.27477993234697845,-2.7965426261490554,-2.1642,0.0,-0.004534456471838477,-0.004534456471838477,-0.1531217941646521,0.0031697317087315824,-23.587334234781366,0.0,-0.02576561838664446,-0.02576561838664446,0.19912996832296398,0.03824341350304735,0.4227289375531736,0.0,0.15237057393445588,0.002830362775109061,0.2981856526955961,0.150010319832,-7.739874000000021e-06,0.3,-0.029210824368796594,-0.016606538191677865,0.013192657615371375,True,False,True,True,True,False,0
1.100349794,1772662457.0026662,0.020896652713418007,-0.4277467131614685,0.5080180168151855,-0.0070946612395346165,0.9262207746505737,-0.01764077879488468,0.0019174759509041905,-0.09491506218910217,-0.05680522695183754,-0.0034240642562508583,0.037094030529260635,1.9651939411446506e-15,-0.36409889274008855,-0.36409889274008855,0.2717174964636854,-2.7964792315148808,-2.1642,0.0,-0.005326028437852903,-0.005326028437852903,-0.14947208175354199,0.0041929206380992845,-23.57624842975665,0.0,-0.03957859830072127,-0.03957859830072127,0.1824856205555057,0.05115944646838506,0.5542902512358334,0.0,0.15237057393445588,0.002830362775109061,0.2981856526955961,0.150024088576,-1.8066432000000045e-05,0.3,-0.028583491928796615,-0.017077037521677874,0.013192657615371375,True,False,True,True,True,False,0
1.120199324,1772662457.0225158,0.018904395401477814,-0.43529772758483887,0.5043498873710632,-0.0070946612395346165,0.9299758672714233,-0.01764077879488468,-0.021434642374515533,-0.06539962440729141,-0.03280253708362579,3.935344189701041e-16,0.03424064442515373,1.9651939411446506e-15,-0.3642054133088456,-0.3642054133088456,0.26872805482861456,-2.796395373102119,-2.1642,0.0,-0.006384354988260205,-0.006384354988260232,-0.14615391337237227,0.005453566508048624,-23.562225308586196,0.0,-0.05291632752036502,-0.05291632752036641,0.16590841905848572,0.06303229349746692,0.7011560585226555,0.0,0.1512615228315172,0.0025047112013651227,0.2984658303379465,0.15004632499999998,-3.474375000000009e-05,0.3,-0.015148281693392886,-0.015623552349635268,0.012614190615419966,True,False,True,True,True,False,0
1.140150228,1772662457.0424666,0.018904395401477814,-0.43529772758483887,0.5043498873710632,-0.0070946612395346165,0.9299758672714233,-0.01764077879488468,-0.021434642374515533,-0.06539962440729141,-0.03280253708362579,3.935344189701041e-16,0.03424064442515373,1.9651939411446506e-15,-0.3643331004086108,-0.3643331004086108,0.26580497656116714,-2.796286301771958,-2.1642,0.0,-0.007698510593932173,-0.007698510593932173,-0.14316481722895524,0.0069331806176951005,-23.54498030179099,0.0,-0.06570778028359836,-0.06570778028359697,0.1494548071708511,0.07398070548232376,0.8622503397603501,0.0,0.1512615228315172,0.0025047112013651227,0.2984658303379465,0.150078810624,-5.910796800000016e-05,0.3,-0.014102151653392713,-0.01640814987963527,0.012614190615419966,True,False,True,True,True,False,0
1.160297738,1772662457.062614,0.018904395401477814,-0.43529772758483887,0.5043498873710632,-0.0070946612395346165,0.9299758672714233,-0.01764077879488468,-0.021434642374515533,-0.06539962440729141,-0.03280253708362579,3.935344189701041e-16,0.03424064442515373,1.9651939411446506e-15,-0.3644870706204894,-0.3644870706204894,0.26294168021658804,-2.796147638159604,-2.1642,0.0,-0.009256367704988527,-0.009256367704988555,-0.14050119914363934,0.008615001937542388,-23.524250078060096,0.0,-0.07789285555281765,-0.07789285555281904,0.13318090426579487,0.08409106599236431,1.0365111865446854,0.0,0.1512615228315172,0.0025047112013651227,0.2984658303379465,0.150123197368,-9.239802600000023e-05,0.3,-0.012833785213392634,-0.017359424709635272,0.012614190615419966,True,False,True,True,True,False,0
1.180230677,1772662457.0825472,0.018904395401477814,-0.43529772758483887,0.5043498873710632,-0.0070946612395346165,0.9299758672714233,-0.01764077879488468,-0.021434642374515533,-0.06539962440729141,-0.03280253708362579,3.935344189701041e-16,0.03424064442515373,1.9651939411446506e-15,-0.36467219797458916,-0.36467219797458916,0.26013165623371526,-2.7959753381208534,-2.1642,0.0,-0.011044772963644478,-0.011044772963644478,-0.1381583819444111,0.010483911766363097,-23.499792251545166,0.0,-0.08942026293279845,-0.08942026293279706,0.1171408599614133,0.09344549144103638,1.2228913257464793,0.0,0.1512615228315172,0.0025047112013651227,0.2984658303379465,0.150181010432,-0.0001357578239999998,0.3,-0.011336073573392749,-0.018482708439635263,0.012614190615419966,True,False,True,True,True,False,0
1.200156132,1772662457.1024725,0.018904395401477814,-0.43529772758483887,0.5043498873710632,-0.0070946612395346165,0.9299758672714233,-0.01764077879488468,-0.021434642374515533,-0.06539962440729141,-0.03280253708362579,3.935344189701041e-16,0.03424064442515373,1.9651939411446506e-15,-0.36489309343386206,-0.36489309343386206,0.257368488594827,-2.795765659885526,-2.1642,0.0,-0.013049719112664032,-0.013049719112664004,-0.13613064601287983,0.012525913855579773,-23.471384829335445,0.0,-0.10024730745097762,-0.10024730745097624,0.10138679657656349,0.10210010446083374,1.4203711104860504,0.0,0.1512615228315172,0.0025047112013651227,0.2984658303379465,0.15025365117599998,-0.00019023838199999982,0.3,-0.009602959133392892,-0.019782544269635265,0.012614190615419966,True,False,True,True,True,False,0
1.220125645,1772662457.122442,0.016758739948272705,-0.43942031264305115,0.5028024911880493,-0.0070946612395346165,0.9319732189178467,-0.01764077879488468,-0.0232151560485363,-0.033521588891744614,-0.010306433774530888,3.935344189701041e-16,0.01997370831668377,1.9651939411446506e-15,-0.36515408781611536,-0.36515408781611536,0.2546458756745694,-2.7955151416084143,-2.1642,0.0,-0.015256471903354496,-0.015256471903354496,-0.13441126941989534,0.014728128236932037,-23.438825943812102,0.0,-0.1103376395345231,-0.11033763953452448,0.0859688296492244,0.11011071906761306,1.6279442761671687,0.0,0.1507192997837708,0.0021704414467120093,0.29872225450851086,0.15034240000000001,-0.00025679999999999985,0.3,-7.329799654373463e-06,-0.02200552888430519,0.011968192216789434,True,False,True,True,True,False,0
1.240138284,1772662457.1424549,0.016758739948272705,-0.43942031264305115,0.5028024911880493,-0.0070946612395346165,0.9319732189178467,-0.01764077879488468,-0.0232151560485363,-0.033521588891744614,-0.010306433774530888,3.935344189701041e-16,0.01997370831668377,1.9651939411446506e-15,-0.36545921725418246,-0.36545921725418246,0.2519576502861715,-2.7952205790436757,-2.1642,0.0,-0.01764970142673067,-0.01764970142673067,-0.13299260213960984,0.01707846275531688,-23.40193334411198,0.0,-0.11966147616880851,-0.11966147616880851,0.07093336401427501,0.11751672591924212,1.8446299850060284,0.0,0.1507192997837708,0.0021704414467120093,0.29872225450851086,0.15044841922399999,-0.0003363144179999999,0.3,0.0022107022403453323,-0.023669052914305194,0.011968192216789434,True,False,True,True,True,False,0
1.260127739,1772662457.162444,0.016758739948272705,-0.43942031264305115,0.5028024911880493,-0.0070946612395346165,0.9319732189178467,-0.01764077879488468,-0.0232151560485363,-0.033521588891744614,-0.010306433774530888,3.935344189701041e-16,0.01997370831668377,1.9651939411446506e-15,-0.36581221128271707,-0.36581221128271707,0.2492977982433793,-2.7948790097885694,-2.1642,0.0,-0.02021358642979809,-0.02021358642979809,-0.13186605578010013,0.019565865399898907,-23.360543989253685,0.0,-0.12819425015337105,-0.12819425015337105,0.05632731797548524,0.1243701322291012,2.0694677429148083,0.0,0.1507192997837708,0.0021704414467120093,0.29872225450851086,0.15057275596800002,-0.00042956697599999994,0.3,0.004676290680345642,-0.025518244244305193,0.011968192216789434,True,False,True,True,True,False,0
1.280134882,1772662457.1824512,0.016758739948272705,-0.43942031264305115,0.5028024911880493,-0.0070946612395346165,0.9319732189178467,-0.01764077879488468,-0.0232151560485363,-0.033521588891744614,-0.010306433774530888,3.935344189701041e-16,0.01997370831668377,1.9651939411446506e-15,-0.36621648301131304,-0.36621648301131304,0.2466604771277773,-2.7944876924805713,-2.1642,0.0,-0.02293191612793824,-0.022931916127938212,-0.13102220316059887,0.022179738012461758,-23.314513618696942,0.0,-0.1359164849070073,-0.13591648490700592,0.04219263097506306,0.13069363062814243,2.3015185278371297,0.0,0.1507192997837708,0.0021704414467120093,0.29872225450851086,0.150716345032,-0.000537258774,0.3,0.007391576320345359,-0.027554708474305196,0.011968192216789434,True,False,True,True,True,False,0
1.300154402,1772662457.202471,0.016758739948272705,-0.43942031264305115,0.5028024911880493,-0.0070946612395346165,0.9319732189178467,-0.01764077879488468,-0.0232151560485363,-0.033521588891744614,-0.010306433774530888,3.935344189701041e-16,0.01997370831668377,1.9651939411446506e-15,-0.3666751213338718,-0.3666751213338718,0.24404003306456531,-2.794044097720322,-2.1642,0.0,-0.02578817855934018,-0.02578817855934018,-0.13045080388435215,0.024910299718572837,-23.26371631806552,0.0,-0.14281312157009687,-0.14281312157009826,0.028569963812335984,0.13652808530555383,2.5398650315711513,0.0,0.1507192997837708,0.0021704414467120093,0.29872225450851086,0.150880011776,-0.0006600088320000002,0.3,0.01035779276034543,-0.0297793708043052,0.011968192216789434,True,False,True,True,True,False,0
1.320163919,1772662457.2224803,0.013780900277197361,-0.4415276050567627,0.5027161836624146,-0.0070946612395346165,0.9330917596817017,-0.01764077879488468,-0.03009752556681633,-0.014415310695767403,-6.848128396086395e-05,3.935344189701041e-16,0.008560161106288433,1.9651939411446506e-15,-0.36719088490505863,-0.36719088490505863,0.24143101698687827,-2.7935458917259504,-2.1642,0.0,-0.028765649014229122,-0.028765649014229122,-0.1301407999454388,0.02774832586432474,-23.20804418305,0.0,-0.14887352274444696,-0.14887352274444696,0.015500196945666941,0.14190130728759506,2.7836067507759994,0.0,0.15052768104200506,0.0017185958591676973,0.2990185734916868,0.151064475,-0.0007983562500000003,0.3,0.016444492205130282,-0.02946061619745216,0.009853625447813992,True,False,True,True,True,False,0
1.340126517,1772662457.242443,0.013780900277197361,-0.4415276050567627,0.5027161836624146,-0.0070946612395346165,0.9330917596817017,-0.01764077879488468,-0.03009752556681633,-0.014415310695767403,-6.848128396086395e-05,3.935344189701041e-16,0.008560161106288433,1.9651939411446506e-15,-0.3677661978853432,-0.3677661978853432,0.2388282009879695,-2.792990925208664,-2.1642,0.0,-0.03184746417896439,-0.03184746417896439,-0.13008041963160277,0.03068500043578526,-23.1474069171295,0.0,-0.1540907582367633,-0.1540907582367633,0.0030190156918019602,0.14683372857302576,3.031863296024892,0.0,0.15052768104200506,0.0017185958591676973,0.2990185734916868,0.151270349824,-0.0009527623680000004,0.3,0.019912786245130303,-0.032061836727452164,0.009853625447813992,True,False,True,True,True,False,0
1.360204788,1772662457.262521,0.013780900277197361,-0.4415276050567627,0.5027161836624146,-0.0070946612395346165,0.9330917596817017,-0.01764077879488468,-0.03009752556681633,-0.014415310695767403,-6.848128396086395e-05,3.935344189701041e-16,0.008560161106288433,1.9651939411446506e-15,-0.3684031471689225,-0.3684031471689225,0.23622659259533743,-2.792377225199948,-2.1642,0.0,-0.03501670118276007,-0.03501670118276007,-0.1302571406555192,0.033712153627333485,-23.08173154695627,0.0,-0.15846185018978373,-0.15846185018978373,-0.008836051195820751,0.15135765957741118,3.2837685086615633,0.0,0.15052768104200506,0.0017185958591676973,0.2990185734916868,0.151498150568,-0.0011236129260000006,0.3,0.023630556685130314,-0.03485016455745216,0.009853625447813992,True,False,True,True,True,False,0
1.380180679,1772662457.282497,0.013780900277197361,-0.4415276050567627,0.5027161836624146,-0.0070946612395346165,0.9330917596817017,-0.01764077879488468,-0.03009752556681633,-0.014415310695767403,-6.848128396086395e-05,3.935344189701041e-16,0.008560161106288433,1.9651939411446506e-15,-0.3691034811925777,-0.3691034811925777,0.23362144978222704,-2.7917029821274015,-2.1642,0.0,-0.03825645020409085,-0.03825645020409085,-0.13065776322004585,0.03682187914411328,-23.010962054521208,0.0,-0.16198745106653908,-0.16198745106653908,-0.020031128226333222,0.15548627583898952,3.538474621753093,0.0,0.15052768104200506,0.0017185958591676973,0.2990185734916868,0.151748293632,-0.001311220224000001,0.3,0.027595696325130113,-0.03782401928745217,0.009853625447813992,True,False,True,True,True,False,0
1.400180786,1772662457.3024974,0.013780900277197361,-0.4415276050567627,0.5027161836624146,-0.0070946612395346165,0.9330917596817017,-0.01764077879488468,-0.03009752556681633,-0.014415310695767403,-6.848128396086395e-05,3.935344189701041e-16,0.008560161106288433,1.9651939411446506e-15,-0.3698686101966595,-0.3698686101966595,0.23100829451782612,-2.7909665445445193,-2.1642,0.0,-0.04154988489463457,-0.04154988489463457,-0.13126844119228365,0.0400067138983462,-22.93505910239486,0.0,-0.16467173452718573,-0.16467173452718573,-0.03053389861188968,0.15924173771164604,3.7951476063174248,0.0,0.15052768104200506,0.0017185958591676973,0.2990185734916868,0.15202110037600003,-0.0015158252820000012,0.3,0.03180533476513055,-0.04098124811745217,0.009853625447813992,True,False,True,True,True,False,0
1.420103038,1772662457.3224194,0.009873083792626858,-0.4411326050758362,0.5037688612937927,-0.0070946612395346165,0.9331716299057007,-0.020133497193455696,-0.043314412236213684,0.008697123266756535,0.017223043367266655,3.935344189701041e-16,1.506731217454393e-15,-0.023968450725078583,-0.3706996078945522,-0.3706996078945522,0.22838292569398044,-2.7901664102665524,-2.1642,0.0,-0.044880331066552204,-0.044880331066552204,-0.13207470976257552,0.043259460672086636,-22.853999737920965,0.0,-0.16652230859588155,-0.16652230859588155,-0.04031342851459337,0.16263733868702154,4.052968223694716,0.0,0.15068222716418297,0.0011318023958607083,0.2992075882412729,0.1523168,-0.0017376000000000017,0.3,0.035860754785966995,-0.04007811045641414,0.009453361232896994,True,False,True,True,True,False,0
1.440149011,1772662457.3424656,0.009873083792626858,-0.4411326050758362,0.5037688612937927,-0.0070946612395346165,0.9331716299057007,-0.020133497193455696,-0.043314412236213684,0.008697123266756535,0.017223043367266655,3.935344189701041e-16,1.506731217454393e-15,-0.023968450725078583,-0.37159721451588323,-0.37159721451588323,0.22574143149872897,-2.7893012210531105,-2.1642,0.0,-0.04823133121789619,-0.04823133121789619,-0.13306149855637628,0.04657323530156665,-22.767777223323836,0.0,-0.167550007567201,-0.167550007567201,-0.049339439690038685,0.16568873147400245,4.31112572985648,0.0,0.15068222716418297,0.0011318023958607083,0.2992075882412729,0.152635532424,-0.001976649317999999,0.3,0.040547870825966885,-0.04359344748641411,0.009453361232896994,True,False,True,True,True,False,0
1.460166162,1772662457.3624825,0.009873083792626858,-0.4411326050758362,0.5037688612937927,-0.0070946612395346165,0.9331716299057007,-0.020133497193455696,-0.043314412236213684,0.008697123266756535,0.017223043367266655,3.935344189701041e-16,1.506731217454393e-15,-0.023968450725078583,-0.37256184114024116,-0.37256184114024116,0.22308020152760144,-2.788369756347079,-2.1642,0.0,-0.051586711996410184,-0.051586711996410184,-0.13421320992065444,0.049941343256392656,-22.67640072026184,0.0,-0.16776903892569958,-0.16776903892569958,-0.057585568213908096,0.16840539774130012,4.5688251530998825,0.0,0.15068222716418297,0.0011318023958607083,0.2992075882412729,0.15297735116799996,-0.002233013375999999,0.3,0.045466583265966545,-0.04728248181641411,0.009453361232896994,True,False,True,True,True,False,0
1.480214043,1772662457.3825305,0.009873083792626858,-0.4411326050758362,0.5037688612937927,-0.0070946612395346165,0.9331716299057007,-0.020133497193455696,-0.043314412236213684,0.008697123266756535,0.017223043367266655,3.935344189701041e-16,1.506731217454393e-15,-0.023968450725078583,-0.37359357538016935,-0.37359357538016935,0.22039593732918836,-2.787370929481951,-2.1642,0.0,-0.054930648513869,-0.05493064851386903,-0.13551374230471258,0.05335722630121342,-22.57989507242204,0.0,-0.16719682587294074,-0.16719682587294213,-0.06502661920290692,0.1707941522410382,4.825282391989911,0.0,0.15068222716418297,0.0011318023958607083,0.2992075882412729,0.153342226232,-0.002506669674,0.3,0.05061125690596696,-0.05114098704641412,0.009453361232896994,True,False,True,True,True,False,0
1.500190619,1772662457.402507,0.009873083792626858,-0.4411326050758362,0.5037688612937927,-0.0070946612395346165,0.9331716299057007,-0.020133497193455696,-0.043314412236213684,0.008697123266756535,0.017223043367266655,3.935344189701041e-16,1.506731217454393e-15,-0.023968450725078583,-0.3746921883504467,-0.3746921883504467,0.2176856624830941,-2.7863037849559267,-2.1642,0.0,-0.05824771890774011,-0.05824771890774011,-0.13694654830405106,0.056814472677061634,-22.47830065548406,0.0,-0.16585351969355525,-0.16585351969355386,-0.07164029996692405,0.17286231879241037,5.079720846899067,0.0,0.15068222716418297,0.0011318023958607083,0.2992075882412729,0.15373004697599998,-0.002797535232,0.3,0.05597563734596681,-0.055164272376414115,0.009453361232896994,True,False,True,True,True,False,0
1.520155414,1772662457.422472,0.0033498306293040514,-0.43714043498039246,0.5074753761291504,-0.0070946612395346165,0.9331716299057007,-0.02473543956875801,-0.06738558411598206,0.04927228391170502,0.041259974241256714,3.935344189701041e-16,1.506731217454393e-15,-0.05136096477508545,-0.3758571427286015,-0.3758571427286015,0.21494673151701307,-2.7851674955023853,-2.1642,0.0,-0.06152296840127244,-0.06152296840127247,-0.13849465434610553,0.06030679485871904,-22.371673114645336,0.0,-0.16376247467661656,-0.16376247467661795,-0.07740530210272316,0.17461610908287,5.331377041936132,0.0,0.1513739915884071,0.0001511622271970358,0.29947992924060757,0.154140625,-0.00310546875,0.3,0.05628922904763894,-0.051920201107864175,0.008856744886508543,True,False,True,True,True,False,0
1.540331127,1772662457.4426475,0.0033498306293040514,-0.43714043498039246,0.5074753761291504,-0.0070946612395346165,0.9331716299057007,-0.02473543956875801,-0.06738558411598206,0.04927228391170502,0.041259974241256714,3.935344189701041e-16,1.506731217454393e-15,-0.05136096477508545,-0.37708760209662695,-0.37708760209662695,0.21217683843009097,-2.783961359605211,-2.1642,0.0,-0.06474196201793686,-0.06474196201793686,-0.1401407631818402,0.06382791363691709,-22.26008312335858,0.0,-0.16094968083322073,-0.16094968083321934,-0.08230544178673409,0.1760559389099024,5.579499564337803,0.0,0.1513739915884071,0.0001511622271970358,0.29947992924060757,0.15457369702399998,-0.0034302727680000002,0.3,0.0620719270876387,-0.05625722463786417,0.008856744886508543,True,False,True,True,True,False,0
1.560246719,1772662457.462563,0.0033498306293040514,-0.43714043498039246,0.5074753761291504,-0.0070946612395346165,0.9331716299057007,-0.02473543956875801,-0.06738558411598206,0.04927228391170502,0.041259974241256714,3.935344189701041e-16,1.506731217454393e-15,-0.05136096477508545,-0.3783824413369857,-0.3783824413369857,0.20937402316645418,-2.7826848013324725,-2.1642,0.0,-0.06789084121701511,-0.06789084121701511,-0.14186730982728957,0.06737146952753958,-22.1436162216619,0.0,-0.15744395995391222,-0.15744395995391222,-0.08632733227246772,0.17717779453112464,5.823345084833948,0.0,0.1513739915884071,0.0001511622271970358,0.29947992924060757,0.155028927768,-0.003771695826,0.3,0.06805214152763897,-0.060742385467864174,0.008856744886508543,True,False,True,True,True,False,0
1.580270353,1772662457.4825866,0.0033498306293040514,-0.43714043498039246,0.5074753761291504,-0.0070946612395346165,0.9331716299057007,-0.02473543956875801,-0.06738558411598206,0.04927228391170502,0.041259974241256714,3.935344189701041e-16,1.506731217454393e-15,-0.05136096477508545,-0.379740258161326,-0.379740258161326,0.20653667696990838,-2.781337371941922,-2.1642,0.0,-0.07095636570401775,-0.07095636570401775,-0.14365648662161568,0.07093122613860725,-22.0223725797759,0.0,-0.1532762243501322,-0.1532762243501322,-0.08945883971630533,0.17798783055338313,6.062182094300001,0.0,0.1513739915884071,0.0001511622271970358,0.29947992924060757,0.155505912832,-0.0041294346240000005,0.3,0.07422142916763882,-0.06536935119786419,0.008856744886508543,True,False,True,True,True,False,0
1.600248324,1772662457.5025647,0.0033498306293040514,-0.43714043498039246,0.5074753761291504,-0.0070946612395346165,0.9331716299057007,-0.02473543956875801,-0.06738558411598206,0.04927228391170502,0.041259974241256714,3.935344189701041e-16,1.506731217454393e-15,-0.05136096477508545,-0.38115938547540634,-0.38115938547540634,0.20366354723747607,-2.7799187474191496,-2.1642,0.0,-0.07392596774956894,-0.07392596774956894,-0.14549036196328213,0.07450077225383378,-21.896466691065772,0.0,-0.14848010227755934,-0.14848010227755934,-0.0916937670833228,0.1784773057613263,6.2952944355064435,0.0,0.1513739915884071,0.0001511622271970358,0.29947992924060757,0.156004181576,-0.0045031361820000015,0.3,0.0805708716076388,-0.0701314330278642,0.008856744886508543,True,False,True,True,True,False,0
1.620142668,1772662457.522459,-0.004910655785351992,-0.42918097972869873,0.5132891535758972,-0.0070946612395346165,0.9331716299057007,-0.03259709104895592,-0.0856700912117958,0.08875174820423126,0.06385879963636398,3.935344189701041e-16,1.506731217454393e-15,-0.08560160547494888,-0.3826379048303977,-0.3826379048303977,0.20075373999821042,-2.778428731974073,-2.1642,0.0,-0.07678778521721244,-0.07678778521721241,-0.14735096158421856,0.0780736098461885,-21.766027186128852,0.0,-0.14309087338217466,-0.14309087338217327,-0.0930299810468215,0.17864187961773564,6.521975246845984,0.0,0.15254677476817946,-0.0011050100578817881,0.2996424083524227,0.1565232,-0.004892400000000001,0.3,0.07713491991653834,-0.06535048499739168,0.009216166730217062,True,False,True,True,True,False,0
1.640302234,1772662457.5426185,-0.004910655785351992,-0.42918097972869873,0.5132891535758972,-0.0070946612395346165,0.9331716299057007,-0.03259709104895592,-0.0856700912117958,0.08875174820423126,0.06385879963636398,3.935344189701041e-16,1.506731217454393e-15,-0.08560160547494888,-0.384173660534742,-0.384173660534742,0.19780672076652606,-2.776867259777149,-2.1642,0.0,-0.07953070392628989,-0.07953070392628991,-0.14922029475288778,0.08164318287902717,-21.63119653921373,0.0,-0.13714593545387221,-0.137145935453875,-0.09346665843346083,0.17847865164193327,6.7415323457561565,0.0,0.15254677476817946,-0.0011050100578817881,0.2996424083524227,0.157062373624,-0.005296780218000003,0.3,0.0838161599565383,-0.07036141502739171,0.009216166730217062,True,False,True,True,True,False,0
1.66022507,1772662457.5625415,-0.004910655785351992,-0.42918097972869873,0.5132891535758972,-0.0070946612395346165,0.9331716299057007,-0.03259709104895592,-0.0856700912117958,0.08875174820423126,0.06385879963636398,3.935344189701041e-16,1.506731217454393e-15,-0.08560160547494888,-0.3857642746132678,-0.3857642746132678,0.1948223148714683,-2.7752343961195685,-2.1642,0.0,-0.08214439061901779,-0.08214439061901779,-0.15108052646352166,0.08520267398299275,-21.492130657509815,0.0,-0.13068433463639523,-0.13068433463639384,-0.09301158553169367,0.17797455519827904,6.9532940851956875,0.0,0.15254677476817946,-0.0011050100578817881,0.2996424083524227,0.157621050368,-0.005715787776000002,0.3,0.09064823639653838,-0.0754854723573917,0.009216166730217062,True,False,True,True,True,False,0
1.680239413,1772662457.582556,-0.004910655785351992,-0.42918097972869873,0.5132891535758972,-0.0070946612395346165,0.9331716299057007,-0.03259709104895592,-0.0856700912117958,0.08875174820423126,0.06385879963636398,3.935344189701041e-16,1.506731217454393e-15,-0.08560160547494888,-0.38740716242564815,-0.38740716242564815,0.19180070434219787,-2.7735303426399085,-2.1642,0.0,-0.0846193199104007,-0.08461931991040073,-0.1529140015691438,0.08874513167697407,-21.348998651157682,0.0,-0.12374646456914512,-0.12374646456914651,-0.09167375528110747,0.17712288469906562,7.1566003176066255,0.0,0.15254677476817946,-0.0011050100578817881,0.2996424083524227,0.158198523432,-0.006148892574000004,0.3,0.09762061803653832,-0.08071475858739173,0.009216166730217062,True,True,True,True,True,False,0
1.700334442,1772662457.602651,-0.004910655785351992,-0.42918097972869873,0.5132891535758972,-0.0070946612395346165,0.9331716299057007,-0.03259709104895592,-0.0856700912117958,0.08875174820423126,0.06385879963636398,3.935344189701041e-16,1.506731217454393e-15,-0.08560160547494888,-0.38909954882385617,-0.38909954882385617,0.18874242431081503,-2.771755440006369,-2.1642,0.0,-0.08694679379196843,-0.0869467937919684,-0.15470334975829536,0.09226348651064686,-21.201982361055837,0.0,-0.1163736940783878,-0.11637369407838502,-0.0894674094575785,0.17591774168364174,7.350814505092349,0.0,0.15254677476817946,-0.0011050100578817881,0.2996424083524227,0.15879403417600002,-0.006595525631999999,0.3,0.10472244247653853,-0.08604112691739166,0.009216166730217062,True,True,True,True,True,False,0
1.7201239,1772662457.62244,-0.01667437143623829,-0.41683050990104675,0.5223933458328247,-0.0070946612395346165,0.9310944080352783,-0.04314320906996727,-0.12456745654344559,0.13336730003356934,0.09953755140304565,3.935344189701041e-16,-0.025680482387542725,-0.1232663169503212,-0.3908384846996955,-0.3908384846996955,0.18564835731564913,-2.7699101702761557,-2.1642,0.0,-0.08911896281820547,-0.08911896281820547,-0.15643160354579833,0.09575035249173558,-21.051276050799853,0.0,-0.108608451311852,-0.10860845131185339,-0.08641268937514815,0.17434329905443563,7.535315512799194,0.0,0.15449744583549613,-0.002931748903388995,0.2998933106279341,0.159406775,-0.0070550812499999985,0.3,0.09437622177210903,-0.07506237451654929,0.009669589116002651,True,True,True,True,True,False,0
1.740391346,1772662457.6427078,-0.01667437143623829,-0.41683050990104675,0.5223933458328247,-0.0070946612395346165,0.9310944080352783,-0.04314320906996727,-0.12456745654344559,0.13336730003356934,0.09953755140304565,3.935344189701041e-16,-0.025680482387542725,-0.1232663169503212,-0.3926208639560596,-0.3926208639560596,0.18251972524473317,-2.767995163226321,-2.1642,0.0,-0.09112884140224053,-0.09112884140224053,-0.15808226831146566,0.0991981657959835,-20.89708577360982,0.0,-0.10049392920175307,-0.10049392920175307,-0.08253323828336649,0.17239066521239615,7.7095138595016195,0.0,0.15449744583549613,-0.002931748903388995,0.2998933106279341,0.160035892224,-0.007526919168,0.3,0.10170316381210902,-0.08055758104654931,0.009669589116002651,True,True,True,True,True,False,0
1.760327638,1772662457.662644,-0.01667437143623829,-0.41683050990104675,0.5223933458328247,-0.0070946612395346165,0.9310944080352783,-0.04314320906996727,-0.12456745654344559,0.13336730003356934,0.09953755140304565,3.935344189701041e-16,-0.025680482387542725,-0.1232663169503212,-0.3944434407841044,-0.3944434407841044,0.17935807987850386,-2.7660111999104013,-2.1642,0.0,-0.09297030910988371,-0.09297030910988369,-0.15963943321951501,0.1025990702068027,-20.739629082731184,0.0,-0.0920733853821589,-0.09207338538215751,-0.07785824540246782,0.17004522054095958,7.872834543931788,0.0,0.15449744583549613,-0.002931748903388995,0.2998933106279341,0.160680488968,-0.008010366726,0.3,0.109125262252109,-0.08612415487654929,0.009669589116002651,True,True,True,True,True,False,0
1.780244684,1772662457.682561,-0.01667437143623829,-0.41683050990104675,0.5223933458328247,-0.0070946612395346165,0.9310944080352783,-0.04314320906996727,-0.12456745654344559,0.13336730003356934,0.09953755140304565,3.935344189701041e-16,-0.025680482387542725,-0.1232663169503212,-0.3963028469663021,-0.3963028469663021,0.17616529121411356,-2.7639592185062654,-2.1642,0.0,-0.09463811940698855,-0.09463811940698852,-0.16108785175620555,0.10594503372421515,-20.579134276918104,0.0,-0.08339051485524156,-0.08339051485524156,-0.07242092683452654,0.16729817587062254,8.024740290654002,0.0,0.15449744583549613,-0.002931748903388995,0.2998933106279341,0.161339628032,-0.008504721024000001,0.3,0.11663061789210902,-0.0917531716065493,0.009669589116002651,True,True,True,True,True,False,0
1.800300861,1772662457.7026174,-0.01667437143623829,-0.41683050990104675,0.5223933458328247,-0.0070946612395346165,0.9310944080352783,-0.04314320906996727,-0.12456745654344559,0.13336730003356934,0.09953755140304565,3.935344189701041e-16,-0.025680482387542725,-0.1232663169503212,-0.39819560935444187,-0.39819560935444187,0.17294353417898944,-2.761840317831781,-2.1642,0.0,-0.09612789020502935,-0.09612789020502932,-0.1624130336200882,0.10922774773330701,-20.415840021304824,0.0,-0.07448853990204,-0.07448853990204,-0.06625909319413198,0.16413570045459278,8.164712780664011,0.0,0.15449744583549613,-0.002931748903388995,0.2998933106279341,0.16201233477600002,-0.009009251082,0.3,0.12420714433210928,-0.09743556643654933,0.009669589116002651,True,True,True,True,True,False,0
1.820227042,1772662457.7225435,-0.029968231916427612,-0.4008752107620239,0.5338253378868103,-0.006711165886372328,0.9267001748085022,-0.05541505664587021,-0.13559293746948242,0.1671970635652542,0.116726353764534,0.0034240642562508583,-0.045654188841581345,-0.12669037282466888,-0.4001181671585425,-0.4001181671585425,0.16969527350658767,-2.7596557628771152,-2.1642,0.0,-0.09743610286796545,-0.09743610286796545,-0.1636013360418198,0.1124386218773199,-20.24999456879488,0.0,-0.06541063314680484,-0.06541063314680623,-0.059415121086581146,0.16054370720064423,8.292272625497247,0.0,0.15707439666330553,-0.005043738988711525,0.30010037285989744,0.1626976,-0.009523200000000004,0.3,0.10790865627336185,-0.08537963706080558,0.009040066898122534,True,True,True,True,True,False,0
1.840285126,1772662457.7426014,-0.029968231916427612,-0.4008752107620239,0.5338253378868103,-0.006711165886372328,0.9267001748085022,-0.05541505664587021,-0.13559293746948242,0.1671970635652542,0.116726353764534,0.0034240642562508583,-0.045654188841581345,-0.12669037282466888,-0.4020668892159018,-0.4020668892159018,0.16642324678575127,-2.7574069904395686,-2.1642,0.0,-0.09856008727891716,-0.09856008727891713,-0.16464003158153506,0.11556883168983356,-20.081855181245505,0.0,-0.056199220547585534,-0.056199220547584146,-0.051934776985762494,0.15651049062568298,8.406969377468691,0.0,0.15707439666330553,-0.005043738988711525,0.30010037285989744,0.163394382824,-0.010045787117999999,0.3,0.11559066031336203,-0.09114114009080551,0.009040066898122534,True,True,True,True,True,False,0
1.860328154,1772662457.7626445,-0.029968231916427612,-0.4008752107620239,0.5338253378868103,-0.006711165886372328,0.9267001748085022,-0.05541505664587021,-0.13559293746948242,0.1671970635652542,0.116726353764534,0.0034240642562508583,-0.045654188841581345,-0.12669037282466888,-0.40403809096148013,-0.40403809096148013,0.16313044615412056,-2.755095613805772,-2.1642,0.0,-0.09949800395959285,-0.09949800395959285,-0.1655173832760276,0.11860934377323629,-19.911687338426248,0.0,-0.046895834033784625,-0.04689583403378601,-0.04386758472462722,0.15202560417013608,8.508392140962854,0.0,0.15707439666330553,-0.005043738988711525,0.30010037285989744,0.164101613568,-0.010576210176,0.3,0.12330674075336177,-0.09692820042080552,0.009040066898122534,True,True,True,True,True,False,0
1.880314733,1772662457.7826312,-0.029968231916427612,-0.4008752107620239,0.5338253378868103,-0.006711165886372328,0.9267001748085022,-0.05541505664587021,-0.13559293746948242,0.1671970635652542,0.116726353764534,0.0034240642562508583,-0.045654188841581345,-0.12669037282466888,-0.40602805104067197,-0.40602805104067197,0.15982009848860002,-2.752723426930307,-2.1642,0.0,-0.10024882625896903,-0.10024882625896903,-0.1662227291497267,0.12155079068838281,-19.739764139672488,0.0,-0.03754111496880871,-0.03754111496880871,-0.035267293684954036,0.14707234575732628,8.596159937687979,0.0,0.15707439666330553,-0.005043738988711525,0.30010037285989744,0.164818196632,-0.011113647474,0.3,0.13104435039336199,-0.10273140765080553,0.009040066898122534,True,True,True,True,True,False,0
1.900366873,1772662457.8026834,-0.029968231916427612,-0.4008752107620239,0.5338253378868103,-0.006711165886372328,0.9267001748085022,-0.05541505664587021,-0.13559293746948242,0.1671970635652542,0.116726353764534,0.0034240642562508583,-0.045654188841581345,-0.12669037282466888,-0.40803302756585136,-0.40803302756585136,0.15649564390560547,-2.7502924111165394,-2.1642,0.0,-0.10081231499032806,-0.10081231499032806,-0.16674651960978326,0.12438368280851719,-19.566365315827685,0.0,-0.028174436567951464,-0.028174436567951464,-0.026189523002828594,0.14164460600671877,8.669941192240131,0.0,0.15707439666330553,-0.005043738988711525,0.30010037285989744,0.165543013376,-0.011657260032000004,0.3,0.13879089883336188,-0.10854131898080557,0.009040066898122534,True,True,True,True,True,False,0
1.920190927,1772662457.8225074,-0.04416714236140251,-0.3821913003921509,0.5475947260856628,-0.006711165886372328,0.9220662713050842,-0.0692208856344223,-0.15439105033874512,0.20499873161315918,0.14884407818317413,3.935344189701041e-16,-0.057067736983299255,-0.14723476767539978,-0.4100492738656579,-0.4100492738656579,0.1531607135134098,-2.747804737460369,-2.1642,0.0,-0.1011889865431784,-0.10118898654317843,-0.16708036137499882,0.12709829552084573,-19.391776600045738,0.0,-0.01883357764251718,-0.018833577642518567,-0.016692088260777935,0.13573063561642662,8.729435789097366,0.0,0.16010042617038364,-0.007409819562777942,0.30037457563608416,0.166274925,-0.012206193750000004,0.3,0.11863690240471263,-0.09367979947630627,0.008790508410557273,True,True,True,True,True,False,0
1.940233868,1772662457.8425503,-0.04416714236140251,-0.3821913003921509,0.5475947260856628,-0.006711165886372328,0.9220662713050842,-0.0692208856344223,-0.15439105033874512,0.20499873161315918,0.14884407818317413,3.935344189701041e-16,-0.057067736983299255,-0.14723476767539978,-0.41207305359652147,-0.41207305359652147,0.14981910628590986,-2.7452627715499522,-2.1642,0.0,-0.10138008939914595,-0.10138008939914595,-0.16721709905981075,0.1296846301365311,-19.216288747024805,0.0,-0.009555142798377367,-0.009555142798375979,-0.006836884240596434,0.1293167307842693,8.774392651046714,0.0,0.16010042617038364,-0.007409819562777942,0.30037457563608416,0.167012775424,-0.012759581568,0.3,0.1263635284447127,-0.09947476900630622,0.008790508410557273,True,True,True,True,True,False,0
1.960263471,1772662457.86258,-0.04416714236140251,-0.3821913003921509,0.5475947260856628,-0.006711165886372328,0.9220662713050842,-0.0692208856344223,-0.15439105033874512,0.20499873161315918,0.14884407818317413,3.935344189701041e-16,-0.057067736983299255,-0.14723476767539978,-0.4141006553845044,-0.4141006553845044,0.14647476430471365,-2.7426690789472215,-2.1642,0.0,-0.10138756218046871,-0.10138756218046868,-0.16715078025119623,0.1321326609061364,-19.040196734004617,0.0,-0.0003736390661382424,-0.0003736390661368546,0.0033159404307259136,0.12240153848026558,8.804600651009402,0.0,0.16010042617038364,-0.007409819562777942,0.30037457563608416,0.167755394168,-0.013316545626000001,0.3,0.13406135088471277,-0.10524813583630624,0.008790508410557273,True,True,True,True,True,False,0
1.980289999,1772662457.8826063,-0.04416714236140251,-0.3821913003921509,0.5475947260856628,-0.006711165886372328,0.9220662713050842,-0.0692208856344223,-0.15439105033874512,0.20499873161315918,0.14884407818317413,3.935344189701041e-16,-0.057067736983299255,-0.14723476767539978,-0.4161284066281138,-0.4161284066281138,0.14313174869968973,-2.740026425729099,-2.1642,0.0,-0.1012139982432615,-0.1012139982432615,-0.1668767184339569,0.13443221423383367,-18.86379883185709,0.0,0.008678196860360803,0.008678196860359415,0.013703090861966182,0.1149776663848633,8.81989510737639,0.0,0.16010042617038364,-0.007409819562777942,0.30037457563608416,0.16850159923199998,-0.013876199424,0.3,0.1417178945247125,-0.11099054356630622,0.008790508410557273,True,True,True,True,True,False,0
2.00030419,1772662457.9026206,-0.04416714236140251,-0.3821913003921509,0.5475947260856628,-0.006711165886372328,0.9220662713050842,-0.0692208856344223,-0.15439105033874512,0.20499873161315918,0.14884407818317413,3.935344189701041e-16,-0.057067736983299255,-0.14723476767539978,-0.418152686592979,-0.418152686592979,0.13979421433101058,-2.737337781444422,-2.1642,0.0,-0.10086261567055882,-0.10086261567055882,-0.16639150309440098,0.1365728523187566,-18.687395666949424,0.0,0.0175691286351337,0.0175691286351337,0.02426076697779609,0.1070319042461464,8.82015824538324,0.0,0.16010042617038364,-0.007409819562777942,0.30037457563608416,0.169250199976,-0.014437649982000006,0.3,0.14932078496471263,-0.11669271139630627,0.008790508410557273,True,True,True,True,True,False,0
2.020139447,1772662457.9224558,-0.06073221564292908,-0.3595401644706726,0.564215362071991,-0.006135923322290182,0.9167932271957397,-0.08398544788360596,-0.1638072282075882,0.22585128247737885,0.1632593870162964,3.925431521938002e-16,-0.057067736983299255,-0.14723476767539978,-0.42016993890639015,-0.42016993890639015,0.13646638426912255,-2.734606324398047,-2.1642,0.0,-0.10033720426308163,-0.10033720426308163,-0.16569296228063068,0.13854434038916486,-18.511289280611503,0.0,0.02627057037385969,0.02627057037385969,0.034927040688514904,0.09857440352041272,8.805319316896025,0.0,0.16372491663581054,-0.010259957077817706,0.30060486502774936,0.17,-0.015000000000000001,0.3,0.1220296158247951,-0.0954097787451669,0.007567639229128974,True,True,True,True,True,False,0
2.040254994,1772662457.9425712,-0.06073221564292908,-0.3595401644706726,0.564215362071991,-0.006135923322290182,0.9167932271957397,-0.08398544788360596,-0.1638072282075882,0.22585128247737885,0.1632593870162964,3.925431521938002e-16,-0.057067736983299255,-0.14723476767539978,-0.4221766829916518,-0.4221766829916518,0.13315252502350994,-2.731835437590264,-2.1642,0.0,-0.0996420951222107,-0.09964209512221067,-0.1647801927257866,0.14033621582284939,-18.33578219331089,0.0,0.03475545704354624,0.03475545704354763,0.04563847774220471,0.08959377168422647,8.775354365030623,0.0,0.16372491663581054,-0.010259957077817706,0.30060486502774936,0.17074980002399998,-0.015562350018000009,0.3,0.1294886238647947,-0.10100403477516694,0.007567639229128974,True,True,True,True,True,False,0
2.060271818,1772662457.962588,-0.06073221564292908,-0.3595401644706726,0.564215362071991,-0.006135923322290182,0.9167932271957397,-0.08398544788360596,-0.1638072282075882,0.22585128247737885,0.1632593870162964,3.925431521938002e-16,-0.057067736983299255,-0.14723476767539978,-0.424169524894096,-0.424169524894096,0.1298569211689942,-2.7290287132738067,-2.1642,0.0,-0.09878210751181082,-0.09878210751181082,-0.1636534747430346,0.14193830005392538,-18.161176414532807,0.0,0.04299938051999376,0.04299938051999237,0.05633589913759946,0.0801042115537997,8.730288938904167,0.0,0.16372491663581054,-0.010259957077817706,0.30060486502774936,0.171498400768,-0.016123800576,0.3,0.13685774830479494,-0.10653087810516687,0.007567639229128974,True,True,True,True,True,False,0
2.0803119,1772662457.9826283,-0.06073221564292908,-0.3595401644706726,0.564215362071991,-0.006135923322290182,0.9167932271957397,-0.08398544788360596,-0.1638072282075882,0.22585128247737885,0.1632593870162964,3.925431521938002e-16,-0.057067736983299255,-0.14723476767539978,-0.4261451670443322,-0.4261451670443322,0.1265838516741335,-2.726189947272728,-2.1642,0.0,-0.0977625196955034,-0.09776251969550342,-0.162314318941015,0.1433402786941933,-17.9877724891932,0.0,0.05097939081537129,0.0509793908153699,0.06695779010097985,0.07009893201339595,8.670196266980305,0.0,0.16372491663581054,-0.010259957077817706,0.30060486502774936,0.172244605832,-0.016683454373999998,0.3,0.14412530594479492,-0.1119815463351669,0.007567639229128974,True,True,True,True,True,False,0
2.100151214,1772662458.0024676,-0.06073221564292908,-0.3595401644706726,0.564215362071991,-0.006135923322290182,0.9167932271957397,-0.08398544788360596,-0.1638072282075882,0.22585128247737885,0.1632593870162964,3.925431521938002e-16,-0.057067736983299255,-0.14723476767539978,-0.4281004174382423,-0.4281004174382423,0.12333756529531319,-2.723323141698844,-2.1642,0.0,-0.09658901547931215,-0.09658901547931215,-0.1607653711167677,0.14453210407836048,-17.815868441603936,0.0,0.058675210809562506,0.058675210809563894,0.07744739121236514,0.05959126920835883,8.595202379463267,0.0,0.16372491663581054,-0.010259957077817706,0.30060486502774936,0.17298722457599996,-0.017240418432,0.3,0.1512798583847946,-0.11734746066516688,0.007567639229128974,True,True,True,True,True,False,0
2.120128898,1772662458.0224452,-0.0761353000998497,-0.3375026285648346,0.581020176410675,-0.006135923322290182,0.9116799235343933,-0.09817477315664291,-0.16586166620254517,0.23485656082630157,0.18349561095237732,3.925431521938002e-16,-0.057067736983299255,-0.1403866410255432,-0.4300321977478285,-0.4300321977478285,0.12012225787297783,-2.7204324996172766,-2.1642,0.0,-0.09526764672658178,-0.09526764672658178,-0.15901037036699417,0.14550393251343463,-17.645758941790707,0.0,0.06606843763651832,0.06606843763651832,0.0877500374886763,0.04859142175370752,8.505474990661448,0.0,0.16731776939336418,-0.013066853094602196,0.3008876887665106,0.173725075,-0.01779380625000001,0.3,0.1239886470957767,-0.09572607323151854,0.006281124374225752,True,True,True,True,True,False,0
2.14020066,1772662458.042517,-0.0761353000998497,-0.3375026285648346,0.581020176410675,-0.006135923322290182,0.9116799235343933,-0.09817477315664291,-0.16586166620254517,0.23485656082630157,0.18349561095237732,3.925431521938002e-16,-0.057067736983299255,-0.1403866410255432,-0.43193755068236017,-0.43193755068236017,0.11694205046563794,-2.717522420967008,-2.1642,0.0,-0.09380478621602048,-0.09380478621602051,-0.15705407212783762,0.1462463777348315,-17.477734214695804,0.0,0.07314302552806483,0.07314302552806344,0.09781491195782746,0.03712226106984403,8.401236354745116,0.0,0.16731776939336418,-0.013066853094602196,0.3008876887665106,0.17445698662399997,-0.018342739968000003,0.3,0.13088399713577634,-0.10089758576151847,0.006281124374225752,True,True,True,True,True,False,0
2.160292627,1772662458.062609,-0.0761353000998497,-0.3375026285648346,0.581020176410675,-0.006135923322290182,0.9116799235343933,-0.09817477315664291,-0.16586166620254517,0.23485656082630157,0.18349561095237732,3.925431521938002e-16,-0.057067736983299255,-0.1403866410255432,-0.4338136464066806,-0.4338136464066806,0.11380096902308118,-2.7145974934123114,-2.1642,0.0,-0.09220709490375789,-0.09220709490375789,-0.1549022391284226,0.14675022648210145,-17.312079107270883,0.0,0.07988456561312939,0.07988456561313077,0.10759164997075067,0.025192437363497057,8.282755371246068,0.0,0.16731776939336418,-0.013066853094602196,0.3008876887665106,0.175181803368,-0.018886352526,0.3,0.1376337835757766,-0.10595992559151848,0.006281124374225752,True,True,True,True,True,False,0
2.18023406,1772662458.0825505,-0.0761353000998497,-0.3375026285648346,0.581020176410675,-0.006135923322290182,0.9116799235343933,-0.09817477315664291,-0.16586166620254517,0.23485656082630157,0.18349561095237732,3.925431521938002e-16,-0.057067736983299255,-0.1403866410255432,-0.4356577883047557,-0.4356577883047557,0.11070292424051273,-2.7116624888826695,-2.1642,0.0,-0.09048147792047256,-0.09048147792047256,-0.15256152565599213,0.14700681228015533,-17.149072086350262,0.0,0.08628084916426629,0.08628084916426629,0.1170356736215238,0.012829289902693818,8.150351046031005,0.0,0.16731776939336418,-0.013066853094602196,0.3008876887665106,0.175898386432,-0.019423789824000004,0.3,0.14422783521577676,-0.11090546432151852,0.006281124374225752,True,True,True,True,True,False,0
2.200120194,1772662458.1024365,-0.0761353000998497,-0.3375026285648346,0.581020176410675,-0.006135923322290182,0.9116799235343933,-0.09817477315664291,-0.16586166620254517,0.23485656082630157,0.18349561095237732,3.925431521938002e-16,-0.057067736983299255,-0.1403866410255432,-0.4374674178631652,-0.4374674178631652,0.10765169372739289,-2.7087223526370665,-2.1642,0.0,-0.08863504529532246,-0.08863504529532246,-0.15003942241794255,0.14700803878918434,-16.988984400816747,0.0,0.09232163125750528,0.09232163125750528,0.12610516190247878,6.132545145032248e-05,8.00438427667575,0.0,0.16731776939336418,-0.013066853094602196,0.3008876887665106,0.176605617176,-0.019954212882000003,0.3,0.15065636965577678,-0.11572686515151848,0.006281124374225752,True,True,True,True,True,False,0
2.220107465,1772662458.122424,-0.09300141781568527,-0.31188130378723145,0.6005419492721558,-0.006135923322290182,0.906247079372406,-0.113131083548069,-0.16264304518699646,0.24297159910202026,0.19195304811000824,3.925431521938002e-16,-0.03424064442515373,-0.1403866410255432,-0.43924011876907165,-0.43924011876907165,0.10465090527903403,-2.705782191861283,-2.1642,0.0,-0.08667507492646709,-0.08667507492646709,-0.14734413934785717,0.14674652338600946,-16.832079100904636,0.0,0.09799851844276833,0.09799851844276833,0.13476415350426862,-0.013075770158743604,7.845264995605554,0.0,0.17144897387700866,-0.016293594021148848,0.30109959249477036,0.17730240000000003,-0.020476800000000003,0.3,0.11684620199622146,-0.08910269164828674,0.004791789164982515,True,True,True,True,True,False,0
2.240149217,1772662458.1424656,-0.09300141781568527,-0.31188130378723145,0.6005419492721558,-0.006135923322290182,0.906247079372406,-0.113131083548069,-0.16264304518699646,0.24297159910202026,0.19195304811000824,3.925431521938002e-16,-0.03424064442515373,-0.1403866410255432,-0.440973620267601,-0.440973620267601,0.10170402249207688,-2.702847261393563,-2.1642,0.0,-0.08460898586829899,-0.08460898586829901,-0.14448460955964781,0.1462155055187342,-16.678610009365478,0.0,0.10330445290840502,0.10330445290840364,0.14297648941046778,-0.02655089336376368,7.673454576957887,0.0,0.17144897387700866,-0.016293594021148848,0.30109959249477036,0.177987665224,-0.020990748918000006,0.3,0.12291605403622126,-0.09365508067828678,0.004791789164982515,True,True,True,True,True,False,0
2.260141872,1772662458.1624584,-0.09300141781568527,-0.31188130378723145,0.6005419492721558,-0.006135923322290182,0.906247079372406,-0.113131083548069,-0.16264304518699646,0.24297159910202026,0.19195304811000824,3.925431521938002e-16,-0.03424064442515373,-0.1403866410255432,-0.44266579998496697,-0.44266579998496697,0.09881433030088392,-2.699922951283188,-2.1642,0.0,-0.08244429386756433,-0.08244429386756433,-0.1414703196578554,0.1454091898695955,-16.52882107701683,0.0,0.10823460003673281,0.1082346000367342,0.15071449508962095,-0.04031578245693442,7.489446617432443,0.0,0.17144897387700866,-0.016293594021148848,0.30109959249477036,0.17866037196800005,-0.021495278976000013,0.3,0.12879366247622176,-0.09806328700828686,0.004791789164982515,True,True,True,True,True,False,0
2.280122703,1772662458.182439,-0.09300141781568527,-0.31188130378723145,0.6005419492721558,-0.006135923322290182,0.906247079372406,-0.113131083548069,-0.16264304518699646,0.24297159910202026,0.19195304811000824,3.925431521938002e-16,-0.03424064442515373,-0.1403866410255432,-0.44431468586231826,-0.44431468586231826,0.09598492390772681,-2.697014767485796,-2.1642,0.0,-0.08018859545638765,-0.08018859545638765,-0.13831129321329383,0.14432261074293296,-16.382945241547255,0.0,0.11278492055883373,0.11278492055883373,0.15795132222807803,-0.05432895633312724,7.293791773478724,0.0,0.17144897387700866,-0.016293594021148848,0.30109959249477036,0.17931951103200003,-0.021989633274000015,0.3,0.1344710881162215,-0.10232135623828688,0.004791789164982515,True,True,True,True,True,False,0
2.300160677,1772662458.202477,-0.09300141781568527,-0.31188130378723145,0.6005419492721558,-0.006135923322290182,0.906247079372406,-0.113131083548069,-0.16264304518699646,0.24297159910202026,0.19195304811000824,3.925431521938002e-16,-0.03424064442515373,-0.1403866410255432,-0.445918457771446,-0.445918457771446,0.09321869804346093,-2.6941283152709374,-2.1642,0.0,-0.07784952860944108,-0.07784952860944108,-0.1350179745901392,0.14295200556055931,-16.2412037878763,0.0,0.11695334234732836,0.11695334234732836,0.1646659311577313,-0.06853025911868199,7.08707268354764,0.0,0.17144897387700866,-0.016293594021148848,0.30109959249477036,0.179964107776,-0.022473080832000003,0.3,0.13994092455622126,-0.10642373356828674,0.004791789164982515,True,True,True,True,True,False,0
2.320163002,1772662458.2224793,-0.10638540238142014,-0.29019466042518616,0.6175174117088318,-0.0065194182097911835,0.901533305644989,-0.12597817182540894,-0.14309164881706238,0.2297547161579132,0.18808384239673615,-0.006848128512501717,-0.06134781613945961,-0.1403866410255432,-0.44747544834363484,-0.44747544834363484,0.09051833855165814,-2.6912692751597262,-2.1642,0.0,-0.0754347575585603,-0.07543475755856033,-0.13160118675829113,0.1412945933232157,-16.103805385591304,0.0,0.12073855254403898,0.12073855254403759,0.17083939159240322,-0.08287061186718063,6.869920114249866,0.0,0.175004243036917,-0.019009039190411893,0.3012888250207417,0.180593225,-0.022944918750000008,0.3,0.11002698603775675,-0.08412056238056992,0.001969801000011087,True,True,True,True,True,False,0
2.340136363,1772662458.2424526,-0.10638540238142014,-0.29019466042518616,0.6175174117088318,-0.0065194182097911835,0.901533305644989,-0.12597817182540894,-0.14309164881706238,0.2297547161579132,0.18808384239673615,-0.006848128512501717,-0.06134781613945961,-0.1403866410255432,-0.44898414349480603,-0.44898414349480603,0.08788631481649237,-2.688443383293262,-2.1642,0.0,-0.07295194447420913,-0.07295194447420911,-0.12807200223310666,0.1393490793074288,-15.97094538247213,0.0,0.12414065421756092,0.12414065421756369,0.17645922625922728,-0.09727570078934751,6.643000155958808,0.0,0.175004243036917,-0.019009039190411893,0.3012888250207417,0.181205965824,-0.023404474368000007,0.3,0.11506170007775683,-0.08789659791056996,0.001969801000011087,True,True,True,True,True,False,0
2.360109803,1772662458.2624261,-0.10638540238142014,-0.29019466042518616,0.6175174117088318,-0.0065194182097911835,0.901533305644989,-0.12597817182540894,-0.14309164881706238,0.2297547161579132,0.18808384239673615,-0.006848128512501717,-0.06134781613945961,-0.1403866410255432,-0.4504431823842902,-0.4504431823842902,0.08532487477183023,-2.685656401707113,-2.1642,0.0,-0.07040873866188796,-0.07040873866188796,-0.12444175545143066,0.13711528768473968,-15.84280491935417,0.0,0.12716029061605866,0.12716029061605727,0.1815123390838001,-0.11168958113445528,6.407023155898001,0.0,0.175004243036917,-0.019009039190411893,0.3012888250207417,0.181801476568,-0.023851107426,0.3,0.11987009051775675,-0.09150289074056989,0.001969801000011087,True,True,True,True,True,False,0
2.380140152,1772662458.2824566,-0.10638540238142014,-0.29019466042518616,0.6175174117088318,-0.0065194182097911835,0.901533305644989,-0.12597817182540894,-0.14309164881706238,0.2297547161579132,0.18808384239673615,-0.006848128512501717,-0.06134781613945961,-0.1403866410255432,-0.45185135715752794,-0.45185135715752794,0.08283603966280162,-2.6829140959534183,-2.1642,0.0,-0.06781275251760968,-0.06781275251760968,-0.12072190597224619,0.13459469069146834,-15.719550314321571,0.0,0.1297993072139138,0.1297993072139138,0.1859924739592232,-0.1260298496635669,6.162730251629961,0.0,0.175004243036917,-0.019009039190411893,0.3012888250207417,0.18237894963200002,-0.02428421222400001,0.3,0.12444717015775697,-0.09493570047056993,0.001969801000011087,True,True,True,True,True,False,0
2.4001511,1772662458.3024676,-0.10638540238142014,-0.29019466042518616,0.6175174117088318,-0.0065194182097911835,0.901533305644989,-0.12597817182540894,-0.14309164881706238,0.2297547161579132,0.18808384239673615,-0.006848128512501717,-0.06134781613945961,-0.1403866410255432,-0.45320761220788014,-0.45320761220788014,0.08042160154335669,-2.680222202139589,-2.1642,0.0,-0.06517155068203548,-0.06517155068203548,-0.11692397924515552,0.13179032813984515,-15.60133225348684,0.0,0.13206009177871003,0.13206009177871003,0.18989633635453346,-0.1402181275811597,5.910903041736576,0.0,0.175004243036917,-0.019009039190411893,0.3012888250207417,0.18293762637599997,-0.02470321978200001,0.3,0.12878862859775653,-0.09819179430056996,0.001969801000011087,True,True,True,True,True,False,0
2.420117558,1772662458.322434,-0.12075688689947128,-0.2654304504394531,0.63683021068573,-0.0057524279691278934,0.8970592021942139,-0.13863351941108704,-0.13638047873973846,0.23150098323822021,0.18640606105327606,0.013696257025003433,-0.03424064442515373,-0.10957005620002747,-0.45451104322152086,-0.45451104322152086,0.07808312195845357,-2.6775863955767925,-2.1642,0.0,-0.062492651381931,-0.062492651381931,-0.11305959749260375,0.12870671308405512,-15.488284988642041,0.0,0.13394496500522396,0.13394496500522396,0.19321908762758838,-0.15418075278950102,5.652363242239916,0.0,0.17899913826524752,-0.022003217838913493,0.30137919302406957,0.1834768,-0.02510759999999999,0.3,0.0940480983706461,-0.07176849658858361,0.0015568810429064696,True,True,True,True,True,False,0
2.440170822,1772662458.3424873,-0.12075688689947128,-0.2654304504394531,0.63683021068573,-0.0057524279691278934,0.8970592021942139,-0.13863351941108704,-0.13638047873973846,0.23150098323822021,0.18640606105327606,0.013696257025003433,-0.03424064442515373,-0.10957005620002747,-0.4557608962491595,-0.4557608962491595,0.07582193000860149,-2.6750122613151115,-2.1642,0.0,-0.0597835033986249,-0.0597835033986249,-0.10914031367996213,0.12535028364563328,-15.380525869007686,0.0,0.1354573991653048,0.1354573991653048,0.19596419063208065,-0.16782147192109229,5.387955981717769,0.0,0.17899913826524752,-0.022003217838913493,0.30137919302406957,0.18399581842399998,-0.025496863817999996,0.3,0.09790823441064606,-0.07466359861858371,0.0015568810429064696,True,True,True,True,True,False,0
2.460109581,1772662458.3624258,-0.12075688689947128,-0.2654304504394531,0.63683021068573,-0.0057524279691278934,0.8970592021942139,-0.13863351941108704,-0.13638047873973846,0.23150098323822021,0.18640606105327606,0.013696257025003433,-0.03424064442515373,-0.10957005620002747,-0.456956566317132,-0.456956566317132,0.07363912373500224,-2.6725052556421987,-2.1642,0.0,-0.057051494203113534,-0.057051494203113534,-0.10517764443757405,0.12172920553232203,-15.278154543000465,0.0,0.13660045977556812,0.13660045977556812,0.19813346211940402,-0.1810539056655623,5.118566300361045,0.0,0.17899913826524752,-0.022003217838913493,0.30137919302406957,0.18449408716799998,-0.025870565376000014,0.3,0.10152416685064594,-0.07737554794858385,0.0015568810429064696,True,True,True,True,True,False,0
2.480113812,1772662458.3824303,-0.12075688689947128,-0.2654304504394531,0.63683021068573,-0.0057524279691278934,0.8970592021942139,-0.13863351941108704,-0.13638047873973846,0.23150098323822021,0.18640606105327606,0.013696257025003433,-0.03424064442515373,-0.10957005620002747,-0.4580975962011943,-0.4580975962011943,0.07153557084625076,-2.670070671531552,-2.1642,0.0,-0.05430394668109037,-0.0543039466810904,-0.10118301651385542,0.11785351029323943,-15.181252292776739,0.0,0.13737737610115808,0.1373773761011567,0.19973139618593133,-0.1937847619541298,4.845112511186307,0.0,0.17899913826524752,-0.022003217838913493,0.30137919302406957,0.18497107223200002,-0.026228304174000017,0.3,0.10489458049064629,-0.07990335817858385,0.0015568810429064696,True,True,True,True,True,False,0
2.50018072,1772662458.402497,-0.12075688689947128,-0.2654304504394531,0.63683021068573,-0.0057524279691278934,0.8970592021942139,-0.13863351941108704,-0.13638047873973846,0.23150098323822021,0.18640606105327606,0.013696257025003433,-0.03424064442515373,-0.10957005620002747,-0.45918367513481606,-0.45918367513481606,0.06951191051597365,-2.6677136013256875,-2.1642,0.0,-0.051548120048688445,-0.051548120048688445,-0.09716770654857454,0.11373517407805478,-15.089881549964154,0.0,0.13779133162009616,0.13779133162009755,0.20076549826404372,-0.2059168107592322,4.56853714062921,0.0,0.17899913826524752,-0.022003217838913493,0.30137919302406957,0.18542630297600002,-0.02656972723200001,0.3,0.10801898093064627,-0.08224665850858379,0.0015568810429064696,True,True,True,True,True,False,0
2.520100903,1772662458.4224174,-0.13100962340831757,-0.24734865128993988,0.6512131690979004,-0.006711165886372328,0.8935437798500061,-0.1491796374320984,-0.10576934367418289,0.19445261359214783,0.1590135395526886,-0.017120322212576866,-0.04422749578952789,-0.13696257770061493,-0.46021463753578984,-0.46021463753578984,0.06756855638500216,-2.6654388978441266,-2.1642,0.0,-0.04879121691982366,-0.04879121691982363,-0.09314284338531198,0.10938813267060832,-15.004085176035549,0.0,0.13784515644323914,0.13784515644324052,0.20124315816312782,-0.21735207037232288,4.289818696430277,0.0,0.1819499756261743,-0.024303284585579912,0.30143770220212546,0.18585937500000002,-0.026894531250000006,0.3,0.07923247282337888,-0.059893856838120395,-0.0024754619846122042,True,True,True,True,True,False,0
2.540167104,1772662458.4424834,-0.13100962340831757,-0.24734865128993988,0.6512131690979004,-0.006711165886372328,0.8935437798500061,-0.1491796374320984,-0.10576934367418289,0.19445261359214783,0.1590135395526886,-0.017120322212576866,-0.04422749578952789,-0.13696257770061493,-0.46119046187418633,-0.46119046187418633,0.06570569951729592,-2.6632511351907144,-2.1642,0.0,-0.04604039240238711,-0.04604039240238711,-0.08911937933441794,0.10482830977476709,-14.923885917720916,0.0,0.13754122587182743,0.13754122587182604,0.201173202544702,-0.2279911447920611,4.0099629157316095,0.0,0.1819499756261743,-0.024303284585579912,0.30143770220212546,0.18626995302400007,-0.027202464768000013,0.3,0.08186679086337931,-0.06186959536812041,-0.0024754619846122042,True,True,True,True,True,False,0
2.560166364,1772662458.4624827,-0.13100962340831757,-0.24734865128993988,0.6512131690979004,-0.006711165886372328,0.8935437798500061,-0.1491796374320984,-0.10576934367418289,0.19445261359214783,0.1590135395526886,-0.017120322212576866,-0.04422749578952789,-0.13696257770061493,-0.4621112697222341,-0.4621112697222341,0.06392331193060756,-2.661154568995219,-2.1642,0.0,-0.043302764214818434,-0.043302764214818434,-0.08510806662035364,0.10007359886661105,-14.849285882036488,0.0,0.13688140937843363,0.13688140937843363,0.20056563570321467,-0.23773554540780206,3.730001784221401,0.0,0.1819499756261743,-0.024303284585579912,0.30143770220212546,0.18665777376800002,-0.027493330326000015,0.3,0.08425882530337894,-0.06366362119812044,-0.0024754619846122042,True,True,True,True,True,False,0
2.580140327,1772662458.482457,-0.13100962340831757,-0.24734865128993988,0.6512131690979004,-0.006711165886372328,0.8935437798500061,-0.1491796374320984,-0.10576934367418289,0.19445261359214783,0.1590135395526886,-0.017120322212576866,-0.04422749578952789,-0.13696257770061493,-0.4629773250065305,-0.4629773250065305,0.062221150598200485,-2.659153097017887,-2.1642,0.0,-0.04058542518976327,-0.04058542518976324,-0.08111944232412571,0.09514391602590244,-14.780265934480093,0.0,0.13586695125275816,0.13586695125275955,0.1994312148113962,-0.24648414203543,3.4509973778197502,0.0,0.1819499756261743,-0.024303284585579912,0.30143770220212546,0.18702264883199998,-0.027766986624000005,0.3,0.08641165294337856,-0.06527824192812041,-0.0024754619846122042,True,True,True,True,True,False,0
2.600227902,1772662458.5025444,-0.13100962340831757,-0.24734865128993988,0.6512131690979004,-0.006711165886372328,0.8935437798500061,-0.1491796374320984,-0.10576934367418289,0.19445261359214783,0.1590135395526886,-0.017120322212576866,-0.04422749578952789,-0.13696257770061493,-0.46378903351032574,-0.46378903351032574,0.06059876175171797,-2.657250218697369,-2.1642,0.0,-0.03789545922016743,-0.03789545922016743,-0.07716381200256928,0.09006119851196104,-14.716785235279346,0.0,0.13449829847979172,0.13449829847979033,0.19778151607782163,-0.25413587569706997,3.1740349600373614,0.0,0.1819499756261743,-0.024303284585579912,0.30143770220212546,0.187364467576,-0.028023350681999987,0.3,0.08832931538337886,-0.06671648875812024,-0.0024754619846122042,True,True,True,True,True,False,0
