JLDominguezM/dreamteam-T3001B/M1-Kinematics/Lab2/src/xarm_ros2/xarm_perturbations/xarm_perturbations/results/challenge/trial_ctc_nopert_2026-03-04_16-53-02/trial_ctc_nopert_2026-03-04_16-53-02.csv
time,time_abs,q1,q2,q3,q4,q5,q6,qd1,qd2,qd3,qd4,qd5,qd6,q_des1,q_des2,q_des3,q_des4,q_des5,q_des6,qd_des1,qd_des2,qd_des3,qd_des4,qd_des5,qd_des6,qdd_des1,qdd_des2,qdd_des3,qdd_des4,qdd_des5,qdd_des6,px,py,pz,px_des,py_des,pz_des,cmd_x,cmd_y,cmd_z,sat1,sat2,sat3,sat4,sat5,sat6,pert_enabled
0.020332608,1772664783.356164,-0.04450078308582306,0.14490558207035065,1.0132441520690918,-0.01649029366672039,0.7953530550003052,-0.20612867176532745,-3.0927642534691344e-16,3.715282171268177e-15,-1.586032930135623e-16,5.432162580573717e-16,2.9658814178879596e-15,3.3465293422963328e-15,0.0,0.0,0.0,0.0,0.0,0.0,-6.680893620708526,-6.680893620708526,-1.0086718294861852,-0.30555170161392037,-60.1692898887514,0.0,0.0,0.0,0.0,0.0,0.0,0.0,0.26311156611655645,-0.012450659560783693,0.29861652316533643,0.28,0.0,0.3,0.16888433883443604,0.12450659560783682,0.013834768346635587,False,False,False,False,False,False,0
0.040411168,1772664783.3762426,-0.04450078308582306,0.14490558207035065,1.0132441520690918,-0.01649029366672039,0.7953530550003052,-0.20612867176532745,-3.0927642534691344e-16,3.715282171268177e-15,-1.586032930135623e-16,5.432162580573717e-16,2.9658814178879596e-15,3.3465293422963328e-15,-0.13361787241417053,-0.13361787241417053,-0.020173436589723703,-0.006111034032278408,-1.203385797775028,0.0,-2.3185965656792447,-2.3185965656792447,-1.2993600046890426,-0.20011202101705494,-22.863360796556403,0.0,218.114852751464,218.114852751464,-14.534408760142869,5.271984029843272,1865.29645460975,0.0,0.26311156611655645,-0.012450659560783693,0.29861652316533643,0.28,0.0,0.3,0.16888433883443604,0.12450659560783682,0.013834768346635587,False,False,False,False,False,False,0
0.060293787,1772664783.396125,-0.04450078308582306,0.14490558207035065,1.0132441520690918,-0.01649029366672039,0.7953530550003052,-0.20612867176532745,-3.0927642534691344e-16,3.715282171268177e-15,-1.586032930135623e-16,5.432162580573717e-16,2.9658814178879596e-15,3.3465293422963328e-15,-0.17998980372775542,-0.17998980372775542,-0.046160636683504556,-0.010113274452619506,-1.6606530137061561,0.0,-1.1596716860585714,-1.1596716860585714,-1.0984130438399204,-0.1936923448323109,-18.06352728852518,0.0,57.94624398103366,57.94624398103366,10.047348042456106,0.32098380923720193,239.9916754015612,0.0,0.26311156611655645,-0.012450659560783693,0.29861652316533643,0.28,0.0,0.3,0.16888433883443604,0.12450659560783682,0.013834768346635587,False,False,False,False,False,False,0
0.080329136,1772664783.4161606,-0.04450078308582306,0.14490558207035065,1.0132441520690918,-0.01649029366672039,0.7953530550003052,-0.20612867176532745,-3.0927642534691344e-16,3.715282171268177e-15,-1.586032930135623e-16,5.432162580573717e-16,2.9658814178879596e-15,3.3465293422963328e-15,-0.20318323744892683,-0.20318323744892683,-0.061087,-0.013987121349265724,-2.02192355947666,0.0,-0.3590766275784502,-0.3590766275784502,-0.8259155278102894,-0.43237387843608693,-16.28475713266305,0.0,40.02975292400606,40.02975292400606,13.624875801481553,-11.934076680188804,88.93850779310651,0.0,0.26311156611655645,-0.012450659560783693,0.29861652316533643,0.28,0.0,0.3,0.16888433883443604,0.12450659560783682,0.013834768346635587,False,False,False,False,False,False,0
0.100293925,1772664783.4361255,-0.04450078308582306,0.14490558207035065,1.0132441520690918,-0.01649029366672039,0.7953530550003052,-0.20612867176532745,-3.0927642534691344e-16,3.715282171268177e-15,-1.586032930135623e-16,5.432162580573717e-16,2.9658814178879596e-15,3.3465293422963328e-15,-0.21036477000049583,-0.21036477000049583,-0.061087,-0.022634598917987463,-2.1642,0.0,-0.925392864728878,-0.925392864728878,-0.7458231039710251,-1.056055476278468,-7.679477162205398,0.0,-28.315811857521382,-28.315811857521382,4.0046211919632135,-31.184079892119048,430.2639985228825,0.0,0.26311156611655645,-0.012450659560783693,0.29861652316533643,0.28,0.0,0.3,0.16888433883443604,0.12450659560783682,0.013834768346635587,False,False,False,False,False,False,0
0.120296901,1772664783.4561284,-0.04450078308582306,0.14490558207035065,1.0132441520690918,-0.01649029366672039,0.7953530550003052,-0.20612867176532745,-3.0927642534691344e-16,3.715282171268177e-15,-1.586032930135623e-16,5.432162580573717e-16,2.9658814178879596e-15,3.3465293422963328e-15,-0.2288726272950734,-0.2288726272950734,-0.061087,-0.04375570844355683,-2.1642,0.0,-0.7836879522119514,-0.7836879522119514,-0.6130816791269541,-1.7561894184831484,-6.836519905807148,0.0,7.08524562584633,7.08524562584633,6.63707124220355,-35.006697110234015,42.14786281991247,0.0,0.26311156611655645,-0.012450659560783693,0.29861652316533643,0.28,0.0,0.3,0.16888433883443604,0.12450659560783682,0.013834768346635587,False,False,False,False,False,False,0
0.140342087,1772664783.4761736,-0.04450078308582306,0.14490558207035065,1.0132441520690918,-0.01649029366672039,0.7953530550003052,-0.20612867176532745,-3.0927642534691344e-16,3.715282171268177e-15,-1.586032930135623e-16,5.432162580573717e-16,2.9658814178879596e-15,3.3465293422963328e-15,-0.24454638633931242,-0.24454638633931242,-0.061087,-0.07887949681321978,-2.1642,0.0,-0.6614828222932347,-0.6614828222932347,-0.40520410925987416,-2.8233561277599795,-6.178019625302935,0.0,6.110256495935837,6.110256495935837,10.393878493354002,-53.358335463841584,32.9250140252107,0.0,0.26311156611655645,-0.012450659560783693,0.29861652316533643,0.28,0.0,0.3,0.16888433883443604,0.12450659560783682,0.013834768346635587,False,False,False,False,False,False,0
0.16014814,1772664783.4959795,-0.04133886471390724,0.14993895590305328,1.0198920965194702,-0.017832526937127113,0.7953530550003052,-0.20440293848514557,0.05642857775092125,0.08988168835639954,0.11864382773637772,-0.023968450725078583,2.9658814178879596e-15,0.0308165792375803,-0.25777604278517713,-0.25777604278517713,-0.061087,-0.1353466193684194,-2.1642,0.0,-0.5697241274611076,-0.5697241274611076,-0.10545294884039143,-4.338972365192567,-5.613739284727913,0.0,4.587934741606355,4.587934741606355,14.987558020974124,-75.78081187162931,28.214017028751055,0.0,0.26437406254065077,-0.011729230311781169,0.29884808416164516,0.28,0.0,0.3,0.1781032864455191,0.11191669844668597,0.017262722452264467,False,False,False,False,False,False,0
0.180357339,1772664783.5161889,-0.04133886471390724,0.14993895590305328,1.0198920965194702,-0.017832526937127113,0.7953530550003052,-0.20440293848514557,0.05642857775092125,0.08988168835639954,0.11864382773637772,-0.023968450725078583,2.9658814178879596e-15,0.0308165792375803,-0.2691705253343993,-0.2691705253343993,-0.061087,-0.2221260666722707,-2.1642,0.0,-0.521970977379929,-0.521970977379929,0.25956579654498924,-6.148304969650253,-5.035595460177014,0.0,2.387657504058928,2.387657504058928,18.25093726926904,-90.46663022288435,28.907191227544985,0.0,0.26437406254065077,-0.011729230311781169,0.29884808416164516,0.28,0.0,0.3,0.1781032864455191,0.11191669844668597,0.017262722452264467,False,False,False,False,False,False,0
0.200291624,1772664783.536123,-0.04133886471390724,0.14993895590305328,1.0198920965194702,-0.017832526937127113,0.7953530550003052,-0.20440293848514557,0.05642857775092125,0.08988168835639954,0.11864382773637772,-0.023968450725078583,2.9658814178879596e-15,0.0308165792375803,-0.27960994488199786,-0.27960994488199786,-0.05589568406910022,-0.3450921660652757,-2.1642,0.0,-0.5195561174624405,-0.5195561174624405,0.5405600687267968,-7.590819927522937,-4.374241492522101,0.0,0.12074299587442888,0.12074299587442888,14.049713609090388,-72.12574789363426,33.067698382745654,0.0,0.26437406254065077,-0.011729230311781169,0.29884808416164516,0.28,0.0,0.3,0.1781032864455191,0.11191669844668597,0.017262722452264467,False,False,True,False,False,False,0
0.220238146,1772664783.5560696,-0.04133886471390724,0.14993895590305328,1.0198920965194702,-0.017832526937127113,0.7953530550003052,-0.20440293848514557,0.05642857775092125,0.08988168835639954,0.11864382773637772,-0.023968450725078583,2.9658814178879596e-15,0.0308165792375803,-0.2900010672312467,-0.2900010672312467,-0.045084482694564276,-0.4969085646157346,-2.1642,0.0,-0.5392359556638399,-0.5392359556638399,0.5854824130300336,-7.832221133769679,-3.6328120515830884,0.0,-0.9839919100699692,-0.9839919100699692,2.246117215161834,-12.070060312337095,37.071472046950596,0.0,0.26437406254065077,-0.011729230311781169,0.29884808416164516,0.28,0.0,0.3,0.1781032864455191,0.11191669844668597,0.017262722452264467,False,False,True,False,False,False,0
0.2403013,1772664783.5761328,-0.04133886471390724,0.14993895590305328,1.0198920965194702,-0.017832526937127113,0.7953530550003052,-0.20440293848514557,0.05642857775092125,0.08988168835639954,0.11864382773637772,-0.023968450725078583,2.9658814178879596e-15,0.0308165792375803,-0.30078578634452346,-0.30078578634452346,-0.03337483443396361,-0.6535529872911281,-2.1642,0.0,-0.543121403139538,-0.543121403139538,0.42783041644080894,-6.9489744943225285,-2.8983378203847,0.0,-0.19427237378490955,-0.19427237378490955,-7.882599829461236,44.16233197235757,36.723711559919444,0.0,0.26437406254065077,-0.011729230311781169,0.29884808416164516,0.28,0.0,0.3,0.1781032864455191,0.11191669844668597,0.017262722452264467,False,False,True,False,False,False,0
0.260355137,1772664783.5961866,-0.024445900693535805,0.17681238055229187,1.052640676498413,-0.017065536230802536,0.8003864288330078,-0.1882961392402649,0.19123399257659912,0.2962842881679535,0.37020981311798096,5.432162580573717e-16,0.06420120596885681,0.1848994642496109,-0.3116482144073142,-0.3116482144073142,-0.02481822610514743,-0.7925324771775786,-2.1642,0.0,-0.5171342963593853,-0.5171342963593853,0.2143844919204436,-5.698005378185192,-2.2489695089653368,0.0,1.2993553390076358,1.2993553390076358,-10.672296226018272,62.54845580686686,32.468415570968176,0.0,0.27036151640021056,-0.007373572119136702,0.29932960285033894,0.28,0.0,0.3,0.17026320334420958,0.06133159001788106,0.02590629372132153,False,False,True,False,False,False,0
0.28033005,1772664783.6161616,-0.024445900693535805,0.17681238055229187,1.052640676498413,-0.017065536230802536,0.8003864288330078,-0.1882961392402649,0.19123399257659912,0.2962842881679535,0.37020981311798096,5.432162580573717e-16,0.06420120596885681,0.1848994642496109,-0.32199090033450195,-0.32199090033450195,-0.020530536266738557,-0.9064925847412825,-2.1642,0.0,-0.47042467632517554,-0.47042467632517554,0.030395897222867313,-4.548373439545408,-1.706252730402575,0.0,2.3354810017104883,2.3354810017104883,-9.199429734878805,57.481596931989145,27.135838928138064,0.0,0.27036151640021056,-0.007373572119136702,0.29932960285033894,0.28,0.0,0.3,0.17026320334420958,0.06133159001788106,0.02590629372132153,False,True,True,False,True,False,0
0.300326742,1772664783.6361582,-0.024445900693535805,0.17681238055229187,1.052640676498413,-0.017065536230802536,0.8003864288330078,-0.1882961392402649,0.19123399257659912,0.2962842881679535,0.37020981311798096,5.432162580573717e-16,0.06420120596885681,0.1848994642496109,-0.3313993938610055,-0.3313993938610055,-0.01992261832228121,-0.9974600535321907,-2.1642,0.0,-0.41506312573988224,-0.41506312573988224,-0.10562971041902337,-3.6158361858201022,-1.2614969121783566,0.0,2.768077529264662,2.768077529264662,-6.801280382094529,46.62686268626524,22.2377909112109,0.0,0.27036151640021056,-0.007373572119136702,0.29932960285033894,0.28,0.0,0.3,0.17026320334420958,0.06133159001788106,0.02590629372132153,False,True,True,False,True,False,0
0.32032889,1772664783.6561604,-0.024445900693535805,0.17681238055229187,1.052640676498413,-0.017065536230802536,0.8003864288330078,-0.1882961392402649,0.19123399257659912,0.2962842881679535,0.37020981311798096,5.432162580573717e-16,0.06420120596885681,0.1848994642496109,-0.3397006563758031,-0.3397006563758031,-0.022035212530661676,-1.0697767772485927,-2.1642,0.0,-0.3590838911380818,-0.3590838911380818,-0.19914471605359182,-2.8847738029508743,-0.8981974273849869,0.0,2.798961730090027,2.798961730090027,-4.6757502817284315,36.553119143461466,18.16497423966852,0.0,0.27036151640021056,-0.007373572119136702,0.29932960285033894,0.28,0.0,0.3,0.17026320334420958,0.06133159001788106,0.02590629372132153,True,True,True,True,True,False,0
0.340362331,1772664783.6761937,-0.024445900693535805,0.17681238055229187,1.052640676498413,-0.017065536230802536,0.8003864288330078,-0.1882961392402649,0.19123399257659912,0.2962842881679535,0.37020981311798096,5.432162580573717e-16,0.06420120596885681,0.1848994642496109,-0.34688233419856473,-0.34688233419856473,-0.026018106851733516,-1.1274722533076103,-2.1642,0.0,-0.3067848581737962,-0.3067848581737962,-0.25993988707723004,-2.313565436435644,-0.6002577924593158,0.0,2.6149516482142787,2.6149516482142787,-3.039758551181908,28.56041832576148,14.896981746283542,0.0,0.27036151640021056,-0.007373572119136702,0.29932960285033894,0.28,0.0,0.3,0.17026320334420958,0.06133159001788106,0.02590629372132153,True,True,True,True,True,False,0
0.360279167,1772664783.6961105,-0.014486530795693398,0.1978432536125183,1.0794546604156494,-0.016682041808962822,0.8067780137062073,-0.17966750264167786,0.07673328369855881,0.19294601678848267,0.2603316009044647,-0.006848128512501717,0.06562789529561996,0.027392514050006866,-0.3530180313620407,-0.3530180313620407,-0.03121690459327812,-1.1737435620363232,-2.1642,0.0,-0.2600682897202824,-0.2600682897202824,-0.2967346871075973,-1.8640515388036598,-0.3542003899802948,0.0,2.3358284226756876,2.3358284226756876,-1.8397400015183625,22.475694881599196,12.302870123951038,0.0,0.2749723939549944,-0.004733879545009043,0.2998769665254852,0.28,0.0,0.3,0.09578016823846452,0.043619894126202895,0.014238841756876857,True,True,True,True,True,False,0
0.380179735,1772664783.7160113,-0.014486530795693398,0.1978432536125183,1.0794546604156494,-0.016682041808962822,0.8067780137062073,-0.17966750264167786,0.07673328369855881,0.19294601678848267,0.2603316009044647,-0.006848128512501717,0.06562789529561996,0.027392514050006866,-0.35821939715644635,-0.35821939715644635,-0.03715159833543005,-1.2110245928123964,-2.1642,0.0,-0.2194630145429914,-0.21946301454299139,-0.3162705569004688,-1.5067047617429759,-0.1493771145079157,0.0,2.030263758864553,2.0302637588645545,-0.9767934896435756,17.86733885303423,10.241163773618975,0.0,0.2749723939549944,-0.004733879545009043,0.2998769665254852,0.28,0.0,0.3,0.09578016823846452,0.043619894126202895,0.014238841756876857,True,True,True,True,True,False,0
0.400248866,1772664783.7360804,-0.014486530795693398,0.1978432536125183,1.0794546604156494,-0.016682041808962822,0.8067780137062073,-0.17966750264167786,0.07673328369855881,0.19294601678848267,0.2603316009044647,-0.006848128512501717,0.06562789529561996,0.027392514050006866,-0.3626086574473062,-0.3626086574473062,-0.04347700947343944,-1.2411586880472558,-2.1642,0.0,-0.18476962748304082,-0.18476962748304085,-0.32353300315623357,-1.2197354994305358,0.02242617022001503,0.0,1.7346693529975281,1.7346693529975252,-0.3631223127882385,14.348463115621989,8.590164236396529,0.0,0.2749723939549944,-0.004733879545009043,0.2998769665254852,0.28,0.0,0.3,0.09578016823846452,0.043619894126202895,0.014238841756876857,True,True,True,True,True,False,0
0.420288236,1772664783.7561197,-0.014486530795693398,0.1978432536125183,1.0794546604156494,-0.016682041808962822,0.8067780137062073,-0.17966750264167786,0.07673328369855881,0.19294601678848267,0.2603316009044647,-0.006848128512501717,0.06562789529561996,0.027392514050006866,-0.36630404999696703,-0.36630404999696703,-0.04994766953656411,-1.2655533980358666,-2.1637514765956,0.0,-0.15544930014501812,-0.15544930014501812,-0.3215621140258961,-0.9883069322195924,0.1615415048849983,0.0,1.4660163669011337,1.466016366901135,0.09854445651687463,11.57142836054716,6.955766733249157,0.0,0.2749723939549944,-0.004733879545009043,0.2998769665254852,0.28,0.0,0.3,0.09578016823846452,0.043619894126202895,0.014238841756876857,True,True,True,True,True,False,0
0.440239828,1772664783.776071,-0.014486530795693398,0.1978432536125183,1.0794546604156494,-0.016682041808962822,0.8067780137062073,-0.17966750264167786,0.07673328369855881,0.19294601678848267,0.2603316009044647,-0.006848128512501717,0.06562789529561996,0.027392514050006866,-0.3694130359998674,-0.3694130359998674,-0.056378911817082024,-1.2853195366802586,-2.1605206464979,0.0,-0.13102023428402654,-0.13102023428402654,-0.3099703677807817,-0.8071739950823245,0.24286559679464603,0.0,1.2214532930495814,1.2214532930495814,0.5795873122557205,9.056646856863415,4.066204595482394,0.0,0.2749723939549944,-0.004733879545009043,0.2998769665254852,0.28,0.0,0.3,0.09578016823846452,0.043619894126202895,0.014238841756876857,True,True,True,True,True,False,0
0.460174557,1772664783.7960062,-0.010517355985939503,0.21714073419570923,1.1053904294967651,-0.017065536230802536,0.8118913173675537,-0.1787087619304657,0.03406943753361702,0.18418042361736298,0.2550243139266968,5.402424312586803e-16,0.03852072358131409,0.017120322212576866,-0.37203344068554794,-0.37203344068554794,-0.061087,-1.301463016581905,-2.155663334562007,0.0,-0.10969486091027918,-0.10969486091027918,-0.2990725807029404,-0.6731253268021595,0.2782274109628342,0.0,1.066268668687367,1.066268668687367,0.5448893538920636,6.70243341400824,1.7680907084094073,0.0,0.2793742139225222,-0.003709526776241876,0.30062360696395407,0.28,0.0,0.3,0.04747376448637259,0.036151691198707696,0.005776152437733932,True,True,True,True,True,False,0
0.480184532,1772664783.816016,-0.010517355985939503,0.21714073419570923,1.1053904294967651,-0.017065536230802536,0.8118913173675537,-0.1787087619304657,0.03406943753361702,0.18418042361736298,0.2550243139266968,5.402424312586803e-16,0.03852072358131409,0.017120322212576866,-0.3742273379037535,-0.3742273379037535,-0.061087,-1.3149255231179482,-2.1500987863427503,0.0,-0.08874689870093604,-0.08874689870093606,-0.30439336340147183,-0.5902954698089918,0.26646821722908454,0.0,1.0473981104671561,1.0473981104671548,-0.26603913492657094,4.141492849658381,-0.5879596866874831,0.0,0.2793742139225222,-0.003709526776241876,0.30062360696395407,0.28,0.0,0.3,0.04747376448637259,0.036151691198707696,0.005776152437733932,True,True,True,True,True,False,0
0.500145368,1772664783.835977,-0.010517355985939503,0.21714073419570923,1.1053904294967651,-0.017065536230802536,0.8118913173675537,-0.1787087619304657,0.03406943753361702,0.18418042361736298,0.2550243139266968,5.402424312586803e-16,0.03852072358131409,0.017120322212576866,-0.37600227587777224,-0.37600227587777224,-0.061087,-1.326731432514128,-2.1447694219981686,0.0,-0.07252873400863954,-0.07252873400863957,-0.30829626518108777,-0.5207206954656632,0.25073761305037057,0.0,0.8109082346148261,0.8109082346148261,-0.19514508898079744,3.4787387171664363,-0.7865302089356999,0.0,0.2793742139225222,-0.003709526776241876,0.30062360696395407,0.28,0.0,0.3,0.04747376448637259,0.036151691198707696,0.005776152437733932,True,True,True,True,True,False,0
0.520239701,1772664783.8560712,-0.010517355985939503,0.21714073419570923,1.1053904294967651,-0.017065536230802536,0.8118913173675537,-0.1787087619304657,0.03406943753361702,0.18418042361736298,0.2550243139266968,5.402424312586803e-16,0.03852072358131409,0.017120322212576866,-0.37745285055794503,-0.37745285055794503,-0.061087,-1.3371458464234411,-2.139754669737161,0.0,-0.059894129120193665,-0.059894129120193665,-0.3112331703706568,-0.4614973516215633,0.2332198251276193,0.0,0.6317302444222934,0.6317302444222949,-0.1468452594784507,2.9611671922049942,-0.8758893961375628,0.0,0.2793742139225222,-0.003709526776241876,0.30062360696395407,0.28,0.0,0.3,0.04747376448637259,0.036151691198707696,0.005776152437733932,True,True,True,True,True,False,0
0.54018031,1772664783.8760118,-0.010517355985939503,0.21714073419570923,1.1053904294967651,-0.017065536230802536,0.8118913173675537,-0.1787087619304657,0.03406943753361702,0.18418042361736298,0.2550243139266968,5.402424312586803e-16,0.03852072358131409,0.017120322212576866,-0.3786507331403489,-0.3786507331403489,-0.061087,-1.3463757934558724,-2.1350902732346086,0.0,-0.04997513633154255,-0.04997513633154252,-0.3134967472481892,-0.4105519078998219,0.21522495076079529,0.0,0.4959496394325555,0.4959496394325569,-0.11317884387662115,2.547272186087069,-0.8997437183411997,0.0,0.2793742139225222,-0.003709526776241876,0.30062360696395407,0.28,0.0,0.3,0.04747376448637259,0.036151691198707696,0.005776152437733932,True,True,True,True,True,False,0
0.560122571,1772664783.895954,-0.006728423293679953,0.22577129304409027,1.1167035102844238,-0.016873788088560104,0.8130097985267639,-0.1762160360813141,0.042492639273405075,0.06406424194574356,0.08385533094406128,5.402424312586803e-16,0.007133467122912407,0.0308165792375803,-0.37965023586697977,-0.37965023586697977,-0.061087,-1.354586831613869,-2.1307857742193925,0.0,-0.042118665841182956,-0.042118665841182956,-0.3152807290101177,-0.36635676197623757,0.19753123368135478,0.0,0.3928235245179792,0.3928235245179778,-0.08919908809642543,2.209757296179214,-0.8846858539720246,0.0,0.28137247229919776,-0.002656410378848802,0.30087277884801905,0.28,0.0,0.3,0.0029982907242743877,0.025543016861291148,-0.00492540478627875,True,True,True,True,True,False,0
0.580294474,1772664783.916126,-0.006728423293679953,0.22577129304409027,1.1167035102844238,-0.016873788088560104,0.8130097985267639,-0.1762160360813141,0.042492639273405075,0.06406424194574356,0.08385533094406128,5.402424312586803e-16,0.007133467122912407,0.0308165792375803,-0.38049260918380345,-0.38049260918380345,-0.061087,-1.3619139668533937,-2.1268351495457654,0.0,-0.035834856224624186,-0.03583485622462413,-0.31671597743459984,-0.3277549757969069,0.18058820236933104,0.0,0.31419048082793827,0.31419048082794104,-0.07176242122410574,1.9300893089665327,-0.8471515656011861,0.0,0.28137247229919776,-0.002656410378848802,0.30087277884801905,0.28,0.0,0.3,0.0029982907242743877,0.025543016861291148,-0.00492540478627875,True,True,True,True,True,False,0
0.600291962,1772664783.9361234,-0.006728423293679953,0.22577129304409027,1.1167035102844238,-0.016873788088560104,0.8130097985267639,-0.1762160360813141,0.042492639273405075,0.06406424194574356,0.08385533094406128,5.402424312586803e-16,0.007133467122912407,0.0308165792375803,-0.3812093063082959,-0.3812093063082959,-0.061087,-1.3684690663693317,-2.123223385498379,0.0,-0.03075663365633736,-0.03075663365633736,-0.31789253929507605,-0.29384916232196856,0.16463997276415782,0.0,0.2539111284143424,0.2539111284143396,-0.05882809302381081,1.6952906737469238,-0.7974114802586649,0.0,0.28137247229919776,-0.002656410378848802,0.30087277884801905,0.28,0.0,0.3,0.0029982907242743877,0.025543016861291148,-0.00492540478627875,True,True,True,True,True,False,0
0.620236974,1772664783.9560683,-0.006728423293679953,0.22577129304409027,1.1167035102844238,-0.016873788088560104,0.8130097985267639,-0.1762160360813141,0.042492639273405075,0.06406424194574356,0.08385533094406128,5.402424312586803e-16,0.007133467122912407,0.0308165792375803,-0.38182443898142265,-0.38182443898142265,-0.061087,-1.3743460496157711,-2.1199305860430955,0.0,-0.02660874214233569,-0.02660874214233569,-0.31887344242036186,-0.2639289771097845,0.1498017183977267,0.0,0.2073945757000834,0.2073945757000834,-0.04904515626429069,1.4960092606092006,-0.7419127183215545,0.0,0.28137247229919776,-0.002656410378848802,0.30087277884801905,0.28,0.0,0.3,0.0029982907242743877,0.025543016861291148,-0.00492540478627875,True,True,True,True,True,False,0
0.640151246,1772664783.9759827,-0.006728423293679953,0.22577129304409027,1.1167035102844238,-0.016873788088560104,0.8130097985267639,-0.1762160360813141,0.042492639273405075,0.06406424194574356,0.08385533094406128,5.402424312586803e-16,0.007133467122912407,0.0308165792375803,-0.3823566138242694,-0.3823566138242694,-0.061087,-1.3796246291579668,-2.1169345516751408,0.0,-0.02318434860292433,-0.02318434860292433,-0.3197035140941348,-0.23742236363600372,0.13610792887544232,0.0,0.1712196769705679,0.1712196769705679,-0.04150358368864567,1.3253306736890391,-0.6846894761142192,0.0,0.28137247229919776,-0.002656410378848802,0.30087277884801905,0.28,0.0,0.3,0.0029982907242743877,0.025543016861291148,-0.00492540478627875,True,True,True,True,True,False,0
0.660203163,1772664783.9960346,-0.0033747577108442783,0.2294911891222,1.1213552951812744,-0.016873788088560104,0.8133293986320496,-0.17544905841350555,0.029515434056520462,0.033076461404561996,0.04286928474903107,5.402424312586803e-16,0.0042800805531442165,3.3584246494910985e-15,-0.3828203007963279,-0.3828203007963279,-0.061087,-1.384373076430687,-2.114212393097632,0.0,-0.020327525951443094,-0.020327525951443066,-0.32041512786349696,-0.21386184000803354,0.12354331865901869,0.0,0.14284113257406164,0.14284113257406303,-0.03558068846810921,1.1780261813985078,-0.6282305108211811,0.0,0.282213653847426,-0.0017157957391010763,0.30092365936333565,0.28,0.0,0.3,-0.012863608866944265,0.016528052667796406,-0.007303095848581727,True,True,True,True,True,False,0
0.68027842,1772664784.0161097,-0.0033747577108442783,0.2294911891222,1.1213552951812744,-0.016873788088560104,0.8133293986320496,-0.17544905841350555,0.029515434056520462,0.033076461404561996,0.04286928474903107,5.402424312586803e-16,0.0042800805531442165,3.3584246494910985e-15,-0.3832268513153568,-0.3832268513153568,-0.061087,-1.3886503132308476,-2.1117415267244515,0.0,-0.01792020925010867,-0.017920209250108697,-0.32103201830582406,-0.19286056660167417,0.11206281054406098,0.0,0.1203658350667211,0.12036583506671833,-0.030844522116354994,1.050063670317968,-0.574025405747885,0.0,0.282213653847426,-0.0017157957391010763,0.30092365936333565,0.28,0.0,0.3,-0.012863608866944265,0.016528052667796406,-0.007303095848581727,True,True,True,True,True,False,0
0.700350356,1772664784.0361817,-0.0033747577108442783,0.2294911891222,1.1213552951812744,-0.016873788088560104,0.8133293986320496,-0.17544905841350555,0.029515434056520462,0.033076461404561996,0.04286928474903107,5.402424312586803e-16,0.0042800805531442165,3.3584246494910985e-15,-0.38358525550035893,-0.38358525550035893,-0.061087,-1.392507524562881,-2.1095002705135704,0.0,-0.015872514904188156,-0.015872514904188128,-0.3215718473780945,-0.17409493331039977,0.10160450559972833,0.0,0.10238471729602559,0.10238471729602837,-0.02699145361352293,0.938281664563719,-0.5229152472166316,0.0,0.282213653847426,-0.0017157957391010763,0.30092365936333565,0.28,0.0,0.3,-0.012863608866944265,0.016528052667796406,-0.007303095848581727,True,True,True,True,True,False,0
0.720320497,1772664784.056152,-0.0033747577108442783,0.2294911891222,1.1213552951812744,-0.016873788088560104,0.8133293986320496,-0.17544905841350555,0.029515434056520462,0.033076461404561996,0.04286928474903107,5.402424312586803e-16,0.0042800805531442165,3.3584246494910985e-15,-0.3839027057984427,-0.3839027057984427,-0.061087,-1.395989423229089,-2.107468180401576,0.0,-0.014115576218101625,-0.014115576218101653,-0.32204796354505005,-0.15729168934239823,0.09209814145000356,0.0,0.08784693430432647,0.08784693430432369,-0.02380580834777655,0.840162198400076,-0.47531820748623843,0.0,0.282213653847426,-0.0017157957391010763,0.30092365936333565,0.28,0.0,0.3,-0.012863608866944265,0.016528052667796406,-0.007303095848581727,True,True,True,True,True,False,0
0.740349751,1772664784.0761812,-0.0033747577108442783,0.2294911891222,1.1213552951812744,-0.016873788088560104,0.8133293986320496,-0.17544905841350555,0.029515434056520462,0.033076461404561996,0.04286928474903107,5.402424312586803e-16,0.0042800805531442165,3.3584246494910985e-15,-0.38418501732280474,-0.38418501732280474,-0.061087,-1.399135257015937,-2.105626217572576,0.0,-0.01259623708849333,-0.012596237088493358,-0.32247061211693473,-0.14221817355692967,0.08347050316977184,0.0,0.07596695648041507,0.07596695648041507,-0.021132428594233907,0.7536757892734316,-0.431381914011588,0.0,0.282213653847426,-0.0017157957391010763,0.30092365936333565,0.28,0.0,0.3,-0.012863608866944265,0.016528052667796406,-0.007303095848581727,True,True,True,True,True,False,0
0.760319128,1772664784.0961506,-0.0014074273640289903,0.2296273410320282,1.1210600137710571,-0.016873788088560104,0.8134092688560486,-0.17544905841350555,0.017017599195241928,-0.004554005339741707,-0.01232663169503212,5.402424312586803e-16,0.001426693401299417,3.3584246494910985e-15,-0.3844369420645746,-0.3844369420645746,-0.061087,-1.4019796204870756,-2.1039568075091806,0.0,-0.011273131635814268,-0.01127313163581424,-0.32284778637470424,-0.12867486932316657,0.0756488936710828,0.0,0.06615527263395306,0.06615527263395583,-0.018858712888475387,0.6771652116881544,-0.39108047493445175,0.0,0.28217869342952007,-0.0011605909961707821,0.3008149712051315,0.28,0.0,0.3,-0.02176540960123108,0.011068121880243073,-0.008675426038395143,True,True,True,True,True,False,0
0.780318148,1772664784.1161494,-0.0014074273640289903,0.2296273410320282,1.1210600137710571,-0.016873788088560104,0.8134092688560486,-0.17544905841350555,0.017017599195241928,-0.004554005339741707,-0.01232663169503212,5.402424312586803e-16,0.001426693401299417,3.3584246494910985e-15,-0.3846624046972909,-0.3846624046972909,-0.061087,-1.4045531178735389,-2.102443829635759,0.0,-0.01011377526860308,-0.01011377526860308,-0.323185821614355,-0.11648956053772935,0.06856322211003624,0.0,0.05796781836055939,0.057967818360558004,-0.016901761982537886,0.6092654392718605,-0.3542835780523276,0.0,0.28217869342952007,-0.0011605909961707821,0.3008149712051315,0.28,0.0,0.3,-0.02176540960123108,0.011068121880243073,-0.008675426038395143,True,True,True,True,True,False,0
0.800155661,1772664784.1359873,-0.0014074273640289903,0.2296273410320282,1.1210600137710571,-0.016873788088560104,0.8134092688560486,-0.17544905841350555,0.017017599195241928,-0.004554005339741707,-0.01232663169503212,5.402424312586803e-16,0.001426693401299417,3.3584246494910985e-15,-0.38486468020266296,-0.38486468020266296,-0.061087,-1.4068829090842934,-2.101072565193558,0.0,-0.009092410907368221,-0.009092410907368221,-0.3234898217277896,-0.10551275531783749,0.06214724108002623,0.0,0.051068218061742866,0.051068218061742866,-0.015200005671731062,0.5488402609945926,-0.3207990515005002,0.0,0.28217869342952007,-0.0011605909961707821,0.3008149712051315,0.28,0.0,0.3,-0.02176540960123108,0.011068121880243073,-0.008675426038395143,True,True,True,True,True,False,0
0.8203407,1772664784.1561723,-0.0014074273640289903,0.2296273410320282,1.1210600137710571,-0.016873788088560104,0.8134092688560486,-0.17544905841350555,0.017017599195241928,-0.004554005339741707,-0.01232663169503212,5.402424312586803e-16,0.001426693401299417,3.3584246494910985e-15,-0.38504652842081033,-0.38504652842081033,-0.061087,-1.4089931641906501,-2.0998296203719575,0.0,-0.008188411483456438,-0.008188411483456438,-0.3237639669399456,-0.09561406856026144,0.05633921674455389,0.0,0.04519997119558912,0.04519997119558912,-0.013707260607798132,0.4949343378788019,-0.2904012167736167,0.0,0.28217869342952007,-0.0011605909961707821,0.3008149712051315,0.28,0.0,0.3,-0.02176540960123108,0.011068121880243073,-0.008675426038395143,True,True,True,True,True,False,0
0.840292779,1772664784.176124,-0.0014074273640289903,0.2296273410320282,1.1210600137710571,-0.016873788088560104,0.8134092688560486,-0.17544905841350555,0.017017599195241928,-0.004554005339741707,-0.01232663169503212,5.402424312586803e-16,0.001426693401299417,3.3584246494910985e-15,-0.38521029665047946,-0.38521029665047946,-0.061087,-1.4109054455618553,-2.0987028360370665,0.0,-0.007385078935013171,-0.007385078935013143,-0.32401172669508466,-0.0866792070347262,0.051082125526121736,0.0,0.04016662742216331,0.040166627422164695,-0.012387987756953812,0.44674307627676174,-0.2628545609216074,0.0,0.28217869342952007,-0.0011605909961707821,0.3008149712051315,0.28,0.0,0.3,-0.02176540960123108,0.011068121880243073,-0.008675426038395143,True,True,True,True,True,False,0
0.860385857,1772664784.1962173,-0.00011888350854860619,0.22786517441272736,1.1176047325134277,-0.016873788088560104,0.8134891986846924,-0.17544905841350555,0.011710300110280514,-0.017736652866005898,-0.03300797939300537,5.402424312586803e-16,2.9658814178879596e-15,3.3584246494910985e-15,-0.3853579982291797,-0.3853579982291797,-0.061087,-1.4126390297025497,-2.0976811935265443,0.0,-0.006668756908076768,-0.006668756908076768,-0.32423602455367834,-0.07860763184177066,0.046323696775615486,0.0,0.03581610134682031,0.035816101346818924,-0.01121489292968408,0.4035787596477788,-0.23792143752531358,0.0,0.28159801580777605,-0.0007969923268719822,0.300494176771078,0.28,0.0,0.3,-0.019392074491410814,0.007453133647450273,-0.006403686672341816,True,True,True,True,True,False,0
0.880387865,1772664784.2162194,-0.00011888350854860619,0.22786517441272736,1.1176047325134277,-0.016873788088560104,0.8134891986846924,-0.17544905841350555,0.011710300110280514,-0.017736652866005898,-0.03300797939300537,5.402424312586803e-16,2.9658814178879596e-15,3.3584246494910985e-15,-0.38549137336734124,-0.38549137336734124,-0.061087,-1.4142111823393853,-2.096754719591032,0.0,-0.006028161479034965,-0.006028161479034965,-0.3244393576357799,-0.07131059404491169,0.04201627257296853,0.0,0.032029771452090114,0.032029771452090114,-0.010166654105078768,0.36485188984294836,-0.21537121013234775,0.0,0.28159801580777605,-0.0007969923268719822,0.300494176771078,0.28,0.0,0.3,-0.019392074491410814,0.007453133647450273,-0.006403686672341816,True,True,True,True,True,False,0
0.900314418,1772664784.236146,-0.00011888350854860619,0.22786517441272736,1.1176047325134277,-0.016873788088560104,0.8134891986846924,-0.17544905841350555,0.011710300110280514,-0.017736652866005898,-0.03300797939300537,5.402424312586803e-16,2.9658814178879596e-15,3.3584246494910985e-15,-0.38561193659692194,-0.38561193659692194,-0.061087,-1.4156373942202836,-2.0959143941395726,0.0,-0.0054538710143317085,-0.0054538710143317085,-0.3246238785856099,-0.064709470672134,0.038116530872683074,0.0,0.028714523235162808,0.028714523235162808,-0.00922604749150068,0.33005616863888393,-0.19498708501427248,0.0,0.28159801580777605,-0.0007969923268719822,0.300494176771078,0.28,0.0,0.3,-0.019392074491410814,0.007453133647450273,-0.006403686672341816,True,True,True,True,True,False,0
0.920273309,1772664784.2561047,-0.00011888350854860619,0.22786517441272736,1.1176047325134277,-0.016873788088560104,0.8134891986846924,-0.17544905841350555,0.011710300110280514,-0.017736652866005898,-0.03300797939300537,5.402424312586803e-16,2.9658814178879596e-15,3.3584246494910985e-15,-0.3857210140172086,-0.3857210140172086,-0.061087,-1.4169315836337262,-2.095152063522119,0.0,-0.004937945018177847,-0.004937945018177847,-0.3247914633380771,-0.05873443658297661,0.03458521237491241,0.0,0.025796299807693036,0.025796299807693036,-0.008379237623359896,0.2987517044578694,-0.176565924888533,0.0,0.28159801580777605,-0.0007969923268719822,0.300494176771078,0.28,0.0,0.3,-0.019392074491410814,0.007453133647450273,-0.006403686672341816,True,True,True,True,True,False,0
0.940419655,1772664784.276251,-0.00011888350854860619,0.22786517441272736,1.1176047325134277,-0.016873788088560104,0.8134891986846924,-0.17544905841350555,0.011710300110280514,-0.017736652866005898,-0.03300797939300537,5.402424312586803e-16,2.9658814178879596e-15,3.3584246494910985e-15,-0.38581977291757213,-0.38581977291757213,-0.061087,-1.4181062723653857,-2.0944603592746205,0.0,-0.004473632512740706,-0.004473632512740706,-0.3249437626680192,-0.05332333185705446,0.03138681860786757,0.0,0.023215625271857054,0.023215625271857054,-0.007614966497104796,0.27055523629610756,-0.15991968835224177,0.0,0.28159801580777605,-0.0007969923268719822,0.300494176771078,0.28,0.0,0.3,-0.019392074491410814,0.007453133647450273,-0.006403686672341816,True,True,True,True,True,False,0
0.960235465,1772664784.2960668,0.0006711165769957006,0.22589784860610962,1.1144907474517822,-0.016873788088560104,0.8134891986846924,-0.17544905841350555,0.007601422723382711,-0.020886791869997978,-0.03225468471646309,5.402424312586803e-16,2.9658814178879596e-15,3.3584246494910985e-15,-0.38590924556782696,-0.38590924556782696,-0.061087,-1.4191727390025268,-2.0938326229024633,0.0,-0.004055144158044487,-0.004055144158044515,-0.32508223605583514,-0.04842068334050387,0.028489275639292433,0.0,0.020924417734810904,0.020924417734809516,-0.006923669390795911,0.24513242582752925,-0.14487714842875685,0.0,0.2810563635090807,-0.0005749054730297636,0.30031182481024205,0.28,0.0,0.3,-0.014553337145932065,0.005436953069366947,-0.004555777595839194,True,True,True,True,True,False,0
0.980307059,1772664784.3161385,0.0006711165769957006,0.22589784860610962,1.1144907474517822,-0.016873788088560104,0.8134891986846924,-0.17544905841350555,0.007601422723382711,-0.020886791869997978,-0.03225468471646309,5.402424312586803e-16,2.9658814178879596e-15,3.3584246494910985e-15,-0.38599034845098784,-0.38599034845098784,-0.061087,-1.4201411526693368,-2.0932628373896773,0.0,-0.003677480170970516,-0.003677480170970488,-0.3252081850310035,-0.04397690168925483,0.025863646839641374,0.0,0.01888319935369866,0.018883199353701436,-0.006297448758418896,0.22218908256245276,-0.13128143998255354,0.0,0.2810563635090807,-0.0005749054730297636,0.30031182481024205,0.28,0.0,0.3,-0.014553337145932065,0.005436953069366947,-0.004555777595839194,True,True,True,True,True,False,0
1.000324806,1772664784.3361561,0.0006711165769957006,0.22589784860610962,1.1144907474517822,-0.016873788088560104,0.8134891986846924,-0.17544905841350555,0.007601422723382711,-0.020886791869997978,-0.03225468471646309,5.402424312586803e-16,2.9658814178879596e-15,3.3584246494910985e-15,-0.3860638980544073,-0.3860638980544073,-0.061087,-1.421020690703122,-2.0927455644528843,0.0,-0.003336290202435116,-0.003336290202435116,-0.32532277155834344,-0.03994754917789345,0.023483812801830095,0.0,0.01705949842676998,0.017059498426768592,-0.005729326366996074,0.20146762556806902,-0.11899170189056385,0.0,0.2810563635090807,-0.0005749054730297636,0.30031182481024205,0.28,0.0,0.3,-0.014553337145932065,0.005436953069366947,-0.004555777595839194,True,True,True,True,True,False,0
1.02018246,1772664784.3560138,0.0006711165769957006,0.22589784860610962,1.1144907474517822,-0.016873788088560104,0.8134891986846924,-0.17544905841350555,0.007601422723382711,-0.020886791869997978,-0.03225468471646309,5.402424312586803e-16,2.9658814178879596e-15,3.3584246494910985e-15,-0.386130623858456,-0.386130623858456,-0.061087,-1.42181964168668,-2.0922758881968475,0.0,-0.0030277723426823527,-0.0030277723426823805,-0.3254270432133567,-0.03629279767096344,0.021326247756983163,0.0,0.015425892987638148,0.01542589298763676,-0.005213582750662744,0.1827375753465003,-0.1078782522423465,0.0,0.2810563635090807,-0.0005749054730297636,0.30031182481024205,0.28,0.0,0.3,-0.014553337145932065,0.005436953069366947,-0.004555777595839194,True,True,True,True,True,False,0
1.040348687,1772664784.3761802,0.0006711165769957006,0.22589784860610962,1.1144907474517822,-0.016873788088560104,0.8134891986846924,-0.17544905841350555,0.007601422723382711,-0.020886791869997978,-0.03225468471646309,5.402424312586803e-16,2.9658814178879596e-15,3.3584246494910985e-15,-0.3861911793053096,-0.3861911793053096,-0.061087,-1.4225454976400993,-2.0918493632417077,0.0,-0.002890022732448958,-0.002890022732448958,-0.32570738304335023,-0.03208146849593985,0.020508190274045768,0.0,0.006887480511669723,0.0068874805116711105,-0.014016991499676822,0.21056645875117944,-0.04090287414686974,0.0,0.2810563635090807,-0.0005749054730297636,0.30031182481024205,0.28000039402400007,-2.955180000000008e-07,0.3,-0.014472949105931677,0.005376662039366947,-0.004555777595839194,True,True,True,True,True,False,0
1.060373254,1772664784.3962047,0.0012655341997742653,0.2238672375679016,1.1113001108169556,-0.016873788088560104,0.8134891986846924,-0.17544905841350555,0.005889390595257282,-0.01835298351943493,-0.02985784038901329,5.402424312586803e-16,2.9658814178879596e-15,3.3584246494910985e-15,-0.3862489797599586,-0.3862489797599586,-0.061087,-1.423187127010018,-2.091439199436227,0.0,-0.003051411700398722,-0.003051411700398722,-0.32636139205261616,-0.02633471692056205,0.022093923116383474,0.0,-0.008069448397488188,-0.008069448397488188,-0.03270045046329659,0.2873375787688895,0.07928664211688523,0.0,0.2804997720620217,-0.00040855753717537876,0.3001285574828663,0.280003104768,-2.3285760000000057e-06,0.3,-0.008372043291283094,0.003562550000694722,-0.0026247796629135342,True,True,True,True,True,False,0
1.080261269,1772664784.4160926,0.0012655341997742653,0.2238672375679016,1.1113001108169556,-0.016873788088560104,0.8134891986846924,-0.17544905841350555,0.005889390595257282,-0.01835298351943493,-0.02985784038901329,5.402424312586803e-16,2.9658814178879596e-15,3.3584246494910985e-15,-0.3863100079939666,-0.3863100079939666,-0.061087,-1.4237138213484293,-2.0909973209738992,0.0,-0.003469710786562965,-0.003469710786562965,-0.3273853944079878,-0.019057024322732374,0.02579355767959196,0.0,-0.020914954308212125,-0.020914954308212125,-0.051200117768582194,0.3638846298914835,0.18498172816042419,0.0,0.2804997720620217,-0.00040855753717537876,0.3001285574828663,0.280010319832,-7.739874000000021e-06,0.3,-0.007939025651283325,0.0032377867706947215,-0.0026247796629135342,True,True,True,True,True,False,0
1.100385775,1772664784.4362173,0.0012655341997742653,0.2238672375679016,1.1113001108169556,-0.016873788088560104,0.8134891986846924,-0.17544905841350555,0.005889390595257282,-0.01835298351943493,-0.02985784038901329,5.402424312586803e-16,2.9658814178879596e-15,3.3584246494910985e-15,-0.38637940220969785,-0.38637940220969785,-0.061087,-1.424094961834884,-2.0904814498203073,0.0,-0.004109715702105242,-0.004109715702105242,-0.32877668656436665,-0.010261499212499303,0.031357124048191076,0.0,-0.03200024577711382,-0.03200024577711382,-0.06956460781894208,0.43977625551165317,0.27817831842995555,0.0,0.2804997720620217,-0.00040855753717537876,0.3001285574828663,0.28002408857600003,-1.8066432000000045e-05,0.3,-0.007311693211282792,0.0027672874406947205,-0.0026247796629135342,True,True,True,True,True,False,0
1.120300265,1772664784.456132,0.0012655341997742653,0.2238672375679016,1.1113001108169556,-0.016873788088560104,0.8134891986846924,-0.17544905841350555,0.005889390595257282,-0.01835298351943493,-0.02985784038901329,5.402424312586803e-16,2.9658814178879596e-15,3.3584246494910985e-15,-0.38646159652373996,-0.38646159652373996,-0.061087,-1.4243001918191338,-2.0898543073393436,0.0,-0.004941764068640338,-0.0049417640686403655,-0.3305329609134882,2.9192558157697945e-05,0.038567185033290485,0.0,-0.04160241832675476,-0.041602418326756145,-0.08781371745607827,0.5145345885328496,0.3605030492549701,0.0,0.2804997720620217,-0.00040855753717537876,0.3001285574828663,0.280046325,-3.474375000000009e-05,0.3,-0.0064796107712832415,0.002143225610694719,-0.0026247796629135342,True,True,True,True,True,False,0
1.140304098,1772664784.4761357,0.0012655341997742653,0.2238672375679016,1.1113001108169556,-0.016873788088560104,0.8134891986846924,-0.17544905841350555,0.005889390595257282,-0.01835298351943493,-0.02985784038901329,5.402424312586803e-16,2.9658814178879596e-15,3.3584246494910985e-15,-0.3865604318051128,-0.3865604318051128,-0.061087,-1.4242996079679706,-2.0890829636386776,0.0,-0.0059406395725699265,-0.005940639572569982,-0.3326519461852488,0.01178267118169185,0.04723324860747019,0.0,-0.0499437751964794,-0.049943775196480786,-0.10594926358802871,0.5876739311767071,0.4333031787089849,0.0,0.2804997720620217,-0.00040855753717537876,0.3001285574828663,0.280078810624,-5.910796800000016e-05,0.3,-0.0054334807312833465,0.0013586280806947178,-0.0026247796629135342,True,True,True,True,True,False,0
1.160144734,1772664784.4959762,0.0016298545524477959,0.22279921174049377,1.1096241474151611,-0.016873788088560104,0.8134891986846924,-0.17544905841350555,0.0035952674224972725,-0.009039529599249363,-0.014894679188728333,5.402424312586803e-16,2.9658814178879596e-15,3.3584246494910985e-15,-0.38667924459656416,-0.38667924459656416,-0.061087,-1.4240639545443368,-2.0881382986665282,0.0,-0.007084750231819762,-0.00708475023181979,-0.33513119903445804,0.02495719197842905,0.057187473735177574,0.0,-0.05720553296249173,-0.05720553296249034,-0.12396264246046218,0.6587260398368594,0.4977112563853687,0.0,0.28020710547849037,-0.0003068493913719741,0.3000324349287043,0.280123197368,-9.239802600000023e-05,0.3,0.0006880280405312201,-0.000489412173502331,-0.0009946399834289367,True,True,True,True,True,False,0
1.180247292,1772664784.516079,0.0016298545524477959,0.22279921174049377,1.1096241474151611,-0.016873788088560104,0.8134891986846924,-0.17544905841350555,0.0035952674224972725,-0.009039529599249363,-0.014894679188728333,5.402424312586803e-16,2.9658814178879596e-15,3.3584246494910985e-15,-0.38682093960120056,-0.38682093960120056,-0.061087,-1.4235648107047683,-2.0869945491918247,0.0,-0.008355489742054164,-0.008355489742054164,-0.33796797977553783,0.03950243053712463,0.06828121554456562,0.0,-0.06353697551172073,-0.06353697551171934,-0.14183903705399104,0.7272619279347863,0.554687090469408,0.0,0.28020710547849037,-0.0003068493913719741,0.3000324349287043,0.28018101043200005,-0.0001357578239999998,0.3,0.0021857396805316618,-0.0016126959035023195,-0.0009946399834289367,True,True,True,True,True,False,0
1.200170679,1772664784.5360022,0.0016298545524477959,0.22279921174049377,1.1096241474151611,-0.016873788088560104,0.8134891986846924,-0.17544905841350555,0.0035952674224972725,-0.009039529599249363,-0.014894679188728333,5.402424312586803e-16,2.9658814178879596e-15,3.3584246494910985e-15,-0.38698804939604164,-0.38698804939604164,-0.061087,-1.4227747620940259,-2.0856289248809334,0.0,-0.009736748937008365,-0.00973674893700842,-0.341159201215135,0.055360347429210977,0.08038232251319699,0.0,-0.06906295974771001,-0.06906295974771279,-0.15956107197985778,0.7928958446043167,0.6050553484315679,0.0,0.28020710547849037,-0.0003068493913719741,0.3000324349287043,0.28025365117600004,-0.00019023838199999982,0.3,0.003918854120531516,-0.002912531733502321,-0.0009946399834289367,True,True,True,True,True,False,0
1.220235068,1772664784.5560665,0.0016298545524477959,0.22279921174049377,1.1096241474151611,-0.016873788088560104,0.8134891986846924,-0.17544905841350555,0.0035952674224972725,-0.009039529599249363,-0.014894679188728333,5.402424312586803e-16,2.9658814178879596e-15,3.3584246494910985e-15,-0.3871827843747818,-0.3871827843747818,-0.061087,-1.4216675551454416,-2.0840212784306695,0.0,-0.011214517328263,-0.011214517328263028,-0.34470140137933647,0.07246622453526821,0.09337284865226653,0.0,-0.0738884195627317,-0.07388841956273032,-0.1771100082100739,0.8552938553028612,0.6495263069534762,0.0,0.28020710547849037,-0.0003068493913719741,0.3000324349287043,0.28034240000000005,-0.00025679999999999985,0.3,0.005892406560531582,-0.00439269606350232,-0.0009946399834289367,True,True,True,True,True,False,0
1.240356644,1772664784.576188,0.0016298545524477959,0.22279921174049377,1.1096241474151611,-0.016873788088560104,0.8134891986846924,-0.17544905841350555,0.0035952674224972725,-0.009039529599249363,-0.014894679188728333,5.402424312586803e-16,2.9658814178879596e-15,3.3584246494910985e-15,-0.38740707472134706,-0.38740707472134706,-0.061087,-1.4202182306547362,-2.082153821457624,0.0,-0.0127765618215547,-0.012776561821554672,-0.34859073711478405,0.09074968576295395,0.10714716323711859,0.0,-0.0781022246645849,-0.07810222466458212,-0.1944667867723791,0.9141730613842858,0.6887157292426026,0.0,0.28020710547849037,-0.0003068493913719741,0.3000324349287043,0.280448419224,-0.0003363144179999999,0.3,0.00811043860053101,-0.006056220093502323,-0.0009946399834289367,True,True,True,True,True,False,0
1.260136578,1772664784.595968,0.0018216022290289402,0.22230257093906403,1.1087900400161743,-0.016873788088560104,0.8134891986846924,-0.17544905841350555,0.0015065883053466678,-0.0034925455693155527,-0.005992112681269646,5.402424312586803e-16,2.9658814178879596e-15,3.3584246494910985e-15,-0.38766260595777813,-0.38766260595777813,-0.061087,-1.418403236939477,-2.0800108781928817,0.0,-0.014412159304554192,-0.014412159304554247,-0.3528229803851468,0.11013566188738969,0.12161033093652046,0.0,-0.08177987414997452,-0.08177987414997868,-0.21161216351813764,0.9692988062217861,0.7231583849700928,0.0,0.2800633576508791,-0.0002533854565372634,0.29997475692652686,0.280572755968,-0.00042956697599999994,0.3,0.013094914737555304,-0.00835245809371667,-1.7671480592442877e-05,True,True,True,True,True,False,0
1.280289198,1772664784.6161206,0.0018216022290289402,0.22230257093906403,1.1087900400161743,-0.016873788088560104,0.8134891986846924,-0.17544905841350555,0.0015065883053466678,-0.0034925455693155527,-0.005992112681269646,5.402424312586803e-16,2.9658814178879596e-15,3.3584246494910985e-15,-0.38795084914386924,-0.38795084914386924,-0.061087,-1.4162005237017292,-2.0775786715741513,0.0,-0.016111866465204627,-0.016111866465204627,-0.35739350715832674,0.13054532478661324,0.1366766794662997,0.0,-0.0849853580325217,-0.08498535803251893,-0.22852633865899621,1.0204831449611766,0.7533174264889607,0.0,0.2800633576508791,-0.0002533854565372634,0.29997475692652686,0.28071634503200005,-0.000537258774,0.3,0.015810200377555574,-0.010388922323716672,-1.7671480592442877e-05,True,True,True,True,True,False,0
1.300303166,1772664784.6361346,0.0018216022290289402,0.22230257093906403,1.1087900400161743,-0.016873788088560104,0.8134891986846924,-0.17544905841350555,0.0015065883053466678,-0.0034925455693155527,-0.005992112681269646,5.402424312586803e-16,2.9658814178879596e-15,3.3584246494910985e-15,-0.3882730864731733,-0.3882730864731733,-0.061087,-1.413589617205997,-2.074845137984825,0.0,-0.017867326803534967,-0.017867326803535023,-0.36229728063485145,0.15189687680437286,0.1522685833008857,0.0,-0.08777301691651691,-0.08777301691651969,-0.24518867382623522,1.0675776008879803,0.7795951917292994,0.0,0.2800633576508791,-0.0002533854565372634,0.29997475692652686,0.28088001177599997,-0.0006600088320000002,0.3,0.018776416817554813,-0.012613584653716672,-1.7671480592442877e-05,True,True,True,True,True,False,0
1.320328274,1772664784.6561596,0.0018216022290289402,0.22230257093906403,1.1087900400161743,-0.016873788088560104,0.8134891986846924,-0.17544905841350555,0.0015065883053466678,-0.0034925455693155527,-0.005992112681269646,5.402424312586803e-16,2.9658814178879596e-15,3.3584246494910985e-15,-0.38863043300924405,-0.38863043300924405,-0.061087,-1.4105516796699096,-2.0717997663188075,0.0,-0.01967110011151435,-0.019671100111514295,-0.36752881909593227,0.17410624523829552,0.16831536354153442,0.0,-0.09018866539896908,-0.09018866539896353,-0.2615769230540408,1.1104684216961318,0.802339012032436,0.0,0.2800633576508791,-0.0002533854565372634,0.29997475692652686,0.28106447500000004,-0.0007983562500000003,0.3,0.021993919257555457,-0.015026711483716676,-1.7671480592442877e-05,True,True,True,True,True,False,0
1.340235643,1772664784.676067,0.0018216022290289402,0.22230257093906403,1.1087900400161743,-0.016873788088560104,0.8134891986846924,-0.17544905841350555,0.0015065883053466678,-0.0034925455693155527,-0.005992112681269646,5.402424312586803e-16,2.9658814178879596e-15,3.3584246494910985e-15,-0.38902385501147435,-0.38902385501147435,-0.061087,-1.4070695547651437,-2.0684334590479767,0.0,-0.021516511875980946,-0.02151651187598092,-0.37308215128452393,0.197087689400818,0.1847523058080193,0.0,-0.09227058822332972,-0.0922705882233311,-0.277666609429583,1.1490722081261233,0.8218471133242429,0.0,0.2800633576508791,-0.0002533854565372634,0.29997475692652686,0.281270349824,-0.0009527623680000004,0.3,0.0254622132975552,-0.01762793201371668,-1.7671480592442877e-05,True,True,True,True,True,False,0
1.360358823,1772664784.69619,0.0018177672754973173,0.22257103025913239,1.109012484550476,-0.016873788088560104,0.8132495284080505,-0.17544905841350555,-0.000308165792375803,0.004930652678012848,0.004348561633378267,5.402424312586803e-16,-0.001426693401299417,3.3584246494910985e-15,-0.38945418524899394,-0.38945418524899394,-0.061087,-1.4031278009771273,-2.0647384129318165,0.0,-0.02339752336473811,-0.02339752336473814,-0.3789507599210453,0.2207542459970454,0.20151980582122656,0.0,-0.09405057443785816,-0.09405057443786094,-0.29343043182606915,1.1833278298113692,0.8383750006603622,0.0,0.28012432908839596,-0.00025417379151688394,0.2999531366699234,0.281498150568,-0.0011236129260000006,0.3,0.030069541096574975,-0.020391760967114165,0.0006482424772121747,True,True,True,True,True,False,0
1.380396044,1772664784.7162275,0.0018177672754973173,0.22257103025913239,1.109012484550476,-0.016873788088560104,0.8132495284080505,-0.17544905841350555,-0.000308165792375803,0.004930652678012848,0.004348561633378267,5.402424312586803e-16,-0.001426693401299417,3.3584246494910985e-15,-0.3899221357162887,-0.3899221357162887,-0.061087,-1.3987127160571864,-2.0607080168153917,0.0,-0.02530861304327342,-0.025308613043273392,-0.38512751095614034,0.24501810367595983,0.2185625763199807,0.0,-0.09555448392676537,-0.09555448392676259,-0.30883755175475064,1.2131928839457202,0.8521385249377059,0.0,0.28012432908839596,-0.00025417379151688394,0.2999531366699234,0.28174829363200005,-0.001311220224000001,0.3,0.03403468073657561,-0.02336561569711417,0.0006482424772121747,True,True,True,True,True,False,0
1.400279561,1772664784.7361112,0.0018177672754973173,0.22257103025913239,1.109012484550476,-0.016873788088560104,0.8132495284080505,-0.17544905841350555,-0.000308165792375803,0.004930652678012848,0.004348561633378267,5.402424312586803e-16,-0.001426693401299417,3.3584246494910985e-15,-0.39042830797715417,-0.39042830797715417,-0.061087,-1.393812353983667,-2.056336765288992,0.0,-0.02724467349689882,-0.027244673496898793,-0.3916045746415367,0.2697908617926551,0.23582896728344893,0.0,-0.09680302268126996,-0.09680302268126996,-0.3238531842698175,1.2386379058347625,0.8633195481734114,0.0,0.28012432908839596,-0.00025417379151688394,0.2999531366699234,0.28202110037600003,-0.0015158252820000012,0.3,0.03824431917657548,-0.026522844527114176,0.0006482424772121747,True,True,True,True,True,False,0
1.420321197,1772664784.7561526,0.0018177672754973173,0.22257103025913239,1.109012484550476,-0.016873788088560104,0.8132495284080505,-0.17544905841350555,-0.000308165792375803,0.004930652678012848,0.004348561633378267,5.402424312586803e-16,-0.001426693401299417,3.3584246494910985e-15,-0.39097320144709213,-0.39097320144709213,-0.061087,-1.388416536747814,-2.051620185943323,0.0,-0.029200915653166994,-0.02920091565316705,-0.3983733373528544,0.2949837176437969,0.2532703146148859,0.0,-0.09781210781340853,-0.0978121078134127,-0.33843813556588526,1.2596427925570879,0.8720673665718485,0.0,0.28012432908839596,-0.00025417379151688394,0.2999531366699234,0.2823168,-0.0017376000000000017,0.3,0.042694851616574936,-0.02986074385711418,0.0006482424772121747,True,True,True,True,True,False,0
1.440352002,1772664784.7761836,0.0018177672754973173,0.22257103025913239,1.109012484550476,-0.016873788088560104,0.8132495284080505,-0.17544905841350555,-0.000308165792375803,0.004930652678012848,0.004348561633378267,5.402424312586803e-16,-0.001426693401299417,3.3584246494910985e-15,-0.39155721976015545,-0.39155721976015545,-0.061087,-1.3825168623949382,-2.0465547796510255,0.0,-0.031172785619776818,-0.031172785619776818,-0.40542430838514626,0.32050756255014573,0.2708403858636256,0.0,-0.09859349833049223,-0.09859349833048946,-0.35254855161459625,1.2761922453174555,0.878503562436992,0.0,0.28012432908839596,-0.00025417379151688394,0.2999531366699234,0.282635532424,-0.001976649317999999,0.3,0.047381967656575374,-0.03337608088711414,0.0006482424772121747,True,True,True,True,True,False,0
1.460239697,1772664784.796071,0.0007995874620974064,0.2252689152956009,1.11232590675354,-0.016873788088560104,0.8132495284080505,-0.17544905841350555,-0.014141385443508625,0.03252860903739929,0.04026699438691139,5.402424312586803e-16,2.9658814178879596e-15,3.3584246494910985e-15,-0.392180675472551,-0.392180675472551,-0.061087,-1.3761067111439353,-2.041137971933753,0.0,-0.03315588558791404,-0.03315588558791401,-0.4127470227421965,0.3462730556627594,0.288494847419302,0.0,-0.099154998406861,-0.09915499840685961,-0.3661357178525112,1.2882746556306823,0.8827230777838194,0.0,0.28073595363473475,-0.0005388880823148669,0.29997845057732286,0.28297735116800005,-0.002233013375999999,0.3,0.050520715109728685,-0.033830149872990066,0.0020178382022242583,True,True,True,True,True,False,0
1.480380119,1772664784.8162117,0.0007995874620974064,0.2252689152956009,1.11232590675354,-0.016873788088560104,0.8132495284080505,-0.17544905841350555,-0.014141385443508625,0.03252860903739929,0.04026699438691139,5.402424312586803e-16,2.9658814178879596e-15,3.3584246494910985e-15,-0.39284379318430923,-0.39284379318430923,-0.061087,-1.3691812500306801,-2.035368074985367,0.0,-0.03514590665702274,-0.03514590665702274,-0.420329948970405,0.3721905991530495,0.3061908122361475,0.0,-0.09950105345543489,-0.09950105345543628,-0.37914631141042454,1.2958771745145026,0.8847982408422764,0.0,0.28073595363473475,-0.0005388880823148669,0.29997845057732286,0.283342226232,-0.002506669674,0.3,0.055665388749728276,-0.037688655102990076,0.0020178382022242583,True,True,True,True,True,False,0
1.500252106,1772664784.8360834,0.0007995874620974064,0.2252689152956009,1.11232590675354,-0.016873788088560104,0.8132495284080505,-0.17544905841350555,-0.014141385443508625,0.03252860903739929,0.04026699438691139,5.402424312586803e-16,2.9658814178879596e-15,3.3584246494910985e-15,-0.39354671131744967,-0.39354671131744967,-0.061087,-1.361737438047619,-2.029244258740644,0.0,-0.03713856200474785,-0.03713856200474782,-0.4281603938160439,0.39817034337807655,0.3238863877525201,0.0,-0.09963276738625534,-0.09963276738625396,-0.39152224228194665,1.2989872112513527,0.884778775818628,0.0,0.28073595363473475,-0.0005388880823148669,0.29997845057732286,0.28373004697600007,-0.002797535232,0.3,0.061029769189728945,-0.04171194043299008,0.0020178382022242583,True,True,True,True,True,False,0
1.520315105,1772664784.8561466,0.0007995874620974064,0.2252689152956009,1.11232590675354,-0.016873788088560104,0.8132495284080505,-0.17544905841350555,-0.014141385443508625,0.03252860903739929,0.04026699438691139,5.402424312586803e-16,2.9658814178879596e-15,3.3584246494910985e-15,-0.39428948255754465,-0.39428948255754465,-0.061087,-1.3537740311800575,-2.0227665309855936,0.0,-0.03912952847307391,-0.03912952847307391,-0.43622442033510145,0.4241221597241719,0.34154028725692753,0.0,-0.09954832341630303,-0.09954832341630442,-0.4032013259528757,1.2975908173047657,0.8826949752203709,0.0,0.28073595363473475,-0.0005388880823148669,0.29997845057732286,0.28414062500000004,-0.00310546875,0.3,0.06660701162972857,-0.04589487226299008,0.0020178382022242583,True,True,True,True,True,False,0
1.540302103,1772664784.8761337,0.0007995874620974064,0.2252689152956009,1.11232590675354,-0.016873788088560104,0.8132495284080505,-0.17544905841350555,-0.014141385443508625,0.03252860903739929,0.04026699438691139,5.402424312586803e-16,2.9658814178879596e-15,3.3584246494910985e-15,-0.39507207312700615,-0.39507207312700615,-0.061087,-1.345291587985574,-2.015935725240455,0.0,-0.041114389312801806,-0.041114389312801806,-0.444506772474505,0.44995563799455607,0.35911143721697814,0.0,-0.09924304198639473,-0.09924304198639473,-0.41411760697017647,1.291673913519208,0.8785574980025294,0.0,0.28073595363473475,-0.0005388880823148669,0.29997845057732286,0.28457369702400004,-0.0034302727680000002,0.3,0.0723897096697286,-0.050231895792990075,0.0020178382022242583,True,True,True,True,True,False,0
1.560280029,1772664784.8961117,-0.001673956518061459,0.23052087426185608,1.1186459064483643,-0.016873788088560104,0.8129299283027649,-0.17544905841350555,-0.027597958222031593,0.05738731846213341,0.07074116915464401,5.402424312586803e-16,-0.0042800805531442165,3.3584246494910985e-15,-0.3958943609132622,-0.3958943609132622,-0.061087,-1.3362924752256828,-2.0087534964961153,0.0,-0.04308858799323988,-0.04308858799323985,-0.4529908196993056,0.4755800487590691,0.37655867160067863,0.0,-0.09870993402190344,-0.09870993402190205,-0.42420236124003047,1.2812205382256514,0.8723617191850239,0.0,0.2819258956668104,-0.0012350369846988707,0.2999945473925483,0.28502892776800004,-0.003771695826,0.3,0.07018631092006031,-0.04744210041103448,0.003131619442993928,True,True,True,True,True,False,0
1.580318158,1772664784.9161496,-0.001673956518061459,0.23052087426185608,1.1186459064483643,-0.016873788088560104,0.8129299283027649,-0.17544905841350555,-0.027597958222031593,0.05738731846213341,0.07074116915464401,5.402424312586803e-16,-0.0042800805531442165,3.3584246494910985e-15,-0.396756132673127,-0.396756132673127,-0.061087,-1.3267808742505014,-2.001222323064102,0.0,-0.04504737549143431,-0.04504737549143428,-0.461658514380489,0.500904462787584,0.3938403712085633,0.0,-0.0979393749097216,-0.0979393749097216,-0.43338473405916916,1.2662207014257454,0.8640849803942328,0.0,0.2819258956668104,-0.0012350369846988707,0.2999945473925483,0.285505912832,-0.0041294346240000005,0.3,0.07635559856005988,-0.05206906614103447,0.003131619442993928,True,True,True,True,True,False,0
1.600337051,1772664784.9361684,-0.001673956518061459,0.23052087426185608,1.1186459064483643,-0.016873788088560104,0.8129299283027649,-0.17544905841350555,-0.027597958222031593,0.05738731846213341,0.07074116915464401,5.402424312586803e-16,-0.0042800805531442165,3.3584246494910985e-15,-0.39765708018295565,-0.39765708018295565,-0.061087,-1.3167627849947496,-1.9933455156399307,0.0,-0.0469857731622819,-0.0469857731622819,-0.47049037840644836,0.5258377801843739,0.41091420586215466,0.0,-0.09691988354237928,-0.09691988354238067,-0.44159320129796803,1.2466658698394906,0.8536917326795671,0.0,0.2819258956668104,-0.0012350369846988707,0.2999945473925483,0.286004181576,-0.0045031361820000015,0.3,0.08270504100005985,-0.056831147971034494,0.003131619442993928,True,True,True,True,True,False,0
1.620260496,1772664784.956092,-0.001673956518061459,0.23052087426185608,1.1186459064483643,-0.016873788088560104,0.8129299283027649,-0.17544905841350555,-0.027597958222031593,0.05738731846213341,0.07074116915464401,5.402424312586803e-16,-0.0042800805531442165,3.3584246494910985e-15,-0.39859679564620126,-0.39859679564620126,-0.061087,-1.306246029391062,-1.9851272315226876,0.0,-0.04889853182463645,-0.04889853182463651,-0.47946551410320104,0.550288961452898,0.42773685776180803,0.0,-0.0956379331177276,-0.09563793311773038,-0.44875678483763354,1.222559063426203,0.8411325949826679,0.0,0.2819258956668104,-0.0012350369846988707,0.2999945473925483,0.28652320000000003,-0.004892400000000001,0.3,0.08922527344006023,-0.061721322301034484,0.003131619442993928,True,True,True,True,True,False,0
1.640250457,1772664784.9760818,-0.001673956518061459,0.23052087426185608,1.1186459064483643,-0.016873788088560104,0.8129299283027649,-0.17544905841350555,-0.027597958222031593,0.05738731846213341,0.07074116915464401,5.402424312586803e-16,-0.0042800805531442165,3.3584246494910985e-15,-0.399574766282694,-0.399574766282694,-0.061087,-1.2952402501620042,-1.9765724943674514,0.0,-0.05078009971024901,-0.05078009971024898,-0.4885616454695343,0.5741672717352865,0.4442637874570351,0.0,-0.09407839428062773,-0.09407839428062356,-0.45480656831666205,1.1939155141194246,0.8263464847613525,0.0,0.2819258956668104,-0.0012350369846988707,0.2999945473925483,0.287062373624,-0.005296780218000003,0.3,0.09590651348005991,-0.0667322523310345,0.003131619442993928,True,True,True,True,True,False,0
1.660248818,1772664784.9960804,-0.005554927978664637,0.23839786648750305,1.1283234357833862,-0.016682041808962822,0.8129299283027649,-0.17794176936149597,-0.04146541655063629,0.0843004584312439,0.10296161472797394,0.0034240642562508583,2.9658814178879596e-15,-0.04451283439993858,-0.400590368276899,-0.400590368276899,-0.061087,-1.2837569047272985,-1.9676872186183108,0.0,-0.05262459935092777,-0.05262459935092774,-0.49775519942888147,0.5973826032950298,0.4604490603927202,0.0,-0.09222498203393789,-0.09222498203393789,-0.4596776979673585,1.1607665779871645,0.809263646784255,0.0,0.28370155954055304,-0.0023303321892500844,0.30005355366160485,0.287621050368,-0.005715787776000002,0.3,0.08906215794172488,-0.06039386948940066,0.003984921794216443,True,True,True,True,True,False,0
1.680293942,1772664785.0161254,-0.005554927978664637,0.23839786648750305,1.1283234357833862,-0.016682041808962822,0.8129299283027649,-0.17794176936149597,-0.04146541655063629,0.0843004584312439,0.10296161472797394,0.0034240642562508583,2.9658814178879596e-15,-0.04451283439993858,-0.40164286026391754,-0.40164286026391754,-0.061087,-1.271809252661398,-1.9584782374104563,0.0,-0.05442580803835592,-0.054425808038355894,-0.5070214210929658,0.6198459673637622,0.4762451941359686,0.0,-0.09006043437140765,-0.09006043437140765,-0.46331108320421494,1.1231682034366188,0.7898066871624192,0.0,0.28370155954055304,-0.0023303321892500844,0.30005355366160485,0.2881985234320001,-0.006148892574000004,0.3,0.09603453958172567,-0.06562315571940068,0.003984921794216443,True,True,True,True,True,False,0
1.700414008,1772664785.0362456,-0.005554927978664637,0.23839786648750305,1.1283234357833862,-0.016682041808962822,0.8129299283027649,-0.17794176936149597,-0.04146541655063629,0.0843004584312439,0.10296161472797394,0.0034240642562508583,2.9658814178879596e-15,-0.04451283439993858,-0.40273137642468465,-0.40273137642468465,-0.061087,-1.259412333314123,-1.9489533335277371,0.0,-0.056177150550881724,-0.056177150550881724,-0.5163345301768018,0.6414700167387104,0.4916030696558636,0.0,-0.08756712562629101,-0.0875671256262924,-0.46565545419180376,1.081202468747422,0.7678937759947569,0.0,0.28370155954055304,-0.0023303321892500844,0.30005355366160485,0.288794034176,-0.006595525631999999,0.3,0.10313636402172502,-0.07094952404940061,0.003984921794216443,True,True,True,True,True,False,0
1.72026219,1772664785.0560937,-0.005554927978664637,0.23839786648750305,1.1283234357833862,-0.016682041808962822,0.8129299283027649,-0.17794176936149597,-0.04146541655063629,0.0843004584312439,0.10296161472797394,0.0034240642562508583,2.9658814178879596e-15,-0.04451283439993858,-0.4038549194357023,-0.4038549194357023,-0.061087,-1.2465829329793487,-1.9391212721346198,0.0,-0.05787170427924014,-0.05787170427924014,-0.5256679237240796,0.6621697019502121,0.506471923354528,0.0,-0.08472768641792076,-0.08472768641792076,-0.4666696773638897,1.0349842605750827,0.7434426849332175,0.0,0.28370155954055304,-0.0023303321892500844,0.30005355366160485,0.28940677500000006,-0.0070550812499999985,0.3,0.11035646646172538,-0.07636460087940061,0.003984921794216443,True,True,True,True,True,False,0
1.740369681,1772664785.0762012,-0.005554927978664637,0.23839786648750305,1.1283234357833862,-0.016682041808962822,0.8129299283027649,-0.17794176936149597,-0.04146541655063629,0.0843004584312439,0.10296161472797394,0.0034240642562508583,2.9658814178879596e-15,-0.04451283439993858,-0.4050123535212871,-0.4050123535212871,-0.061087,-1.2333395389403445,-1.9289918336675294,0.0,-0.05950221377129648,-0.05950221377129648,-0.5349944166325566,0.6818630404351776,0.5207993933461705,0.0,-0.08152547460281705,-0.08152547460281705,-0.46632464542385416,0.9846669242482777,0.7163734995821285,0.0,0.28370155954055304,-0.0023303321892500844,0.30005355366160485,0.290035892224,-0.007526919168,0.3,0.11768340850172482,-0.08185980740940063,0.003984921794216443,True,True,True,True,True,False,0
1.760401373,1772664785.096233,-0.010735947638750076,0.2488730400800705,1.1414121389389038,-0.016682041808962822,0.8147674798965454,-0.18216021358966827,-0.056736744940280914,0.11230930685997009,0.14237259328365326,5.402424312586803e-16,0.024253789335489273,-0.05136096477508545,-0.406202397796713,-0.406202397796713,-0.061087,-1.219702278131641,-1.918575845800606,0.0,-0.061061122515940154,-0.061061122515940154,-0.5442865232064833,0.7004719189428512,0.534531652450394,0.0,-0.07794543723218347,-0.07794543723218347,-0.46460532869633214,0.9304439253836775,0.6866129552111738,0.0,0.28596605134451736,-0.0038259067398158896,0.3001570294738121,0.29068048896800003,-0.008010366726,0.3,0.10676780315241169,-0.07151551577273034,0.004712025954749712,True,True,True,True,True,False,0
1.780236709,1772664785.1160681,-0.010735947638750076,0.2488730400800705,1.1414121389389038,-0.016682041808962822,0.8147674798965454,-0.18216021358966827,-0.056736744940280914,0.11230930685997009,0.14237259328365326,5.402424312586803e-16,0.024253789335489273,-0.05136096477508545,-0.4074236202470318,-0.4074236202470318,-0.061087,-1.205692839752784,-1.907885212751598,0.0,-0.06254062210169822,-0.06254062210169822,-0.553516775934029,0.7179229810267513,0.547613661828983,0.0,-0.07397497928790339,-0.07397497928790339,-0.4615126363772866,0.8725531041950055,0.6541004689294466,0.0,0.28596605134451736,-0.0038259067398158896,0.3001570294738121,0.29133962803200003,-0.008504721024000001,0.3,0.1142731587924117,-0.07714453250273036,0.004712025954749712,True,True,True,True,True,False,0
1.800339451,1772664785.136171,-0.010735947638750076,0.2488730400800705,1.1414121389389038,-0.016682041808962822,0.8147674798965454,-0.18216021358966827,-0.056736744940280914,0.11230930685997009,0.14237259328365326,5.402424312586803e-16,0.024253789335489273,-0.05136096477508545,-0.4086744326890658,-0.4086744326890658,-0.061087,-1.191334380132249,-1.8969329395150183,0.0,-0.0639327133095631,-0.06393271330956307,-0.5626580751894821,0.7341485877021151,0.5599894835099544,0.0,-0.06960456039324375,-0.06960456039324237,-0.4570649627726516,0.8112803337681878,0.6187910840485694,0.0,0.28596605134451736,-0.0038259067398158896,0.3001570294738121,0.292012334776,-0.009009251082,0.3,0.12184968523241167,-0.08282692733273037,0.004712025954749712,True,True,True,True,True,False,0
1.820376981,1772664785.1562083,-0.010735947638750076,0.2488730400800705,1.1414121389389038,-0.016682041808962822,0.8147674798965454,-0.18216021358966827,-0.056736744940280914,0.11230930685997009,0.14237259328365326,5.402424312586803e-16,0.024253789335489273,-0.05136096477508545,-0.40995308695525706,-0.40995308695525706,-0.061087,-1.1766514083782067,-1.885733149844819,0.0,-0.06522928979716364,-0.06522928979716366,-0.5716840573541253,0.7490877028450503,0.5716027172537265,0.0,-0.0648288243800268,-0.06482882438002957,-0.4512991082321612,0.7469557571467604,0.5806616871886044,0.0,0.28596605134451736,-0.0038259067398158896,0.3001570294738121,0.29269760000000006,-0.009523200000000004,0.3,0.12948513767241196,-0.0885535166627304,0.004712025954749712,True,True,True,True,True,False,0
1.840399793,1772664785.1762311,-0.010735947638750076,0.2488730400800705,1.1414121389389038,-0.016682041808962822,0.8147674798965454,-0.18216021358966827,-0.056736744940280914,0.11230930685997009,0.14237259328365326,5.402424312586803e-16,0.024253789335489273,-0.05136096477508545,-0.41125767275120034,-0.41125767275120034,-0.061087,-1.1616696543213056,-1.8743010954997446,0.0,-0.0664222353647437,-0.0664222353647437,-0.5805694827610334,0.7626868475295832,0.5823970441650834,0.0,-0.0596472783790033,-0.05964727837900191,-0.44427127034540287,0.6799572342266408,0.5397163455678473,0.0,0.28596605134451736,-0.0038259067398158896,0.3001570294738121,0.293394382824,-0.010045787117999999,0.3,0.1371671417124113,-0.09431501969273035,0.004712025954749712,True,True,True,True,True,False,0
1.860309554,1772664785.196141,-0.017092380672693253,0.2620173394680023,1.1577930450439453,-0.016682041808962822,0.8170045614242554,-0.18695390224456787,-0.06396152079105377,0.13309337198734283,0.16284850239753723,5.402424312586803e-16,0.028533868491649628,-0.05820909142494202,-0.4125861174584952,-0.4125861174584952,-0.061087,-1.146415917370714,-1.8626531546164429,0.0,-0.06750353628241818,-0.06750353628241815,-0.5892906115596354,0.7749008973517998,0.5923168170533217,0.0,-0.054065045883723524,-0.054065045883722136,-0.43605643993009885,0.6107024911108311,0.49598864441191504,0.0,0.2887856155845663,-0.005693789816535859,0.30024771644652726,0.294101613568,-0.010576210176,0.3,0.1197285853213764,-0.08096542268943221,0.00447934636404886,True,True,True,True,True,False,0
1.880152506,1772664785.2159839,-0.017092380672693253,0.2620173394680023,1.1577930450439453,-0.016682041808962822,0.8170045614242554,-0.18695390224456787,-0.06396152079105377,0.13309337198734283,0.16284850239753723,5.402424312586803e-16,0.028533868491649628,-0.05820909142494202,-0.41393618818414357,-0.41393618818414357,-0.061087,-1.130917899423678,-1.8508068182753765,0.0,-0.06846540606206887,-0.06846540606206887,-0.5978255780659986,0.7856938650920725,0.601307762617818,0.0,-0.048093488982534724,-0.04809348898253611,-0.4267483253181599,0.5396483870136355,0.44954727822481516,0.0,0.2887856155845663,-0.005693789816535859,0.30024771644652726,0.29481819663200004,-0.011113647474,0.3,0.12746619496137657,-0.08676862991943221,0.00447934636404886,True,True,True,True,True,False,0
1.900205183,1772664785.2360365,-0.017092380672693253,0.2620173394680023,1.1577930450439453,-0.016682041808962822,0.8170045614242554,-0.18695390224456787,-0.06396152079105377,0.13309337198734283,0.16284850239753723,5.402424312586803e-16,0.028533868491649628,-0.05820909142494202,-0.41530549630538494,-0.41530549630538494,-0.061087,-1.1152040221218364,-1.8387806630230201,0.0,-0.06930042227205163,-0.06930042227205166,-0.6061547326013499,0.7950394684345455,0.6093177397813527,0.0,-0.04175081049913803,-0.04175081049913942,-0.4164577267675658,0.4672801671236511,0.40049885817673403,0.0,0.2887856155845663,-0.005693789816535859,0.30024771644652726,0.29554301337600003,-0.011657260032000004,0.3,0.13521274340137646,-0.09257854124943224,0.00447934636404886,True,True,True,True,True,False,0
1.920137644,1772664785.255969,-0.017092380672693253,0.2620173394680023,1.1577930450439453,-0.016682041808962822,0.8170045614242554,-0.18695390224456787,-0.06396152079105377,0.13309337198734283,0.16284850239753723,5.402424312586803e-16,0.028533868491649628,-0.05820909142494202,-0.41669150475082595,-0.41669150475082595,-0.061087,-1.0993032327531456,-1.826594308227393,0.0,-0.07000166355606752,-0.07000166355606749,-0.6142609405499961,0.8029215829654252,0.616297498105828,0.0,-0.035062064200794246,-0.03506206420079147,-0.4053103974323121,0.39410572654398035,0.3489879162237638,0.0,0.2887856155845663,-0.005693789816535859,0.30024771644652726,0.296274925,-0.012206193750000004,0.3,0.14295562584137642,-0.09838570307943226,0.00447934636404886,True,True,True,True,True,False,0
1.940179507,1772664785.276011,-0.017092380672693253,0.2620173394680023,1.1577930450439453,-0.016682041808962822,0.8170045614242554,-0.18695390224456787,-0.06396152079105377,0.13309337198734283,0.16284850239753723,5.402424312586803e-16,0.028533868491649628,-0.05820909142494202,-0.41809153802194726,-0.41809153802194726,-0.061087,-1.0832448010938371,-1.8142683582652765,0.0,-0.0705628478332739,-0.0705628478332739,-0.6221298347218401,0.8093344899691839,0.6222014516481471,0.0,-0.028059213860319742,-0.02805921386032113,-0.39344470859220393,0.3206453501879402,0.2951976771159578,0.0,0.2887856155845663,-0.005693789816535859,0.30024771644652726,0.297012775424,-0.012759581568,0.3,0.1506822518813763,-0.1041806726094322,0.00447934636404886,True,True,True,True,True,False,0
1.960170879,1772664785.2960024,-0.024144858121871948,0.2770925462245941,1.1767876148223877,-0.016682041808962822,0.8211590647697449,-0.19328157603740692,-0.0732407346367836,0.1591847538948059,0.19637008011341095,5.402424312586803e-16,0.045654188841581345,-0.06848128885030746,-0.41950279497861276,-0.41950279497861276,-0.061087,-1.0670581112944535,-1.8018243292323135,0.0,-0.07097846790713859,-0.07097846790713856,-0.6297499993124285,0.8142828866647025,0.6269884536075052,0.0,-0.020781003693234167,-0.02078100369323278,-0.3810082295294167,0.24741983477593021,0.23935009796790507,0.0,0.2919211643332038,-0.0078100393579717455,0.3003529762790695,0.297755394168,-0.013316545626000001,0.3,0.13142791233162962,-0.08779477823677104,0.004654781863331226,True,True,True,True,True,False,0
1.980257702,1772664785.3160892,-0.024144858121871948,0.2770925462245941,1.1767876148223877,-0.016682041808962822,0.8211590647697449,-0.19328157603740692,-0.0732407346367836,0.1591847538948059,0.19637008011341095,5.402424312586803e-16,0.045654188841581345,-0.06848128885030746,-0.4209223643367555,-0.4209223643367555,-0.061087,-1.0507724535611593,-1.7892845601601635,0.0,-0.07124390864124304,-0.07124390864124304,-0.637113086165454,0.8177817534183144,0.6306224551850887,0.0,-0.013272036705222466,-0.013272036705223854,-0.36815434265127756,0.17494333768059406,0.18170007887917655,0.0,0.2919211643332038,-0.0078100393579717455,0.3003529762790695,0.298501599232,-0.013876199424,0.3,0.13908445597162938,-0.09353718596677102,0.004654781863331226,True,True,True,True,True,False,0
2.000337617,1772664785.336169,-0.024144858121871948,0.2770925462245941,1.1767876148223877,-0.016682041808962822,0.8211590647697449,-0.19328157603740692,-0.0732407346367836,0.1591847538948059,0.19637008011341095,5.402424312586803e-16,0.045654188841581345,-0.06848128885030746,-0.4223472425095804,-0.4223472425095804,-0.061087,-1.034416818492793,-1.7766721110564616,0.0,-0.07135555528784274,-0.07135555528784274,-0.6442138534580139,0.8198558989213522,0.6330731272686607,0.0,-0.005582332329984863,-0.005582332329984863,-0.35503836462799054,0.10370727515189294,0.12253360417859838,0.0,0.2919211643332038,-0.0078100393579717455,0.3003529762790695,0.29925019997600005,-0.014437649982000006,0.3,0.14668734641163006,-0.09923935379677107,0.004654781863331226,True,True,True,True,True,False,0
2.020333527,1772664785.3561652,-0.024144858121871948,0.2770925462245941,1.1767876148223877,-0.016682041808962822,0.8211590647697449,-0.19328157603740692,-0.0732407346367836,0.1591847538948059,0.19637008011341095,5.402424312586803e-16,0.045654188841581345,-0.06848128885030746,-0.4237743536153372,-0.4237743536153372,-0.061087,-1.018019700514366,-1.7640106485110885,0.0,-0.07131087418378322,-0.0713108741837832,-0.6510501319071509,0.8205394382564308,0.6343163495781701,0.0,0.0022340552029757855,0.0022340552029771732,-0.34181392245685144,0.03417696675392931,0.06216111547546749,0.0,0.2919211643332038,-0.0078100393579717455,0.3003529762790695,0.30000000000000004,-0.015000000000000001,0.3,0.15422433885162998,-0.10489209812677104,0.004654781863331226,True,True,True,True,True,False,0
2.040161576,1772664785.375993,-0.024144858121871948,0.2770925462245941,1.1767876148223877,-0.016682041808962822,0.8211590647697449,-0.19328157603740692,-0.0732407346367836,0.1591847538948059,0.19637008011341095,5.402424312586803e-16,0.045654188841581345,-0.06848128885030746,-0.4252005710990129,-0.4252005710990129,-0.061087,-1.0016089117492375,-1.751324321519525,0.0,-0.07110847234201922,-0.07110847234201922,-0.6576227151962146,0.8198750017201271,0.634334566002314,0.0,0.010120092088199825,0.010120092088198437,-0.32862916445318663,-0.033221826815188454,0.0009108212071950998,0.0,0.2919211643332038,-0.0078100393579717455,0.3003529762790695,0.30074980002400004,-0.015562350018000009,0.3,0.16168334689162983,-0.11048635415677109,0.004654781863331226,True,True,True,True,True,False,0
2.060135154,1772664785.3959668,-0.032018013298511505,0.2943114638328552,1.198587417602539,-0.016682041808962822,0.8249141573905945,-0.19999274611473083,-0.07871923595666885,0.17161409556865692,0.21129900217056274,5.402424312586803e-16,0.03138725459575653,-0.05820909142494202,-0.42662274054585325,-0.42662274054585325,-0.061087,-0.985211411714835,-1.7386376301994788,0.0,-0.07074812854537986,-0.07074812854537986,-0.6639351846815483,0.8179128518950913,0.6331170073694399,0.0,0.018017189831968216,0.018017189831968216,-0.31562347426668497,-0.09810749125178644,-0.06087793164370464,0.0,0.29554137452922513,-0.010228907059372114,0.30045068204991676,0.30149840076800005,-0.016123800576,0.3,0.13501054889325823,-0.09129432843446686,0.003672355964139994,True,True,True,True,True,False,0
2.080357542,1772664785.416189,-0.032018013298511505,0.2943114638328552,1.198587417602539,-0.016682041808962822,0.8249141573905945,-0.19999274611473083,-0.07871923595666885,0.17161409556865692,0.21129900217056274,5.402424312586803e-16,0.03138725459575653,-0.05820909142494202,-0.42803770311676087,-0.42803770311676087,-0.061087,-0.9688531546769331,-1.72597529005209,0.0,-0.07023079766447042,-0.07023079766447042,-0.6699936792024723,0.8147098748109388,0.6306597750106784,0.0,0.025866544045471927,0.025866544045471927,-0.3029247260461995,-0.16014885420762556,-0.12286161793807471,0.0,0.29554137452922513,-0.010228907059372114,0.30045068204991676,0.302244605832,-0.016683454373999998,0.3,0.14227810653325795,-0.09674499666446688,0.003672355964139994,True,True,True,True,True,False,0
2.100303625,1772664785.436135,-0.032018013298511505,0.2943114638328552,1.198587417602539,-0.016682041808962822,0.8249141573905945,-0.19999274611473083,-0.07871923595666885,0.17161409556865692,0.21129900217056274,5.402424312586803e-16,0.03138725459575653,-0.05820909142494202,-0.42944231907005026,-0.42944231907005026,-0.061087,-0.9525589571807144,-1.7133620945518764,0.0,-0.06955858663409888,-0.06955858663409888,-0.6758066119758017,0.8103285173756009,0.626965776651825,0.0,0.0336105515185772,0.0336105515185772,-0.2906466386664694,-0.21906787176689793,-0.184699917942671,0.0,0.29554137452922513,-0.010228907059372114,0.30045068204991676,0.302987224576,-0.017240418432,0.3,0.14943265897325797,-0.10211091099446687,0.003672355964139994,True,True,True,True,True,False,0
2.12035893,1772664785.4561903,-0.032018013298511505,0.2943114638328552,1.198587417602539,-0.016682041808962822,0.8249141573905945,-0.19999274611473083,-0.07871923595666885,0.17161409556865692,0.21129900217056274,5.402424312586803e-16,0.03138725459575653,-0.05820909142494202,-0.43083349080273226,-0.43083349080273226,-0.061087,-0.9363523868332023,-1.70082277901884,0.0,-0.0687347053433385,-0.0687347053433385,-0.681384361778512,0.8048356800826337,0.6220445306196851,0.0,0.0411940645380186,0.0411940645380186,-0.27888749013551517,-0.27464186464835594,-0.2460623016069916,0.0,0.29554137452922513,-0.010228907059372114,0.30045068204991676,0.30372507500000007,-0.01779380625000001,0.3,0.15646304141325834,-0.10738369782446695,0.003672355964139994,True,True,True,True,True,False,0
2.140195719,1772664785.4760273,-0.032018013298511505,0.2943114638328552,1.198587417602539,-0.016682041808962822,0.8249141573905945,-0.19999274611473083,-0.07871923595666885,0.17161409556865692,0.21129900217056274,5.402424312586803e-16,0.03138725459575653,-0.05820909142494202,-0.432208184909599,-0.432208184909599,-0.061087,-0.9202556732315497,-1.6883818884064463,0.0,-0.0677633946786077,-0.0677633946786077,-0.6867389381080814,0.7983016504479511,0.6159118679046304,0.0,0.04856553323654002,0.04856553323654002,-0.26772881647846836,-0.32670148173413155,-0.30663313575273715,0.0,0.29554137452922513,-0.010228907059372114,0.30045068204991676,0.304456986624,-0.018342739968000003,0.3,0.16335839145325773,-0.11255521035446686,0.003672355964139994,True,True,True,True,True,False,0
2.160184558,1772664785.496016,-0.03992568328976631,0.31208840012550354,1.2216757535934448,-0.016682041808962822,0.830187201499939,-0.20804613828659058,-0.0812530443072319,0.1842488944530487,0.23766429722309113,5.402424312586803e-16,0.05421435087919235,-0.07875347882509232,-0.43356345280317116,-0.43356345280317116,-0.061087,-0.9042896402225906,-1.6760636510483538,0.0,-0.06664983653955192,-0.06664983653955192,-0.6918836346069211,0.7907989901689223,0.6085895314480814,0.0,0.05567790695278902,0.05567790695278902,-0.25723482494198735,-0.3751330139514394,-0.36611682282744995,0.0,0.29922798604136064,-0.012720114298978139,0.3006251977286762,0.305181803368,-0.018886352526,0.3,0.1364083408002384,-0.09137516559459413,0.0026665537249508757,True,True,True,True,True,False,0
2.180353488,1772664785.5161848,-0.03992568328976631,0.31208840012550354,1.2216757535934448,-0.016682041808962822,0.830187201499939,-0.20804613828659058,-0.0812530443072319,0.1842488944530487,0.23766429722309113,5.402424312586803e-16,0.05421435087919235,-0.07875347882509232,-0.43489644953396217,-0.43489644953396217,-0.061087,-0.8884736604192122,-1.6638918604193922,0.0,-0.06540004885435831,-0.06540004885435831,-0.696832693666094,0.7824016172131866,0.600104731109877,0.0,0.062489384259680564,0.062489384259680564,-0.2474529529586431,-0.41986864778678595,-0.42424001691021523,0.0,0.29922798604136064,-0.012720114298978139,0.3006251977286762,0.305898386432,-0.019423789824000004,0.3,0.1430023924402386,-0.09632070432459419,0.0026665537249508757,True,True,True,True,True,False,0
2.200291164,1772664785.5361226,-0.03992568328976631,0.31208840012550354,1.2216757535934448,-0.016682041808962822,0.830187201499939,-0.20804613828659058,-0.0812530443072319,0.1842488944530487,0.23766429722309113,5.402424312586803e-16,0.05421435087919235,-0.07875347882509232,-0.43620445051104934,-0.43620445051104934,-0.061087,-0.8728256280749485,-1.6518897657971947,0.0,-0.06402077061662262,-0.06402077061662262,-0.7016009738982335,0.7731838369003441,0.590489619375852,0.0,0.06896391188678444,0.06896391188678444,-0.23841401160697417,-0.46088901564212376,-0.4807555867012532,0.0,0.29922798604136064,-0.012720114298978139,0.3006251977286762,0.306605617176,-0.019954212882000003,0.3,0.14943092688023835,-0.10114210515459411,0.0026665537249508757,True,True,True,True,True,False,0
2.220335966,1772664785.5561674,-0.03992568328976631,0.31208840012550354,1.2216757535934448,-0.016682041808962822,0.830187201499939,-0.20804613828659058,-0.0812530443072319,0.1842488944530487,0.23766429722309113,5.402424312586803e-16,0.05421435087919235,-0.07875347882509232,-0.4374848659233818,-0.4374848659233818,-0.061087,-0.8573619513369416,-1.6400799734096776,0.0,-0.06251934203257789,-0.06251934203257789,-0.7062036482297321,0.763219578245672,0.579780784557004,0.0,0.07507142920223635,0.07507142920223635,-0.23013371657493156,-0.49821293273360445,-0.535441740942399,0.0,0.29922798604136064,-0.012720114298978139,0.3006251977286762,0.3073024000000001,-0.020476800000000003,0.3,0.1556845793202393,-0.10583234448459417,0.0026665537249508757,True,True,True,True,True,False,0
2.240244352,1772664785.5760758,-0.03992568328976631,0.31208840012550354,1.2216757535934448,-0.016682041808962822,0.830187201499939,-0.20804613828659058,-0.0812530443072319,0.1842488944530487,0.23766429722309113,5.402424312586803e-16,0.05421435087919235,-0.07875347882509232,-0.43873525276403336,-0.43873525276403336,-0.061087,-0.8420975597720282,-1.6284843577185375,0.0,-0.06090358315805566,-0.06090358315805572,-0.7106559157050568,0.7525816554946656,0.5680187117863953,0.0,0.0807879437261113,0.08078794372610852,-0.22261337376623372,-0.5318961375503191,-0.5881036385304345,0.0,0.29922798604136064,-0.012720114298978139,0.3006251977286762,0.30798766522400006,-0.020990748918000006,0.3,0.1617544313602391,-0.11038473351459419,0.0026665537249508757,True,True,True,True,True,False,0
2.260240337,1772664785.5960717,-0.048222605139017105,0.331228643655777,1.246309518814087,-0.016682041808962822,0.8347412347793579,-0.21571604907512665,-0.08063670992851257,0.18620061874389648,0.2402665913105011,5.402424312586803e-16,0.045654188841581345,-0.07532941550016403,-0.4399533244271945,-0.4399533244271945,-0.061087,-0.8270459266621348,-1.6171239834828095,0.0,-0.059181676608586156,-0.059181676608586156,-0.7149727584138064,0.7413411878823825,0.5552472960400778,0.0,0.08609532747347526,0.08609532747347803,-0.21584213543747713,-0.5620233806141568,-0.6385707873158725,0.0,0.3031881672074844,-0.015402136001176753,0.300699932730923,0.30866037196800006,-0.021495278976000013,0.3,0.1286412995885245,-0.08741319216801689,0.0013582823963726592,True,True,True,True,True,False,0
2.280310359,1772664785.6161418,-0.048222605139017105,0.331228643655777,1.246309518814087,-0.016682041808962822,0.8347412347793579,-0.21571604907512665,-0.08063670992851257,0.18620061874389648,0.2402665913105011,5.402424312586803e-16,0.045654188841581345,-0.07532941550016403,-0.4411369579593662,-0.4411369579593662,-0.061087,-0.8122191029044872,-1.606019037562008,0.0,-0.057362054007225716,-0.057362054007225716,-0.7191687192913733,0.729567114408944,0.5415133589612074,0.0,0.09098113006802194,0.09098113006802194,-0.20979804387834514,-0.5887036736719248,-0.6866968539435186,0.0,0.3031881672074844,-0.015402136001176753,0.300699932730923,0.30931951103200006,-0.021989633274000015,0.3,0.1343187252285245,-0.09167126139801691,0.0013582823963726592,True,True,True,True,True,False,0
2.300280373,1772664785.636112,-0.048222605139017105,0.331228643655777,1.246309518814087,-0.016682041808962822,0.8347412347793579,-0.21571604907512665,-0.08063670992851257,0.18620061874389648,0.2402665913105011,5.402424312586803e-16,0.045654188841581345,-0.07532941550016403,-0.4422841990395107,-0.4422841990395107,-0.061087,-0.7976277606163082,-1.5951887703827838,0.0,-0.05545329352196958,-0.055453293521969524,-0.7232577227769348,0.7173257987480207,0.5268662328792213,0.0,0.09543802426280673,0.0954380242628095,-0.20445017427807557,-0.6120657830461612,-0.7323563040993069,0.0,0.3031881672074844,-0.015402136001176753,0.300699932730923,0.30996410777600003,-0.022473080832000003,0.3,0.13978856166852427,-0.09577363872801678,0.0013582823963726592,True,True,True,True,True,False,0
2.320236983,1772664785.6560683,-0.048222605139017105,0.331228643655777,1.246309518814087,-0.016682041808962822,0.8347412347793579,-0.21571604907512665,-0.08063670992851257,0.18620061874389648,0.2402665913105011,5.402424312586803e-16,0.045654188841581345,-0.07532941550016403,-0.4433932649099501,-0.4433932649099501,-0.061087,-0.7832812446413479,-1.5846514457251994,0.0,-0.0534640263712317,-0.0534640263712317,-0.7272529228977384,0.7046807535948626,0.5113573944629692,0.0,0.09946335753689374,0.09946335753689096,-0.19976000604017813,-0.6322522576579054,-0.7754419208126022,0.0,0.3031881672074844,-0.015402136001176753,0.300699932730923,0.310593225,-0.022944918750000008,0.3,0.14504396410852363,-0.09971519055801677,0.0013582823963726592,True,True,True,True,True,False,0
2.340407906,1772664785.6762393,-0.048222605139017105,0.331228643655777,1.246309518814087,-0.016682041808962822,0.8347412347793579,-0.21571604907512665,-0.08063670992851257,0.18620061874389648,0.2402665913105011,5.402424312586803e-16,0.045654188841581345,-0.07532941550016403,-0.44446254543737473,-0.44446254543737473,-0.061087,-0.7691876295694509,-1.5744242978359402,0.0,-0.051402856023552365,-0.051402856023552365,-0.7311665873313139,0.69169242450559,0.49504014601226487,0.0,0.10305851738396908,0.10305851738396908,-0.19568322167878155,-0.6494164544636444,-0.8158624225352359,0.0,0.3031881672074844,-0.015402136001176753,0.300699932730923,0.311205965824,-0.023404474368000007,0.3,0.15007867814852394,-0.10349122608801681,0.0013582823963726592,True,True,True,True,True,False,0
2.360219497,1772664785.696051,-0.05563173070549965,0.34920305013656616,1.269683599472046,-0.016682041808962822,0.8404137492179871,-0.22396118938922882,-0.07570605725049973,0.1779828667640686,0.23882848024368286,5.402424312586803e-16,0.05136096477508545,-0.08902566879987717,-0.4454906025578458,-0.4454906025578458,-0.061087,-0.755353781079339,-1.564523494915695,0.0,-0.04927829027224308,-0.04927829027224308,-0.7350100079980578,0.6784180593156156,0.4779693727649189,0.0,0.10622828756546428,0.10622828756546428,-0.19217103333719604,-0.6637182594987184,-0.8535386623672973,0.0,0.30680850452014724,-0.017860363567967413,0.30075941717996046,0.31180147656800006,-0.023851107426,0.3,0.11828151337689947,-0.08186074094241474,0.00026043710762520267,True,True,True,True,True,False,0
2.380321031,1772664785.7161527,-0.05563173070549965,0.34920305013656616,1.269683599472046,-0.016682041808962822,0.8404137492179871,-0.22396118938922882,-0.07570605725049973,0.1779828667640686,0.23882848024368286,5.402424312586803e-16,0.05136096477508545,-0.08902566879987717,-0.4464761683632906,-0.4464761683632906,-0.061087,-0.7417854198930267,-1.5549641074603966,0.0,-0.047098686240768954,-0.047098686240768954,-0.7387934407226159,0.6649116427877275,0.4602013463767407,0.0,0.10898020157370608,0.10898020157370608,-0.18917163622790262,-0.6753208263944038,-0.8884013194089094,0.0,0.30680850452014724,-0.017860363567967413,0.30075941717996046,0.312378949632,-0.02428421222400001,0.3,0.12285859301689908,-0.0852935506724148,0.00026043710762520267,True,True,True,True,True,False,0
2.400389968,1772664785.7362216,-0.05563173070549965,0.34920305013656616,1.269683599472046,-0.016682041808962822,0.8404137492179871,-0.22396118938922882,-0.07570605725049973,0.1779828667640686,0.23882848024368286,5.402424312586803e-16,0.05136096477508545,-0.08902566879987717,-0.447418142088106,-0.447418142088106,-0.061087,-0.7284871870372721,-1.5457600805328617,0.0,-0.044872207232127606,-0.044872207232127606,-0.742526069360958,0.6512239053675907,0.4417935885529415,0.0,0.1113239504320673,0.1113239504320673,-0.18663143191710568,-0.6843868710068418,-0.9203878911899602,0.0,0.30680850452014724,-0.017860363567967413,0.30075941717996046,0.312937626376,-0.02470321978200001,0.3,0.12720005145689864,-0.0885496445024148,0.00026043710762520267,True,True,True,False,True,False,0
2.420298821,1772664785.7561302,-0.05563173070549965,0.34920305013656616,1.269683599472046,-0.016682041808962822,0.8404137492179871,-0.22396118938922882,-0.07570605725049973,0.1779828667640686,0.23882848024368286,5.402424312586803e-16,0.05136096477508545,-0.08902566879987717,-0.44831558623274853,-0.44831558623274853,-0.061087,-0.7154627089299203,-1.536924208761803,0.0,-0.04260679553726138,-0.04260679553726138,-0.7462159863112524,0.6374023193781639,0.42280479888915035,0.0,0.11327058474331135,0.11327058474331135,-0.18449584751472053,-0.691079299471336,-0.9494394831895561,0.0,0.30680850452014724,-0.017860363567967413,0.30075941717996046,0.3134768,-0.02510759999999999,0.3,0.1313022838968989,-0.09162631883241468,0.00026043710762520267,True,True,True,False,True,False,0
2.440263969,1772664785.7760954,-0.05563173070549965,0.34920305013656616,1.269683599472046,-0.016682041808962822,0.8404137492179871,-0.22396118938922882,-0.07570605725049973,0.1779828667640686,0.23882848024368286,5.402424312586803e-16,0.05136096477508545,-0.08902566879987717,-0.44916772214349376,-0.44916772214349376,-0.061087,-0.7027146625423569,-1.5284681127840198,0.0,-0.040310152677721985,-0.040310152677721985,-0.7498701974157487,0.6234912051740564,0.4032948081314096,0.0,0.11483214297696953,0.11483214297696953,-0.182710555224813,-0.6955557102053749,-0.9754995378870359,0.0,0.30680850452014724,-0.017860363567967413,0.30075941717996046,0.313995818424,-0.025496863817999996,0.3,0.13516241993689887,-0.09452142086241476,0.00026043710762520267,True,True,True,False,True,False,0
2.460308135,1772664785.7961395,-0.06291621923446655,0.36724650859832764,1.2931151390075684,-0.016682041808962822,0.8444085121154785,-0.22952187061309814,-0.07074116915464401,0.16836124658584595,0.22485829889774323,5.402424312586803e-16,0.03994741663336754,-0.05820909142494202,-0.4499739251970482,-0.4499739251970482,-0.061087,-0.6902448384388757,-1.5204022166213917,0.0,-0.03798973443825802,-0.03798973443825802,-0.7534946385886151,0.6095318155956402,0.3833245893292446,0.0,0.11602091197319826,0.11602091197319826,-0.18122205864332092,-0.6979694789208117,-0.9985109401082484,0.0,0.3104982577989706,-0.020338665496677576,0.3007608304829311,0.314494087168,-0.025870565376000014,0.3,0.10032221400256588,-0.07238095598046519,-0.0008129949352191192,True,True,True,False,True,False,0
2.480263423,1772664785.8160949,-0.06291621923446655,0.36724650859832764,1.2931151390075684,-0.016682041808962822,0.8444085121154785,-0.22952187061309814,-0.07074116915464401,0.16836124658584595,0.22485829889774323,5.402424312586803e-16,0.03994741663336754,-0.05820909142494202,-0.45073371988581334,-0.45073371988581334,-0.061087,-0.6780542021269629,-1.5127357248348068,0.0,-0.03565275486987317,-0.03565275486987317,-0.7570942021563568,0.5955624516643379,0.3629563080642033,0.0,0.11684897841924236,0.11684897841924236,-0.17997817838708557,-0.6984681965651156,-1.0184140632520646,0.0,0.3104982577989706,-0.020338665496677576,0.3007608304829311,0.31497107223200005,-0.026228304174000017,0.3,0.10369262764256654,-0.07490876621046519,-0.0008129949352191192,True,True,True,False,True,False,0
2.500312423,1772664785.836144,-0.06291621923446655,0.36724650859832764,1.2931151390075684,-0.016682041808962822,0.8444085121154785,-0.22952187061309814,-0.07074116915464401,0.16836124658584595,0.22485829889774323,5.402424312586803e-16,0.03994741663336754,-0.05820909142494202,-0.4514467749832108,-0.4514467749832108,-0.061087,-0.6661429530936761,-1.5054765986735228,0.0,-0.033306199683907155,-0.033306199683907155,-0.760672779286094,0.5816185962059016,0.342253394846453,0.0,0.11732775929830057,0.11732775929830057,-0.17892885648685947,-0.6971927729218113,-1.0351456608875145,0.0,0.3104982577989706,-0.020338665496677576,0.3007608304829311,0.315426302976,-0.02656972723200001,0.3,0.10681702808256603,-0.07725206654046513,-0.0008129949352191192,True,True,True,False,True,False,0
2.520229425,1772664785.856061,-0.06291621923446655,0.36724650859832764,1.2931151390075684,-0.016682041808962822,0.8444085121154785,-0.22952187061309814,-0.07074116915464401,0.16836124658584595,0.22485829889774323,5.402424312586803e-16,0.03994741663336754,-0.05820909142494202,-0.45211289897688894,-0.45211289897688894,-0.061087,-0.6545105811695581,-1.4986315307765938,0.0,-0.03095684819220583,-0.03095684819220583,-0.7642333070553954,0.5677330795007683,0.3212806469522433,0.0,0.11746757458506614,0.11746757458506614,-0.17802638846506885,-0.6942758352566629,-1.048637394710485,0.0,0.3104982577989706,-0.020338665496677576,0.3007608304829311,0.3158593750000001,-0.026894531250000006,0.3,0.10969577052256721,-0.07941112337046512,-0.0008129949352191192,True,True,True,False,True,False,0
2.540219866,1772664785.8760514,-0.06291621923446655,0.36724650859832764,1.2931151390075684,-0.016682041808962822,0.8444085121154785,-0.22952187061309814,-0.07074116915464401,0.16836124658584595,0.22485829889774323,5.402424312586803e-16,0.03994741663336754,-0.05820909142494202,-0.4527320359407331,-0.4527320359407331,-0.061087,-0.6431559195795427,-1.4922059178375489,0.0,-0.028611303043880057,-0.028611303043880057,-0.7677778219170387,0.5539362052676013,0.30010435721194756,0.0,0.11727725741628853,0.11727725741628853,-0.17722574308216538,-0.6898437116583493,-1.0588144870147855,0.0,0.3104982577989706,-0.020338665496677576,0.3007608304829311,0.316269953024,-0.027202464768000013,0.3,0.11233008856256611,-0.08138686190046515,-0.0008129949352191192,True,True,True,False,True,False,0
2.560317565,1772664785.896149,-0.06895435601472855,0.3820820152759552,1.312677264213562,-0.016682041808962822,0.8493619561195374,-0.2352742999792099,-0.06040049344301224,0.14333133399486542,0.19260361790657043,5.402424312586803e-16,0.048507578670978546,-0.05136096477508545,-0.45330426200161067,-0.45330426200161067,-0.061087,-0.6320771954741906,-1.4862038306933099,0.0,-0.026276026657405638,-0.026276026657405638,-0.7713075195533375,0.5402559274824021,0.27879245527568774,0.0,0.11676381932372086,0.11676381932372086,-0.1764848818149421,-0.6840138892599595,-1.0655950968129897,0.0,0.3134276383283433,-0.02242765957677237,0.30078047586264844,0.3166577737680001,-0.027493330326000015,0.3,0.08116149980712876,-0.06267494610068886,-0.002173890999156401,True,True,True,False,True,False,0
2.580284334,1772664785.9161158,-0.06895435601472855,0.3820820152759552,1.312677264213562,-0.016682041808962822,0.8493619561195374,-0.2352742999792099,-0.06040049344301224,0.14333133399486542,0.19260361790657043,5.402424312586803e-16,0.048507578670978546,-0.05136096477508545,-0.4538297825347588,-0.4538297825347588,-0.061087,-0.6212720769245426,-1.480627981587796,0.0,-0.02395738344295679,-0.02395738344295679,-0.7748228183484687,0.5267179968381728,0.2574146675504941,0.0,0.11593216072244221,0.11593216072244221,-0.17576493975655622,-0.6768965322114678,-1.0688893862596822,0.0,0.3134276383283433,-0.02242765957677237,0.30078047586264844,0.317022648832,-0.027766986624000005,0.3,0.0833143274471278,-0.06428956683068882,-0.002173890999156401,True,True,True,False,True,False,0
