JLDominguezM/dreamteam-T3001B/M1-Kinematics/Lab2/src/xarm_ros2/xarm_perturbations/xarm_perturbations/results/challenge/trial_ctc_pert_2026-03-04_17-17-45/trial_ctc_pert_2026-03-04_17-17-45.csv
time,time_abs,q1,q2,q3,q4,q5,q6,qd1,qd2,qd3,qd4,qd5,qd6,q_des1,q_des2,q_des3,q_des4,q_des5,q_des6,qd_des1,qd_des2,qd_des3,qd_des4,qd_des5,qd_des6,qdd_des1,qdd_des2,qdd_des3,qdd_des4,qdd_des5,qdd_des6,px,py,pz,px_des,py_des,pz_des,cmd_x,cmd_y,cmd_z,sat1,sat2,sat3,sat4,sat5,sat6,pert_enabled
0.020291468,1772666266.434838,-0.061792582273483276,0.10309884697198868,0.962726354598999,-0.01284708920866251,0.8225972056388855,-0.03374757617712021,-4.0443837997922714e-16,1.6217185870221243e-15,-2.537652741156556e-16,9.099863417183713e-16,0.0,3.2127078775090467e-15,0.0,0.0,0.0,0.0,0.0,0.0,-6.680893620708526,-6.680893620708526,-1.0086718294861852,-0.30555170161392037,-60.1692898887514,0.0,0.0,0.0,0.0,0.0,0.0,0.0,0.2516262473286466,-0.016155844277964196,0.2975264979426489,0.28,0.0,0.3,0.25,0.1615584427796419,0.024735020573510853,False,False,False,False,False,False,0
0.040338179,1772666266.4548848,-0.061792582273483276,0.10309884697198868,0.962726354598999,-0.01284708920866251,0.8225972056388855,-0.03374757617712021,-4.0443837997922714e-16,1.6217185870221243e-15,-2.537652741156556e-16,9.099863417183713e-16,0.0,3.2127078775090467e-15,-0.13361787241417053,-0.13361787241417053,-0.020173436589723703,-0.006111034032278408,-1.203385797775028,0.0,-2.3185965656792447,-2.3185965656792447,-1.2993600046890426,-0.20011202101705494,-22.863360796556403,0.0,218.114852751464,218.114852751464,-14.534408760142869,5.271984029843272,1865.29645460975,0.0,0.2516262473286466,-0.016155844277964196,0.2975264979426489,0.28,0.0,0.3,0.25,0.1615584427796419,0.024735020573510853,False,False,False,False,False,False,0
0.060235496,1772666266.474782,-0.061792582273483276,0.10309884697198868,0.962726354598999,-0.01284708920866251,0.8225972056388855,-0.03374757617712021,-4.0443837997922714e-16,1.6217185870221243e-15,-2.537652741156556e-16,9.099863417183713e-16,0.0,3.2127078775090467e-15,-0.17998980372775542,-0.17998980372775542,-0.046160636683504556,-0.010113274452619506,-1.6606530137061561,0.0,-1.1596716860585714,-1.1596716860585714,-1.0984130438399204,-0.1936923448323109,-18.06352728852518,0.0,57.94624398103366,57.94624398103366,10.047348042456106,0.32098380923720193,239.9916754015612,0.0,0.2516262473286466,-0.016155844277964196,0.2975264979426489,0.28,0.0,0.3,0.25,0.1615584427796419,0.024735020573510853,False,False,False,False,False,False,0
0.080208297,1772666266.4947548,-0.061792582273483276,0.10309884697198868,0.962726354598999,-0.01284708920866251,0.8225972056388855,-0.03374757617712021,-4.0443837997922714e-16,1.6217185870221243e-15,-2.537652741156556e-16,9.099863417183713e-16,0.0,3.2127078775090467e-15,-0.20318323744892683,-0.20318323744892683,-0.061087,-0.013987121349265724,-2.02192355947666,0.0,-0.3590766275784502,-0.3590766275784502,-0.8259155278102894,-0.43237387843608693,-16.28475713266305,0.0,40.02975292400606,40.02975292400606,13.624875801481553,-11.934076680188804,88.93850779310651,0.0,0.2516262473286466,-0.016155844277964196,0.2975264979426489,0.28,0.0,0.3,0.25,0.1615584427796419,0.024735020573510853,False,False,False,False,False,False,0
0.100259781,1772666266.5148063,-0.061200082302093506,0.10450627654790878,0.9644827246665955,-0.01284708920866251,0.8227570056915283,-0.03374757617712021,0.01058035809546709,0.02513263188302517,0.031364429742097855,9.099863417183713e-16,0.002853386802598834,3.2127078775090467e-15,-0.21036477000049583,-0.21036477000049583,-0.061087,-0.022634598917987463,-2.1642,0.0,-0.925392864728878,-0.925392864728878,-0.7458231039710251,-1.056055476278468,-7.679477162205398,0.0,-28.315811857521382,-28.315811857521382,4.0046211919632135,-31.184079892119048,430.2639985228825,0.0,0.2519560610291359,-0.0160264597120023,0.2975777314913345,0.28,0.0,0.3,0.25,0.15849307071054858,0.02605101863704169,False,False,False,False,False,False,0
0.120227938,1772666266.5347745,-0.061200082302093506,0.10450627654790878,0.9644827246665955,-0.01284708920866251,0.8227570056915283,-0.03374757617712021,0.01058035809546709,0.02513263188302517,0.031364429742097855,9.099863417183713e-16,0.002853386802598834,3.2127078775090467e-15,-0.2288726272950734,-0.2288726272950734,-0.061087,-0.04375570844355683,-2.1642,0.0,-0.7836879522119514,-0.7836879522119514,-0.6130816791269541,-1.7561894184831484,-6.836519905807148,0.0,7.08524562584633,7.08524562584633,6.63707124220355,-35.006697110234015,42.14786281991247,0.0,0.2519560610291359,-0.0160264597120023,0.2975777314913345,0.28,0.0,0.3,0.25,0.15849307071054858,0.02605101863704169,False,False,False,False,False,False,0
0.140131474,1772666266.554678,-0.061200082302093506,0.10450627654790878,0.9644827246665955,-0.01284708920866251,0.8227570056915283,-0.03374757617712021,0.01058035809546709,0.02513263188302517,0.031364429742097855,9.099863417183713e-16,0.002853386802598834,3.2127078775090467e-15,-0.24454638633931242,-0.24454638633931242,-0.061087,-0.07887949681321978,-2.1642,0.0,-0.6614828222932347,-0.6614828222932347,-0.40520410925987416,-2.8233561277599795,-6.178019625302935,0.0,6.110256495935837,6.110256495935837,10.393878493354002,-53.358335463841584,32.9250140252107,0.0,0.2519560610291359,-0.0160264597120023,0.2975777314913345,0.28,0.0,0.3,0.25,0.15849307071054858,0.02605101863704169,False,False,False,False,False,False,0
0.160187745,1772666266.5747344,-0.061200082302093506,0.10450627654790878,0.9644827246665955,-0.01284708920866251,0.8227570056915283,-0.03374757617712021,0.01058035809546709,0.02513263188302517,0.031364429742097855,9.099863417183713e-16,0.002853386802598834,3.2127078775090467e-15,-0.25777604278517713,-0.25777604278517713,-0.061087,-0.1353466193684194,-2.1642,0.0,-0.5697241274611076,-0.5697241274611076,-0.10545294884039143,-4.338972365192567,-5.613739284727913,0.0,4.587934741606355,4.587934741606355,14.987558020974124,-75.78081187162931,28.214017028751055,0.0,0.2519560610291359,-0.0160264597120023,0.2975777314913345,0.28,0.0,0.3,0.25,0.15849307071054858,0.02605101863704169,False,False,False,False,False,False,0
0.180215404,1772666266.594762,-0.061200082302093506,0.10450627654790878,0.9644827246665955,-0.01284708920866251,0.8227570056915283,-0.03374757617712021,0.01058035809546709,0.02513263188302517,0.031364429742097855,9.099863417183713e-16,0.002853386802598834,3.2127078775090467e-15,-0.2691705253343993,-0.2691705253343993,-0.061087,-0.2221260666722707,-2.1642,0.0,-0.521970977379929,-0.521970977379929,0.25956579654498924,-6.148304969650253,-5.035595460177014,0.0,2.387657504058928,2.387657504058928,18.25093726926904,-90.46663022288435,28.907191227544985,0.0,0.2519560610291359,-0.0160264597120023,0.2975777314913345,0.28,0.0,0.3,0.25,0.15849307071054858,0.02605101863704169,False,False,False,False,False,False,0
0.200213422,1772666266.61476,-0.042807649821043015,0.13640348613262177,1.0031121969223022,-0.013230584561824799,0.828988790512085,-0.016106797382235527,0.2248925417661667,0.3970544934272766,0.47440409660339355,0.0308165792375803,0.08845499157905579,0.2465326339006424,-0.27960994488199786,-0.27960994488199786,-0.05589568406910022,-0.3450921660652757,-2.1642,0.0,-0.5195561174624405,-0.5195561174624405,0.5405600687267968,-7.590819927522937,-4.374241492522101,0.0,0.12074299587442888,0.12074299587442888,14.049713609090388,-72.12574789363426,33.067698382745654,0.0,0.2591223645350722,-0.01170702221846854,0.2983570211914468,0.28,0.0,0.3,0.25,0.09319305158844987,0.04375562293679336,False,False,True,False,False,False,0
0.220296681,1772666266.634843,-0.042807649821043015,0.13640348613262177,1.0031121969223022,-0.013230584561824799,0.828988790512085,-0.016106797382235527,0.2248925417661667,0.3970544934272766,0.47440409660339355,0.0308165792375803,0.08845499157905579,0.2465326339006424,-0.2900010672312467,-0.2900010672312467,-0.045084482694564276,-0.4969085646157346,-2.1642,0.0,-0.5392359556638399,-0.5392359556638399,0.5854824130300336,-7.832221133769679,-3.6328120515830884,0.0,-0.9839919100699692,-0.9839919100699692,2.246117215161834,-12.070060312337095,37.071472046950596,0.0,0.2591223645350722,-0.01170702221846854,0.2983570211914468,0.28,0.0,0.3,0.25,0.09319305158844987,0.04375562293679336,False,False,True,False,False,False,0
0.24020005,1772666266.6547465,-0.042807649821043015,0.13640348613262177,1.0031121969223022,-0.013230584561824799,0.828988790512085,-0.016106797382235527,0.2248925417661667,0.3970544934272766,0.47440409660339355,0.0308165792375803,0.08845499157905579,0.2465326339006424,-0.30078578634452346,-0.30078578634452346,-0.03337483443396361,-0.6535529872911281,-2.1642,0.0,-0.543121403139538,-0.543121403139538,0.42783041644080894,-6.9489744943225285,-2.8983378203847,0.0,-0.19427237378490955,-0.19427237378490955,-7.882599829461236,44.16233197235757,36.723711559919444,0.0,0.2591223645350722,-0.01170702221846854,0.2983570211914468,0.28,0.0,0.3,0.25,0.09319305158844987,0.04375562293679336,False,False,True,False,False,False,0
0.260219032,1772666266.6747656,-0.042807649821043015,0.13640348613262177,1.0031121969223022,-0.013230584561824799,0.828988790512085,-0.016106797382235527,0.2248925417661667,0.3970544934272766,0.47440409660339355,0.0308165792375803,0.08845499157905579,0.2465326339006424,-0.3116482144073142,-0.3116482144073142,-0.02481822610514743,-0.7925324771775786,-2.1642,0.0,-0.5171342963593853,-0.5171342963593853,0.2143844919204436,-5.698005378185192,-2.2489695089653368,0.0,1.2993553390076358,1.2993553390076358,-10.672296226018272,62.54845580686686,32.468415570968176,0.0,0.2591223645350722,-0.01170702221846854,0.2983570211914468,0.28,0.0,0.3,0.25,0.09319305158844987,0.04375562293679336,False,False,True,False,False,False,0
0.280230127,1772666266.6947765,-0.042807649821043015,0.13640348613262177,1.0031121969223022,-0.013230584561824799,0.828988790512085,-0.016106797382235527,0.2248925417661667,0.3970544934272766,0.47440409660339355,0.0308165792375803,0.08845499157905579,0.2465326339006424,-0.32199090033450195,-0.32199090033450195,-0.020530536266738557,-0.9064925847412825,-2.1642,0.0,-0.47042467632517554,-0.47042467632517554,0.030395897222867313,-4.548373439545408,-1.706252730402575,0.0,2.3354810017104883,2.3354810017104883,-9.199429734878805,57.481596931989145,27.135838928138064,0.0,0.2591223645350722,-0.01170702221846854,0.2983570211914468,0.28,0.0,0.3,0.25,0.09319305158844987,0.04375562293679336,False,False,True,False,True,False,0
0.300095935,1772666266.7146425,-0.023809298872947693,0.1696947067975998,1.0438700914382935,-0.01284708920866251,0.8364189863204956,0.0009587379754520953,0.14559121429920197,0.27265822887420654,0.33538708090782166,-0.047936901450157166,0.07276136428117752,0.1403866410255432,-0.3313993938610055,-0.3313993938610055,-0.01992261832228121,-0.9974600535321907,-2.1642,0.0,-0.41506312573988224,-0.41506312573988224,-0.10562971041902337,-3.6158361858201022,-1.2614969121783566,0.0,2.768077529264662,2.768077529264662,-6.801280382094529,46.62686268626524,22.2377909112109,0.0,0.2664837253094281,-0.006939617223878676,0.29905901794474704,0.28,0.0,0.3,0.19808164072779672,0.058202070142455285,0.02623556289769106,False,False,True,False,True,False,0
0.320200501,1772666266.7347472,-0.023809298872947693,0.1696947067975998,1.0438700914382935,-0.01284708920866251,0.8364189863204956,0.0009587379754520953,0.14559121429920197,0.27265822887420654,0.33538708090782166,-0.047936901450157166,0.07276136428117752,0.1403866410255432,-0.3397006563758031,-0.3397006563758031,-0.022035212530661676,-1.0697767772485927,-2.1642,0.0,-0.3590838911380818,-0.3590838911380818,-0.19914471605359182,-2.8847738029508743,-0.8981974273849869,0.0,2.798961730090027,2.798961730090027,-4.6757502817284315,36.553119143461466,18.16497423966852,0.0,0.2664837253094281,-0.006939617223878676,0.29905901794474704,0.28,0.0,0.3,0.19808164072779672,0.058202070142455285,0.02623556289769106,True,True,True,True,True,False,0
0.340234049,1772666266.7547808,-0.023809298872947693,0.1696947067975998,1.0438700914382935,-0.01284708920866251,0.8364189863204956,0.0009587379754520953,0.14559121429920197,0.27265822887420654,0.33538708090782166,-0.047936901450157166,0.07276136428117752,0.1403866410255432,-0.34688233419856473,-0.34688233419856473,-0.026018106851733516,-1.1274722533076103,-2.1642,0.0,-0.3067848581737962,-0.3067848581737962,-0.25993988707723004,-2.313565436435644,-0.6002577924593158,0.0,2.6149516482142787,2.6149516482142787,-3.039758551181908,28.56041832576148,14.896981746283542,0.0,0.2664837253094281,-0.006939617223878676,0.29905901794474704,0.28,0.0,0.3,0.19808164072779672,0.058202070142455285,0.02623556289769106,True,True,True,True,True,False,0
0.360174935,1772666266.7747216,-0.023809298872947693,0.1696947067975998,1.0438700914382935,-0.01284708920866251,0.8364189863204956,0.0009587379754520953,0.14559121429920197,0.27265822887420654,0.33538708090782166,-0.047936901450157166,0.07276136428117752,0.1403866410255432,-0.3530180313620407,-0.3530180313620407,-0.03121690459327812,-1.1737435620363232,-2.1642,0.0,-0.2600682897202824,-0.2600682897202824,-0.2967346871075973,-1.8640515388036598,-0.3542003899802948,0.0,2.3358284226756876,2.3358284226756876,-1.8397400015183625,22.475694881599196,12.302870123951038,0.0,0.2664837253094281,-0.006939617223878676,0.29905901794474704,0.28,0.0,0.3,0.19808164072779672,0.058202070142455285,0.02623556289769106,True,True,True,True,True,False,0
0.380236752,1772666266.794783,-0.023809298872947693,0.1696947067975998,1.0438700914382935,-0.01284708920866251,0.8364189863204956,0.0009587379754520953,0.14559121429920197,0.27265822887420654,0.33538708090782166,-0.047936901450157166,0.07276136428117752,0.1403866410255432,-0.35821939715644635,-0.35821939715644635,-0.03715159833543005,-1.2110245928123964,-2.1642,0.0,-0.2194630145429914,-0.21946301454299139,-0.3162705569004688,-1.5067047617429759,-0.1493771145079157,0.0,2.030263758864553,2.0302637588645545,-0.9767934896435756,17.86733885303423,10.241163773618975,0.0,0.2664837253094281,-0.006939617223878676,0.29905901794474704,0.28,0.0,0.3,0.19808164072779672,0.058202070142455285,0.02623556289769106,True,True,True,True,True,False,0
0.400121168,1772666266.8146677,-0.016837356612086296,0.19552119076251984,1.0788487195968628,-0.01438106968998909,0.8454471230506897,0.0070946612395346165,0.06618716567754745,0.2892991900444031,0.38568660616874695,-0.03424064442515373,0.1055753156542778,0.06505721807479858,-0.3626086574473062,-0.3626086574473062,-0.04347700947343944,-1.2411586880472558,-2.1642,0.0,-0.18476962748304082,-0.18476962748304085,-0.32353300315623357,-1.2197354994305358,0.02242617022001503,0.0,1.7346693529975281,1.7346693529975252,-0.3631223127882385,14.348463115621989,8.590164236396529,0.0,0.27233245151440905,-0.005255786473435303,0.3002331498192533,0.28,0.0,0.3,0.13927605149562827,0.04809107147473756,0.01659824626351269,True,True,True,True,True,False,0
0.42020144,1772666266.8347478,-0.016837356612086296,0.19552119076251984,1.0788487195968628,-0.01438106968998909,0.8454471230506897,0.0070946612395346165,0.06618716567754745,0.2892991900444031,0.38568660616874695,-0.03424064442515373,0.1055753156542778,0.06505721807479858,-0.36630404999696703,-0.36630404999696703,-0.04994766953656411,-1.2655533980358666,-2.1637514765956,0.0,-0.15544930014501812,-0.15544930014501812,-0.3215621140258961,-0.9883069322195924,0.1615415048849983,0.0,1.4660163669011337,1.466016366901135,0.09854445651687463,11.57142836054716,6.955766733249157,0.0,0.27233245151440905,-0.005255786473435303,0.3002331498192533,0.28,0.0,0.3,0.13927605149562827,0.04809107147473756,0.01659824626351269,True,True,True,True,True,False,0
0.440210784,1772666266.8547573,-0.016837356612086296,0.19552119076251984,1.0788487195968628,-0.01438106968998909,0.8454471230506897,0.0070946612395346165,0.06618716567754745,0.2892991900444031,0.38568660616874695,-0.03424064442515373,0.1055753156542778,0.06505721807479858,-0.3694130359998674,-0.3694130359998674,-0.056378911817082024,-1.2853195366802586,-2.1605206464979,0.0,-0.13102023428402654,-0.13102023428402654,-0.3099703677807817,-0.8071739950823245,0.24286559679464603,0.0,1.2214532930495814,1.2214532930495814,0.5795873122557205,9.056646856863415,4.066204595482394,0.0,0.27233245151440905,-0.005255786473435303,0.3002331498192533,0.28,0.0,0.3,0.13927605149562827,0.04809107147473756,0.01659824626351269,True,True,True,True,True,False,0
0.460200395,1772666266.8747468,-0.016837356612086296,0.19552119076251984,1.0788487195968628,-0.01438106968998909,0.8454471230506897,0.0070946612395346165,0.06618716567754745,0.2892991900444031,0.38568660616874695,-0.03424064442515373,0.1055753156542778,0.06505721807479858,-0.37203344068554794,-0.37203344068554794,-0.061087,-1.301463016581905,-2.155663334562007,0.0,-0.10969486091027918,-0.10969486091027918,-0.2990725807029404,-0.6731253268021595,0.2782274109628342,0.0,1.066268668687367,1.066268668687367,0.5448893538920636,6.70243341400824,1.7680907084094073,0.0,0.27233245151440905,-0.005255786473435303,0.3002331498192533,0.28,0.0,0.3,0.13927605149562827,0.04809107147473756,0.01659824626351269,True,True,True,True,True,False,0
0.480213688,1772666266.8947601,-0.016837356612086296,0.19552119076251984,1.0788487195968628,-0.01438106968998909,0.8454471230506897,0.0070946612395346165,0.06618716567754745,0.2892991900444031,0.38568660616874695,-0.03424064442515373,0.1055753156542778,0.06505721807479858,-0.3742273379037535,-0.3742273379037535,-0.061087,-1.3149255231179482,-2.1500987863427503,0.0,-0.08874689870093604,-0.08874689870093606,-0.30439336340147183,-0.5902954698089918,0.26646821722908454,0.0,1.0473981104671561,1.0473981104671548,-0.26603913492657094,4.141492849658381,-0.5879596866874831,0.0,0.27233245151440905,-0.005255786473435303,0.3002331498192533,0.28,0.0,0.3,0.13927605149562827,0.04809107147473756,0.01659824626351269,True,True,True,True,True,False,0
0.50024135,1772666266.9147878,-0.009163618087768555,0.22391709685325623,1.1163238286972046,-0.013230584561824799,0.8546350002288818,0.01284708920866251,0.07173414528369904,0.2522165775299072,0.3191227912902832,-0.023968450725078583,0.07989483326673508,0.0410887710750103,-0.37600227587777224,-0.37600227587777224,-0.061087,-1.326731432514128,-2.1447694219981686,0.0,-0.07252873400863954,-0.07252873400863957,-0.30829626518108777,-0.5207206954656632,0.25073761305037057,0.0,0.8109082346148261,0.8109082346148261,-0.19514508898079744,3.4787387171664363,-0.7865302089356999,0.0,0.27860918014318264,-0.0031741442511234834,0.3011504004622545,0.28,0.0,0.3,0.06899943968149136,0.030156641382754742,0.003142781917044521,True,True,True,True,True,False,0
0.520234992,1772666266.9347816,-0.009163618087768555,0.22391709685325623,1.1163238286972046,-0.013230584561824799,0.8546350002288818,0.01284708920866251,0.07173414528369904,0.2522165775299072,0.3191227912902832,-0.023968450725078583,0.07989483326673508,0.0410887710750103,-0.37745285055794503,-0.37745285055794503,-0.061087,-1.3371458464234411,-2.139754669737161,0.0,-0.059894129120193665,-0.059894129120193665,-0.3112331703706568,-0.4614973516215633,0.2332198251276193,0.0,0.6317302444222934,0.6317302444222949,-0.1468452594784507,2.9611671922049942,-0.8758893961375628,0.0,0.27860918014318264,-0.0031741442511234834,0.3011504004622545,0.28,0.0,0.3,0.06899943968149136,0.030156641382754742,0.003142781917044521,True,True,True,True,True,False,0
0.540267562,1772666266.9548142,-0.009163618087768555,0.22391709685325623,1.1163238286972046,-0.013230584561824799,0.8546350002288818,0.01284708920866251,0.07173414528369904,0.2522165775299072,0.3191227912902832,-0.023968450725078583,0.07989483326673508,0.0410887710750103,-0.3786507331403489,-0.3786507331403489,-0.061087,-1.3463757934558724,-2.1350902732346086,0.0,-0.04997513633154255,-0.04997513633154252,-0.3134967472481892,-0.4105519078998219,0.21522495076079529,0.0,0.4959496394325555,0.4959496394325569,-0.11317884387662115,2.547272186087069,-0.8997437183411997,0.0,0.27860918014318264,-0.0031741442511234834,0.3011504004622545,0.28,0.0,0.3,0.06899943968149136,0.030156641382754742,0.003142781917044521,True,True,True,True,True,False,0
0.560277614,1772666266.9748242,-0.009163618087768555,0.22391709685325623,1.1163238286972046,-0.013230584561824799,0.8546350002288818,0.01284708920866251,0.07173414528369904,0.2522165775299072,0.3191227912902832,-0.023968450725078583,0.07989483326673508,0.0410887710750103,-0.37965023586697977,-0.37965023586697977,-0.061087,-1.354586831613869,-2.1307857742193925,0.0,-0.042118665841182956,-0.042118665841182956,-0.3152807290101177,-0.36635676197623757,0.19753123368135478,0.0,0.3928235245179792,0.3928235245179778,-0.08919908809642543,2.209757296179214,-0.8846858539720246,0.0,0.27860918014318264,-0.0031741442511234834,0.3011504004622545,0.28,0.0,0.3,0.06899943968149136,0.030156641382754742,0.003142781917044521,True,True,True,True,True,False,0
0.580210522,1772666266.9947572,-0.009163618087768555,0.22391709685325623,1.1163238286972046,-0.013230584561824799,0.8546350002288818,0.01284708920866251,0.07173414528369904,0.2522165775299072,0.3191227912902832,-0.023968450725078583,0.07989483326673508,0.0410887710750103,-0.38049260918380345,-0.38049260918380345,-0.061087,-1.3619139668533937,-2.1268351495457654,0.0,-0.035834856224624186,-0.03583485622462413,-0.31671597743459984,-0.3277549757969069,0.18058820236933104,0.0,0.31419048082793827,0.31419048082794104,-0.07176242122410574,1.9300893089665327,-0.8471515656011861,0.0,0.27860918014318264,-0.0031741442511234834,0.3011504004622545,0.28,0.0,0.3,0.06899943968149136,0.030156641382754742,0.003142781917044521,True,True,True,True,True,False,0
0.6003614,1772666267.0149078,-0.005700656212866306,0.23673734068870544,1.1324114799499512,-0.013997574336826801,0.8579906225204468,0.014189322479069233,0.03249436989426613,0.1265876591205597,0.16264304518699646,-0.0410887710750103,0.048507578670978546,0.017120322212576866,-0.3812093063082959,-0.3812093063082959,-0.061087,-1.3684690663693317,-2.123223385498379,0.0,-0.03075663365633736,-0.03075663365633736,-0.31789253929507605,-0.29384916232196856,0.16463997276415782,0.0,0.2539111284143424,0.2539111284143396,-0.05882809302381081,1.6952906737469238,-0.7974114802586649,0.0,0.2813559927316112,-0.0022629415895063384,0.30132245696570237,0.28,0.0,0.3,0.012969179912962724,0.02253282666639165,-0.006402737524218126,True,True,True,True,True,False,0
0.620324033,1772666267.0348706,-0.005700656212866306,0.23673734068870544,1.1324114799499512,-0.013997574336826801,0.8579906225204468,0.014189322479069233,0.03249436989426613,0.1265876591205597,0.16264304518699646,-0.0410887710750103,0.048507578670978546,0.017120322212576866,-0.38182443898142265,-0.38182443898142265,-0.061087,-1.3743460496157711,-2.1199305860430955,0.0,-0.02660874214233569,-0.02660874214233569,-0.31887344242036186,-0.2639289771097845,0.1498017183977267,0.0,0.2073945757000834,0.2073945757000834,-0.04904515626429069,1.4960092606092006,-0.7419127183215545,0.0,0.2813559927316112,-0.0022629415895063384,0.30132245696570237,0.28,0.0,0.3,0.012969179912962724,0.02253282666639165,-0.006402737524218126,True,True,True,True,True,False,0
0.640249518,1772666267.054796,-0.005700656212866306,0.23673734068870544,1.1324114799499512,-0.013997574336826801,0.8579906225204468,0.014189322479069233,0.03249436989426613,0.1265876591205597,0.16264304518699646,-0.0410887710750103,0.048507578670978546,0.017120322212576866,-0.3823566138242694,-0.3823566138242694,-0.061087,-1.3796246291579668,-2.1169345516751408,0.0,-0.02318434860292433,-0.02318434860292433,-0.3197035140941348,-0.23742236363600372,0.13610792887544232,0.0,0.1712196769705679,0.1712196769705679,-0.04150358368864567,1.3253306736890391,-0.6846894761142192,0.0,0.2813559927316112,-0.0022629415895063384,0.30132245696570237,0.28,0.0,0.3,0.012969179912962724,0.02253282666639165,-0.006402737524218126,True,True,True,True,True,False,0
0.660329226,1772666267.0748758,-0.005700656212866306,0.23673734068870544,1.1324114799499512,-0.013997574336826801,0.8579906225204468,0.014189322479069233,0.03249436989426613,0.1265876591205597,0.16264304518699646,-0.0410887710750103,0.048507578670978546,0.017120322212576866,-0.3828203007963279,-0.3828203007963279,-0.061087,-1.384373076430687,-2.114212393097632,0.0,-0.020327525951443094,-0.020327525951443066,-0.32041512786349696,-0.21386184000803354,0.12354331865901869,0.0,0.14284113257406164,0.14284113257406303,-0.03558068846810921,1.1780261813985078,-0.6282305108211811,0.0,0.2813559927316112,-0.0022629415895063384,0.30132245696570237,0.28,0.0,0.3,0.012969179912962724,0.02253282666639165,-0.006402737524218126,True,True,True,True,True,False,0
0.680259546,1772666267.094806,-0.005700656212866306,0.23673734068870544,1.1324114799499512,-0.013997574336826801,0.8579906225204468,0.014189322479069233,0.03249436989426613,0.1265876591205597,0.16264304518699646,-0.0410887710750103,0.048507578670978546,0.017120322212576866,-0.3832268513153568,-0.3832268513153568,-0.061087,-1.3886503132308476,-2.1117415267244515,0.0,-0.01792020925010867,-0.017920209250108697,-0.32103201830582406,-0.19286056660167417,0.11206281054406098,0.0,0.1203658350667211,0.12036583506671833,-0.030844522116354994,1.050063670317968,-0.574025405747885,0.0,0.2813559927316112,-0.0022629415895063384,0.30132245696570237,0.28,0.0,0.3,0.012969179912962724,0.02253282666639165,-0.006402737524218126,True,True,True,True,True,False,0
0.70036102,1772666267.1149077,-0.0017832526937127113,0.24958251416683197,1.1491990089416504,-0.01284708920866251,0.8612663149833679,0.015339807607233524,0.0374935045838356,0.107241690158844,0.13908548653125763,9.179165818079212e-16,0.02140040136873722,0.0034240642562508583,-0.38358525550035893,-0.38358525550035893,-0.061087,-1.392507524562881,-2.1095002705135704,0.0,-0.015872514904188156,-0.015872514904188128,-0.3215718473780945,-0.17409493331039977,0.10160450559972833,0.0,0.10238471729602559,0.10238471729602837,-0.02699145361352293,0.938281664563719,-0.5229152472166316,0.0,0.2841911716296163,-0.0011130472550050846,0.3016197278153089,0.28,0.0,0.3,-0.01700158180345394,0.011543395102466568,-0.010181055721068904,True,True,True,True,True,False,0
0.720291249,1772666267.1348379,-0.0017832526937127113,0.24958251416683197,1.1491990089416504,-0.01284708920866251,0.8612663149833679,0.015339807607233524,0.0374935045838356,0.107241690158844,0.13908548653125763,9.179165818079212e-16,0.02140040136873722,0.0034240642562508583,-0.3839027057984427,-0.3839027057984427,-0.061087,-1.395989423229089,-2.107468180401576,0.0,-0.014115576218101625,-0.014115576218101653,-0.32204796354505005,-0.15729168934239823,0.09209814145000356,0.0,0.08784693430432647,0.08784693430432369,-0.02380580834777655,0.840162198400076,-0.47531820748623843,0.0,0.2841911716296163,-0.0011130472550050846,0.3016197278153089,0.28,0.0,0.3,-0.01700158180345394,0.011543395102466568,-0.010181055721068904,True,True,True,True,True,False,0
0.740498546,1772666267.155045,-0.0017832526937127113,0.24958251416683197,1.1491990089416504,-0.01284708920866251,0.8612663149833679,0.015339807607233524,0.0374935045838356,0.107241690158844,0.13908548653125763,9.179165818079212e-16,0.02140040136873722,0.0034240642562508583,-0.38418501732280474,-0.38418501732280474,-0.061087,-1.399135257015937,-2.105626217572576,0.0,-0.01259623708849333,-0.012596237088493358,-0.32247061211693473,-0.14221817355692967,0.08347050316977184,0.0,0.07596695648041507,0.07596695648041507,-0.021132428594233907,0.7536757892734316,-0.431381914011588,0.0,0.2841911716296163,-0.0011130472550050846,0.3016197278153089,0.28,0.0,0.3,-0.01700158180345394,0.011543395102466568,-0.010181055721068904,True,True,True,True,True,False,0
0.760334567,1772666267.174881,-0.0017832526937127113,0.24958251416683197,1.1491990089416504,-0.01284708920866251,0.8612663149833679,0.015339807607233524,0.0374935045838356,0.107241690158844,0.13908548653125763,9.179165818079212e-16,0.02140040136873722,0.0034240642562508583,-0.3844369420645746,-0.3844369420645746,-0.061087,-1.4019796204870756,-2.1039568075091806,0.0,-0.011273131635814268,-0.01127313163581424,-0.32284778637470424,-0.12867486932316657,0.0756488936710828,0.0,0.06615527263395306,0.06615527263395583,-0.018858712888475387,0.6771652116881544,-0.39108047493445175,0.0,0.2841911716296163,-0.0011130472550050846,0.3016197278153089,0.28,0.0,0.3,-0.01700158180345394,0.011543395102466568,-0.010181055721068904,True,True,True,True,True,False,0
0.780242113,1772666267.1947887,-0.0017832526937127113,0.24958251416683197,1.1491990089416504,-0.01284708920866251,0.8612663149833679,0.015339807607233524,0.0374935045838356,0.107241690158844,0.13908548653125763,9.179165818079212e-16,0.02140040136873722,0.0034240642562508583,-0.3846624046972909,-0.3846624046972909,-0.061087,-1.4045531178735389,-2.102443829635759,0.0,-0.01011377526860308,-0.01011377526860308,-0.323185821614355,-0.11648956053772935,0.06856322211003624,0.0,0.05796781836055939,0.057967818360558004,-0.016901761982537886,0.6092654392718605,-0.3542835780523276,0.0,0.2841911716296163,-0.0011130472550050846,0.3016197278153089,0.28,0.0,0.3,-0.01700158180345394,0.011543395102466568,-0.010181055721068904,True,True,True,True,True,False,0
0.800158961,1772666267.2147055,-0.0006883738678880036,0.2477417290210724,1.1454273462295532,-0.013422331772744656,0.8612663149833679,0.015339807607233524,0.008183513768017292,-0.0362950824201107,-0.06313974410295486,-0.02054438553750515,0.0,3.1532315532934547e-15,-0.38486468020266296,-0.38486468020266296,-0.061087,-1.4068829090842934,-2.101072565193558,0.0,-0.009092410907368221,-0.009092410907368221,-0.3234898217277896,-0.10551275531783749,0.06214724108002623,0.0,0.051068218061742866,0.051068218061742866,-0.015200005671731062,0.5488402609945926,-0.3207990515005002,0.0,0.2835724357825907,-0.0008287529589778469,0.3012577002535427,0.28,0.0,0.3,-0.044518221396419394,0.007284892066278771,-0.015575534683644216,True,True,True,True,True,False,0
0.820225516,1772666267.234772,-0.0006883738678880036,0.2477417290210724,1.1454273462295532,-0.013422331772744656,0.8612663149833679,0.015339807607233524,0.008183513768017292,-0.0362950824201107,-0.06313974410295486,-0.02054438553750515,0.0,3.1532315532934547e-15,-0.38504652842081033,-0.38504652842081033,-0.061087,-1.4089931641906501,-2.0998296203719575,0.0,-0.008188411483456438,-0.008188411483456438,-0.3237639669399456,-0.09561406856026144,0.05633921674455389,0.0,0.04519997119558912,0.04519997119558912,-0.013707260607798132,0.4949343378788019,-0.2904012167736167,0.0,0.2835724357825907,-0.0008287529589778469,0.3012577002535427,0.28,0.0,0.3,-0.044518221396419394,0.007284892066278771,-0.015575534683644216,True,True,True,True,True,False,0
0.840476946,1772666267.2550237,-0.0006883738678880036,0.2477417290210724,1.1454273462295532,-0.013422331772744656,0.8612663149833679,0.015339807607233524,0.008183513768017292,-0.0362950824201107,-0.06313974410295486,-0.02054438553750515,0.0,3.1532315532934547e-15,-0.38521029665047946,-0.38521029665047946,-0.061087,-1.4109054455618553,-2.0987028360370665,0.0,-0.007385078935013171,-0.007385078935013143,-0.32401172669508466,-0.0866792070347262,0.051082125526121736,0.0,0.04016662742216331,0.040166627422164695,-0.012387987756953812,0.44674307627676174,-0.2628545609216074,0.0,0.2835724357825907,-0.0008287529589778469,0.3012577002535427,0.28,0.0,0.3,-0.044518221396419394,0.007284892066278771,-0.015575534683644216,True,True,True,True,True,False,0
0.860429266,1772666267.2749758,-0.0006883738678880036,0.2477417290210724,1.1454273462295532,-0.013422331772744656,0.8612663149833679,0.015339807607233524,0.008183513768017292,-0.0362950824201107,-0.06313974410295486,-0.02054438553750515,0.0,3.1532315532934547e-15,-0.3853579982291797,-0.3853579982291797,-0.061087,-1.4126390297025497,-2.0976811935265443,0.0,-0.006668756908076768,-0.006668756908076768,-0.32423602455367834,-0.07860763184177066,0.046323696775615486,0.0,0.03581610134682031,0.035816101346818924,-0.01121489292968408,0.4035787596477788,-0.23792143752531358,0.0,0.2835724357825907,-0.0008287529589778469,0.3012577002535427,0.28,0.0,0.3,-0.044518221396419394,0.007284892066278771,-0.015575534683644216,True,True,True,True,True,False,0
0.880165487,1772666267.294712,-0.0006883738678880036,0.2477417290210724,1.1454273462295532,-0.013422331772744656,0.8612663149833679,0.015339807607233524,0.008183513768017292,-0.0362950824201107,-0.06313974410295486,-0.02054438553750515,0.0,3.1532315532934547e-15,-0.38549137336734124,-0.38549137336734124,-0.061087,-1.4142111823393853,-2.096754719591032,0.0,-0.006028161479034965,-0.006028161479034965,-0.3244393576357799,-0.07131059404491169,0.04201627257296853,0.0,0.032029771452090114,0.032029771452090114,-0.010166654105078768,0.36485188984294836,-0.21537121013234775,0.0,0.2835724357825907,-0.0008287529589778469,0.3012577002535427,0.28,0.0,0.3,-0.044518221396419394,0.007284892066278771,-0.015575534683644216,True,True,True,True,True,False,0
0.90012703,1772666267.3146737,0.00020900488016195595,0.245626762509346,1.1415654420852661,-0.013422331772744656,0.8612663149833679,0.015339807607233524,0.009210732765495777,-0.011367893777787685,-0.0257489625364542,9.179165818079212e-16,0.0,3.1532315532934547e-15,-0.38561193659692194,-0.38561193659692194,-0.061087,-1.4156373942202836,-2.0959143941395726,0.0,-0.0054538710143317085,-0.0054538710143317085,-0.3246238785856099,-0.064709470672134,0.038116530872683074,0.0,0.028714523235162808,0.028714523235162808,-0.00922604749150068,0.33005616863888393,-0.19498708501427248,0.0,0.28292395013943805,-0.0005744309969862117,0.3009516818239402,0.28,0.0,0.3,-0.03170407824061306,0.005219926037101139,-0.01060517487391685,True,True,True,True,True,False,0
0.920213792,1772666267.3347604,0.00020900488016195595,0.245626762509346,1.1415654420852661,-0.013422331772744656,0.8612663149833679,0.015339807607233524,0.009210732765495777,-0.011367893777787685,-0.0257489625364542,9.179165818079212e-16,0.0,3.1532315532934547e-15,-0.3857210140172086,-0.3857210140172086,-0.061087,-1.4169315836337262,-2.095152063522119,0.0,-0.004937945018177847,-0.004937945018177847,-0.3247914633380771,-0.05873443658297661,0.03458521237491241,0.0,0.025796299807693036,0.025796299807693036,-0.008379237623359896,0.2987517044578694,-0.176565924888533,0.0,0.28292395013943805,-0.0005744309969862117,0.3009516818239402,0.28,0.0,0.3,-0.03170407824061306,0.005219926037101139,-0.01060517487391685,True,True,True,True,True,False,0
0.940149187,1772666267.3546958,0.00020900488016195595,0.245626762509346,1.1415654420852661,-0.013422331772744656,0.8612663149833679,0.015339807607233524,0.009210732765495777,-0.011367893777787685,-0.0257489625364542,9.179165818079212e-16,0.0,3.1532315532934547e-15,-0.38581977291757213,-0.38581977291757213,-0.061087,-1.4181062723653857,-2.0944603592746205,0.0,-0.004473632512740706,-0.004473632512740706,-0.3249437626680192,-0.05332333185705446,0.03138681860786757,0.0,0.023215625271857054,0.023215625271857054,-0.007614966497104796,0.27055523629610756,-0.15991968835224177,0.0,0.28292395013943805,-0.0005744309969862117,0.3009516818239402,0.28,0.0,0.3,-0.03170407824061306,0.005219926037101139,-0.01060517487391685,True,True,True,True,True,False,0
0.960263462,1772666267.3748102,0.00020900488016195595,0.245626762509346,1.1415654420852661,-0.013422331772744656,0.8612663149833679,0.015339807607233524,0.009210732765495777,-0.011367893777787685,-0.0257489625364542,9.179165818079212e-16,0.0,3.1532315532934547e-15,-0.38590924556782696,-0.38590924556782696,-0.061087,-1.4191727390025268,-2.0938326229024633,0.0,-0.004055144158044487,-0.004055144158044515,-0.32508223605583514,-0.04842068334050387,0.028489275639292433,0.0,0.020924417734810904,0.020924417734809516,-0.006923669390795911,0.24513242582752925,-0.14487714842875685,0.0,0.28292395013943805,-0.0005744309969862117,0.3009516818239402,0.28,0.0,0.3,-0.03170407824061306,0.005219926037101139,-0.01060517487391685,True,True,True,True,True,False,0
0.980195574,1772666267.3947423,0.00020900488016195595,0.245626762509346,1.1415654420852661,-0.013422331772744656,0.8612663149833679,0.015339807607233524,0.009210732765495777,-0.011367893777787685,-0.0257489625364542,9.179165818079212e-16,0.0,3.1532315532934547e-15,-0.38599034845098784,-0.38599034845098784,-0.061087,-1.4201411526693368,-2.0932628373896773,0.0,-0.003677480170970516,-0.003677480170970488,-0.3252081850310035,-0.04397690168925483,0.025863646839641374,0.0,0.01888319935369866,0.018883199353701436,-0.006297448758418896,0.22218908256245276,-0.13128143998255354,0.0,0.28292395013943805,-0.0005744309969862117,0.3009516818239402,0.28,0.0,0.3,-0.03170407824061306,0.005219926037101139,-0.01060517487391685,True,True,True,True,True,False,0
1.000170467,1772666267.414717,0.0007439806940965354,0.24177071452140808,1.135303020477295,-0.013422331772744656,0.8603874444961548,0.015339807607233524,0.004793690051883459,-0.046704236418008804,-0.07440491765737534,9.179165818079212e-16,-0.011413547210395336,3.1532315532934547e-15,-0.3860638980544073,-0.3860638980544073,-0.061087,-1.421020690703122,-2.0927455644528843,0.0,-0.003336290202435116,-0.003336290202435116,-0.32532277155834344,-0.03994754917789345,0.023483812801830095,0.0,0.01705949842676998,0.017059498426768592,-0.005729326366996074,0.20146762556806902,-0.11899170189056385,0.0,0.2819002222252377,-0.0004233775714370109,0.3005764754602896,0.28,0.0,0.3,-0.0291674592154818,0.0034011920467379325,-0.009077450002158649,True,True,True,True,True,False,0
1.020221385,1772666267.434768,0.0007439806940965354,0.24177071452140808,1.135303020477295,-0.013422331772744656,0.8603874444961548,0.015339807607233524,0.004793690051883459,-0.046704236418008804,-0.07440491765737534,9.179165818079212e-16,-0.011413547210395336,3.1532315532934547e-15,-0.386130623858456,-0.386130623858456,-0.061087,-1.42181964168668,-2.0922758881968475,0.0,-0.0030277723426823527,-0.0030277723426823805,-0.3254270432133567,-0.03629279767096344,0.021326247756983163,0.0,0.015425892987638148,0.01542589298763676,-0.005213582750662744,0.1827375753465003,-0.1078782522423465,0.0,0.2819002222252377,-0.0004233775714370109,0.3005764754602896,0.28,0.0,0.3,-0.0291674592154818,0.0034011920467379325,-0.009077450002158649,True,True,True,True,True,False,0
1.040108539,1772666267.4546552,0.0007439806940965354,0.24177071452140808,1.135303020477295,-0.013422331772744656,0.8603874444961548,0.015339807607233524,0.004793690051883459,-0.046704236418008804,-0.07440491765737534,9.179165818079212e-16,-0.011413547210395336,3.1532315532934547e-15,-0.3861911793053096,-0.3861911793053096,-0.061087,-1.4225454976400993,-2.0918493632417077,0.0,-0.002890022732448958,-0.002890022732448958,-0.32570738304335023,-0.03208146849593985,0.020508190274045768,0.0,0.006887480511669723,0.0068874805116711105,-0.014016991499676822,0.21056645875117944,-0.04090287414686974,0.0,0.2819002222252377,-0.0004233775714370109,0.3005764754602896,0.28000039402400007,-2.955180000000008e-07,0.3,-0.029087071175481413,0.003340901016737932,-0.009077450002158649,True,True,True,True,True,False,0
1.06011788,1772666267.4746644,0.0007439806940965354,0.24177071452140808,1.135303020477295,-0.013422331772744656,0.8603874444961548,0.015339807607233524,0.004793690051883459,-0.046704236418008804,-0.07440491765737534,9.179165818079212e-16,-0.011413547210395336,3.1532315532934547e-15,-0.3862489797599586,-0.3862489797599586,-0.061087,-1.423187127010018,-2.091439199436227,0.0,-0.003051411700398722,-0.003051411700398722,-0.32636139205261616,-0.02633471692056205,0.022093923116383474,0.0,-0.008069448397488188,-0.008069448397488188,-0.03270045046329659,0.2873375787688895,0.07928664211688523,0.0,0.2819002222252377,-0.0004233775714370109,0.3005764754602896,0.280003104768,-2.3285760000000057e-06,0.3,-0.02883676673548207,0.003153172686737933,-0.009077450002158649,True,True,True,True,True,False,0
1.080259417,1772666267.494806,0.0007439806940965354,0.24177071452140808,1.135303020477295,-0.013422331772744656,0.8603874444961548,0.015339807607233524,0.004793690051883459,-0.046704236418008804,-0.07440491765737534,9.179165818079212e-16,-0.011413547210395336,3.1532315532934547e-15,-0.3863100079939666,-0.3863100079939666,-0.061087,-1.4237138213484293,-2.0909973209738992,0.0,-0.003469710786562965,-0.003469710786562965,-0.3273853944079878,-0.019057024322732374,0.02579355767959196,0.0,-0.020914954308212125,-0.020914954308212125,-0.051200117768582194,0.3638846298914835,0.18498172816042419,0.0,0.2819002222252377,-0.0004233775714370109,0.3005764754602896,0.280010319832,-7.739874000000021e-06,0.3,-0.028403749095482305,0.002828409456737932,-0.009077450002158649,True,True,True,True,True,False,0
1.100154406,1772666267.5147011,0.0010833739070221782,0.23816777765750885,1.1296560764312744,-0.013230584561824799,0.8596683740615845,0.015339807607233524,0.0034925455693155527,-0.02636529505252838,-0.043211691081523895,0.0034240642562508583,-0.005706773605197668,3.1532315532934547e-15,-0.38637940220969785,-0.38637940220969785,-0.061087,-1.424094961834884,-2.0904814498203073,0.0,-0.004109715702105242,-0.004109715702105242,-0.32877668656436665,-0.010261499212499303,0.031357124048191076,0.0,-0.03200024577711382,-0.03200024577711382,-0.06956460781894208,0.43977625551165317,0.27817831842995555,0.0,0.2809634117009863,-0.00031926606128113914,0.3002712876808478,0.28002408857600003,-1.8066432000000045e-05,0.3,-0.013898131605780583,0.0017067581620311798,-0.004587584336559711,True,True,True,True,True,False,0
1.120160059,1772666267.5347066,0.0010833739070221782,0.23816777765750885,1.1296560764312744,-0.013230584561824799,0.8596683740615845,0.015339807607233524,0.0034925455693155527,-0.02636529505252838,-0.043211691081523895,0.0034240642562508583,-0.005706773605197668,3.1532315532934547e-15,-0.38646159652373996,-0.38646159652373996,-0.061087,-1.4243001918191338,-2.0898543073393436,0.0,-0.004941764068640338,-0.0049417640686403655,-0.3305329609134882,2.9192558157697945e-05,0.038567185033290485,0.0,-0.04160241832675476,-0.041602418326756145,-0.08781371745607827,0.5145345885328496,0.3605030492549701,0.0,0.2809634117009863,-0.00031926606128113914,0.3002712876808478,0.280046325,-3.474375000000009e-05,0.3,-0.013066049165781033,0.0010826963320311786,-0.004587584336559711,True,True,True,True,True,False,0
1.140258214,1772666267.5548048,0.0010833739070221782,0.23816777765750885,1.1296560764312744,-0.013230584561824799,0.8596683740615845,0.015339807607233524,0.0034925455693155527,-0.02636529505252838,-0.043211691081523895,0.0034240642562508583,-0.005706773605197668,3.1532315532934547e-15,-0.3865604318051128,-0.3865604318051128,-0.061087,-1.4242996079679706,-2.0890829636386776,0.0,-0.0059406395725699265,-0.005940639572569982,-0.3326519461852488,0.01178267118169185,0.04723324860747019,0.0,-0.0499437751964794,-0.049943775196480786,-0.10594926358802871,0.5876739311767071,0.4333031787089849,0.0,0.2809634117009863,-0.00031926606128113914,0.3002712876808478,0.280078810624,-5.910796800000016e-05,0.3,-0.012019919125781138,0.00029809880203117704,-0.004587584336559711,True,True,True,True,True,False,0
1.160175649,1772666267.5747223,0.0010833739070221782,0.23816777765750885,1.1296560764312744,-0.013230584561824799,0.8596683740615845,0.015339807607233524,0.0034925455693155527,-0.02636529505252838,-0.043211691081523895,0.0034240642562508583,-0.005706773605197668,3.1532315532934547e-15,-0.38667924459656416,-0.38667924459656416,-0.061087,-1.4240639545443368,-2.0881382986665282,0.0,-0.007084750231819762,-0.00708475023181979,-0.33513119903445804,0.02495719197842905,0.057187473735177574,0.0,-0.05720553296249173,-0.05720553296249034,-0.12396264246046218,0.6587260398368594,0.4977112563853687,0.0,0.2809634117009863,-0.00031926606128113914,0.3002712876808478,0.280123197368,-9.239802600000023e-05,0.3,-0.01075155268578078,-0.000653176027968824,-0.004587584336559711,True,True,True,True,True,False,0
1.180356728,1772666267.5949032,0.0010833739070221782,0.23816777765750885,1.1296560764312744,-0.013230584561824799,0.8596683740615845,0.015339807607233524,0.0034925455693155527,-0.02636529505252838,-0.043211691081523895,0.0034240642562508583,-0.005706773605197668,3.1532315532934547e-15,-0.38682093960120056,-0.38682093960120056,-0.061087,-1.4235648107047683,-2.0869945491918247,0.0,-0.008355489742054164,-0.008355489742054164,-0.33796797977553783,0.03950243053712463,0.06828121554456562,0.0,-0.06353697551172073,-0.06353697551171934,-0.14183903705399104,0.7272619279347863,0.554687090469408,0.0,0.2809634117009863,-0.00031926606128113914,0.3002712876808478,0.28018101043200005,-0.0001357578239999998,0.3,-0.009253841045780338,-0.0017764597579688127,-0.004587584336559711,True,True,True,True,True,False,0
1.200224374,1772666267.614771,0.0012712866300716996,0.23600678145885468,1.1264289617538452,-0.01284708920866251,0.8591091632843018,0.015339807607233524,0.0020886792335659266,-0.02222217619419098,-0.031604114919900894,0.006848128512501717,-0.0042800805531442165,3.1532315532934547e-15,-0.38698804939604164,-0.38698804939604164,-0.061087,-1.4227747620940259,-2.0856289248809334,0.0,-0.009736748937008365,-0.00973674893700842,-0.341159201215135,0.055360347429210977,0.08038232251319699,0.0,-0.06906295974771001,-0.06906295974771279,-0.15956107197985778,0.7928958446043167,0.6050553484315679,0.0,0.28043067883985284,-0.0002487077877685074,0.3001246949908164,0.28025365117600004,-0.00019023838199999982,0.3,-0.0008197107650194796,-0.003533853112774264,-0.0025503702072401323,True,True,True,True,True,False,0
1.220186037,1772666267.6347325,0.0012712866300716996,0.23600678145885468,1.1264289617538452,-0.01284708920866251,0.8591091632843018,0.015339807607233524,0.0020886792335659266,-0.02222217619419098,-0.031604114919900894,0.006848128512501717,-0.0042800805531442165,3.1532315532934547e-15,-0.3871827843747818,-0.3871827843747818,-0.061087,-1.4216675551454416,-2.0840212784306695,0.0,-0.011214517328263,-0.011214517328263028,-0.34470140137933647,0.07246622453526821,0.09337284865226653,0.0,-0.0738884195627317,-0.07388841956273032,-0.1771100082100739,0.8552938553028612,0.6495263069534762,0.0,0.28043067883985284,-0.0002487077877685074,0.3001246949908164,0.28034240000000005,-0.00025679999999999985,0.3,0.0011538416749805867,-0.005014017442774263,-0.0025503702072401323,True,True,True,True,True,False,0
1.240210121,1772666267.6547565,0.0012712866300716996,0.23600678145885468,1.1264289617538452,-0.01284708920866251,0.8591091632843018,0.015339807607233524,0.0020886792335659266,-0.02222217619419098,-0.031604114919900894,0.006848128512501717,-0.0042800805531442165,3.1532315532934547e-15,-0.38740707472134706,-0.38740707472134706,-0.061087,-1.4202182306547362,-2.082153821457624,0.0,-0.0127765618215547,-0.012776561821554672,-0.34859073711478405,0.09074968576295395,0.10714716323711859,0.0,-0.0781022246645849,-0.07810222466458212,-0.1944667867723791,0.9141730613842858,0.6887157292426026,0.0,0.28043067883985284,-0.0002487077877685074,0.3001246949908164,0.280448419224,-0.0003363144179999999,0.3,0.003371873714980014,-0.006677541472774266,-0.0025503702072401323,True,True,True,True,True,False,0
1.260168449,1772666267.674715,0.0012712866300716996,0.23600678145885468,1.1264289617538452,-0.01284708920866251,0.8591091632843018,0.015339807607233524,0.0020886792335659266,-0.02222217619419098,-0.031604114919900894,0.006848128512501717,-0.0042800805531442165,3.1532315532934547e-15,-0.38766260595777813,-0.38766260595777813,-0.061087,-1.418403236939477,-2.0800108781928817,0.0,-0.014412159304554192,-0.014412159304554247,-0.3528229803851468,0.11013566188738969,0.12161033093652046,0.0,-0.08177987414997452,-0.08177987414997868,-0.21161216351813764,0.9692988062217861,0.7231583849700928,0.0,0.28043067883985284,-0.0002487077877685074,0.3001246949908164,0.280572755968,-0.00042956697599999994,0.3,0.005837462154980323,-0.008526732802774266,-0.0025503702072401323,True,True,True,True,True,False,0
1.280248588,1772666267.6947954,0.0012712866300716996,0.23600678145885468,1.1264289617538452,-0.01284708920866251,0.8591091632843018,0.015339807607233524,0.0020886792335659266,-0.02222217619419098,-0.031604114919900894,0.006848128512501717,-0.0042800805531442165,3.1532315532934547e-15,-0.38795084914386924,-0.38795084914386924,-0.061087,-1.4162005237017292,-2.0775786715741513,0.0,-0.016111866465204627,-0.016111866465204627,-0.35739350715832674,0.13054532478661324,0.1366766794662997,0.0,-0.0849853580325217,-0.08498535803251893,-0.22852633865899621,1.0204831449611766,0.7533174264889607,0.0,0.28043067883985284,-0.0002487077877685074,0.3001246949908164,0.28071634503200005,-0.000537258774,0.3,0.008552747794980593,-0.010563197032774268,-0.0025503702072401323,True,True,True,True,True,False,0
1.300273386,1772666267.71482,0.0013345632469281554,0.23495984077453613,1.124657154083252,-0.01284708920866251,0.8588694334030151,0.015148060396313667,0.00034240641980431974,-0.0048279305920004845,-0.00931345485150814,9.179165818079212e-16,-0.002853386802598834,-0.0034240642562508583,-0.3882730864731733,-0.3882730864731733,-0.061087,-1.413589617205997,-2.074845137984825,0.0,-0.017867326803534967,-0.017867326803535023,-0.36229728063485145,0.15189687680437286,0.1522685833008857,0.0,-0.08777301691651691,-0.08777301691651969,-0.24518867382623522,1.0675776008879803,0.7795951917292994,0.0,0.28014174537745384,-0.0002312294193944013,0.30000475097052703,0.28088001177599997,-0.0006600088320000002,0.3,0.017499361103612866,-0.012894396935749633,-0.00048647154350269834,True,True,True,True,True,False,0
1.32026338,1772666267.7348099,0.0013345632469281554,0.23495984077453613,1.124657154083252,-0.01284708920866251,0.8588694334030151,0.015148060396313667,0.00034240641980431974,-0.0048279305920004845,-0.00931345485150814,9.179165818079212e-16,-0.002853386802598834,-0.0034240642562508583,-0.38863043300924405,-0.38863043300924405,-0.061087,-1.4105516796699096,-2.0717997663188075,0.0,-0.01967110011151435,-0.019671100111514295,-0.36752881909593227,0.17410624523829552,0.16831536354153442,0.0,-0.09018866539896908,-0.09018866539896353,-0.2615769230540408,1.1104684216961318,0.802339012032436,0.0,0.28014174537745384,-0.0002312294193944013,0.30000475097052703,0.28106447500000004,-0.0007983562500000003,0.3,0.02071686354361351,-0.015307523765749637,-0.00048647154350269834,True,True,True,True,True,False,0
1.34032004,1772666267.7548666,0.0013345632469281554,0.23495984077453613,1.124657154083252,-0.01284708920866251,0.8588694334030151,0.015148060396313667,0.00034240641980431974,-0.0048279305920004845,-0.00931345485150814,9.179165818079212e-16,-0.002853386802598834,-0.0034240642562508583,-0.38902385501147435,-0.38902385501147435,-0.061087,-1.4070695547651437,-2.0684334590479767,0.0,-0.021516511875980946,-0.02151651187598092,-0.37308215128452393,0.197087689400818,0.1847523058080193,0.0,-0.09227058822332972,-0.0922705882233311,-0.277666609429583,1.1490722081261233,0.8218471133242429,0.0,0.28014174537745384,-0.0002312294193944013,0.30000475097052703,0.281270349824,-0.0009527623680000004,0.3,0.024185157583613254,-0.01790874429574964,-0.00048647154350269834,True,True,True,True,True,False,0
1.360184433,1772666267.774731,0.0013345632469281554,0.23495984077453613,1.124657154083252,-0.01284708920866251,0.8588694334030151,0.015148060396313667,0.00034240641980431974,-0.0048279305920004845,-0.00931345485150814,9.179165818079212e-16,-0.002853386802598834,-0.0034240642562508583,-0.38945418524899394,-0.38945418524899394,-0.061087,-1.4031278009771273,-2.0647384129318165,0.0,-0.02339752336473811,-0.02339752336473814,-0.3789507599210453,0.2207542459970454,0.20151980582122656,0.0,-0.09405057443785816,-0.09405057443786094,-0.29343043182606915,1.1833278298113692,0.8383750006603622,0.0,0.28014174537745384,-0.0002312294193944013,0.30000475097052703,0.281498150568,-0.0011236129260000006,0.3,0.02790292802361298,-0.020697072125749644,-0.00048647154350269834,True,True,True,True,True,False,0
1.38024499,1772666267.7947917,0.0013345632469281554,0.23495984077453613,1.124657154083252,-0.01284708920866251,0.8588694334030151,0.015148060396313667,0.00034240641980431974,-0.0048279305920004845,-0.00931345485150814,9.179165818079212e-16,-0.002853386802598834,-0.0034240642562508583,-0.3899221357162887,-0.3899221357162887,-0.061087,-1.3987127160571864,-2.0607080168153917,0.0,-0.02530861304327342,-0.025308613043273392,-0.38512751095614034,0.24501810367595983,0.2185625763199807,0.0,-0.09555448392676537,-0.09555448392676259,-0.30883755175475064,1.2131928839457202,0.8521385249377059,0.0,0.28014174537745384,-0.0002312294193944013,0.30000475097052703,0.28174829363200005,-0.001311220224000001,0.3,0.031868067663613615,-0.023670926855749647,-0.00048647154350269834,True,True,True,True,True,False,0
1.400327648,1772666267.8148742,0.0010661166161298752,0.23556959629058838,1.1251710653305054,-0.01284708920866251,0.8586297631263733,0.015148060396313667,-0.00465672742575407,0.01075156219303608,0.009279213845729828,9.179165818079212e-16,-0.002853386802598834,3.1532315532934547e-15,-0.39042830797715417,-0.39042830797715417,-0.061087,-1.393812353983667,-2.056336765288992,0.0,-0.02724467349689882,-0.027244673496898793,-0.3916045746415367,0.2697908617926551,0.23582896728344893,0.0,-0.09680302268126996,-0.09680302268126996,-0.3238531842698175,1.2386379058347625,0.8633195481734114,0.0,0.280262108719075,-0.00030617596610342393,0.2999543744084614,0.28202110037600003,-0.0015158252820000012,0.3,0.03744335752642234,-0.025935557859271097,0.000830590870920431,True,True,True,True,True,False,0
1.420253003,1772666267.8347995,0.0010661166161298752,0.23556959629058838,1.1251710653305054,-0.01284708920866251,0.8586297631263733,0.015148060396313667,-0.00465672742575407,0.01075156219303608,0.009279213845729828,9.179165818079212e-16,-0.002853386802598834,3.1532315532934547e-15,-0.39097320144709213,-0.39097320144709213,-0.061087,-1.388416536747814,-2.051620185943323,0.0,-0.029200915653166994,-0.02920091565316705,-0.3983733373528544,0.2949837176437969,0.2532703146148859,0.0,-0.09781210781340853,-0.0978121078134127,-0.33843813556588526,1.2596427925570879,0.8720673665718485,0.0,0.280262108719075,-0.00030617596610342393,0.2999543744084614,0.2823168,-0.0017376000000000017,0.3,0.0418938899664218,-0.0292734571892711,0.000830590870920431,True,True,True,True,True,False,0
1.440242746,1772666267.8547893,0.0010661166161298752,0.23556959629058838,1.1251710653305054,-0.01284708920866251,0.8586297631263733,0.015148060396313667,-0.00465672742575407,0.01075156219303608,0.009279213845729828,9.179165818079212e-16,-0.002853386802598834,3.1532315532934547e-15,-0.39155721976015545,-0.39155721976015545,-0.061087,-1.3825168623949382,-2.0465547796510255,0.0,-0.031172785619776818,-0.031172785619776818,-0.40542430838514626,0.32050756255014573,0.2708403858636256,0.0,-0.09859349833049223,-0.09859349833048946,-0.35254855161459625,1.2761922453174555,0.878503562436992,0.0,0.280262108719075,-0.00030617596610342393,0.2999543744084614,0.282635532424,-0.001976649317999999,0.3,0.04658100600642224,-0.03278879421927107,0.000830590870920431,True,True,True,True,True,False,0
1.460361249,1772666267.874908,0.0010661166161298752,0.23556959629058838,1.1251710653305054,-0.01284708920866251,0.8586297631263733,0.015148060396313667,-0.00465672742575407,0.01075156219303608,0.009279213845729828,9.179165818079212e-16,-0.002853386802598834,3.1532315532934547e-15,-0.392180675472551,-0.392180675472551,-0.061087,-1.3761067111439353,-2.041137971933753,0.0,-0.03315588558791404,-0.03315588558791401,-0.4127470227421965,0.3462730556627594,0.288494847419302,0.0,-0.099154998406861,-0.09915499840685961,-0.3661357178525112,1.2882746556306823,0.8827230777838194,0.0,0.280262108719075,-0.00030617596610342393,0.2999543744084614,0.28297735116800005,-0.002233013375999999,0.3,0.05149971844642246,-0.03647782854927107,0.000830590870920431,True,True,True,True,True,False,0
1.480272316,1772666267.8948188,0.0010661166161298752,0.23556959629058838,1.1251710653305054,-0.01284708920866251,0.8586297631263733,0.015148060396313667,-0.00465672742575407,0.01075156219303608,0.009279213845729828,9.179165818079212e-16,-0.002853386802598834,3.1532315532934547e-15,-0.39284379318430923,-0.39284379318430923,-0.061087,-1.3691812500306801,-2.035368074985367,0.0,-0.03514590665702274,-0.03514590665702274,-0.420329948970405,0.3721905991530495,0.3061908122361475,0.0,-0.09950105345543489,-0.09950105345543628,-0.37914631141042454,1.2958771745145026,0.8847982408422764,0.0,0.280262108719075,-0.00030617596610342393,0.2999543744084614,0.283342226232,-0.002506669674,0.3,0.05664439208642205,-0.04033633377927107,0.000830590870920431,True,True,True,True,True,False,0
1.500211483,1772666267.9147582,-0.0004966263077221811,0.23913802206516266,1.1293338537216187,-0.01284708920866251,0.8584699630737305,0.014764565043151379,-0.0180105771869421,0.04269808158278465,0.04783417657017708,9.179165818079212e-16,-0.002853386802598834,-0.0034240642562508583,-0.39354671131744967,-0.39354671131744967,-0.061087,-1.361737438047619,-2.029244258740644,0.0,-0.03713856200474785,-0.03713856200474782,-0.4281603938160439,0.39817034337807655,0.3238863877525201,0.0,-0.09963276738625534,-0.09963276738625396,-0.39152224228194665,1.2989872112513527,0.884778775818628,0.0,0.2810477481378472,-0.0007444430870311128,0.2999255386117119,0.28373004697600007,-0.002797535232,0.3,0.059189331007873415,-0.03957578459584675,0.0027864515700155297,True,True,True,True,True,False,0
1.520253263,1772666267.9348,-0.0004966263077221811,0.23913802206516266,1.1293338537216187,-0.01284708920866251,0.8584699630737305,0.014764565043151379,-0.0180105771869421,0.04269808158278465,0.04783417657017708,9.179165818079212e-16,-0.002853386802598834,-0.0034240642562508583,-0.39428948255754465,-0.39428948255754465,-0.061087,-1.3537740311800575,-2.0227665309855936,0.0,-0.03912952847307391,-0.03912952847307391,-0.43622442033510145,0.4241221597241719,0.34154028725692753,0.0,-0.09954832341630303,-0.09954832341630442,-0.4032013259528757,1.2975908173047657,0.8826949752203709,0.0,0.2810477481378472,-0.0007444430870311128,0.2999255386117119,0.28414062500000004,-0.00310546875,0.3,0.06476657344787304,-0.04375871642584675,0.0027864515700155297,True,True,True,True,True,False,0
1.540350834,1772666267.9548974,-0.0004966263077221811,0.23913802206516266,1.1293338537216187,-0.01284708920866251,0.8584699630737305,0.014764565043151379,-0.0180105771869421,0.04269808158278465,0.04783417657017708,9.179165818079212e-16,-0.002853386802598834,-0.0034240642562508583,-0.39507207312700615,-0.39507207312700615,-0.061087,-1.345291587985574,-2.015935725240455,0.0,-0.041114389312801806,-0.041114389312801806,-0.444506772474505,0.44995563799455607,0.35911143721697814,0.0,-0.09924304198639473,-0.09924304198639473,-0.41411760697017647,1.291673913519208,0.8785574980025294,0.0,0.2810477481378472,-0.0007444430870311128,0.2999255386117119,0.28457369702400004,-0.0034302727680000002,0.3,0.07054927148787307,-0.04809573995584676,0.0027864515700155297,True,True,True,True,True,False,0
1.560253849,1772666267.9748003,-0.0004966263077221811,0.23913802206516266,1.1293338537216187,-0.01284708920866251,0.8584699630737305,0.014764565043151379,-0.0180105771869421,0.04269808158278465,0.04783417657017708,9.179165818079212e-16,-0.002853386802598834,-0.0034240642562508583,-0.3958943609132622,-0.3958943609132622,-0.061087,-1.3362924752256828,-2.0087534964961153,0.0,-0.04308858799323988,-0.04308858799323985,-0.4529908196993056,0.4755800487590691,0.37655867160067863,0.0,-0.09870993402190344,-0.09870993402190205,-0.42420236124003047,1.2812205382256514,0.8723617191850239,0.0,0.2810477481378472,-0.0007444430870311128,0.2999255386117119,0.28502892776800004,-0.003771695826,0.3,0.07652948592787309,-0.052580900785846756,0.0027864515700155297,True,True,True,True,True,False,0
1.580266229,1772666267.9948127,-0.0004966263077221811,0.23913802206516266,1.1293338537216187,-0.01284708920866251,0.8584699630737305,0.014764565043151379,-0.0180105771869421,0.04269808158278465,0.04783417657017708,9.179165818079212e-16,-0.002853386802598834,-0.0034240642562508583,-0.396756132673127,-0.396756132673127,-0.061087,-1.3267808742505014,-2.001222323064102,0.0,-0.04504737549143431,-0.04504737549143428,-0.461658514380489,0.500904462787584,0.3938403712085633,0.0,-0.0979393749097216,-0.0979393749097216,-0.43338473405916916,1.2662207014257454,0.8640849803942328,0.0,0.2810477481378472,-0.0007444430870311128,0.2999255386117119,0.285505912832,-0.0041294346240000005,0.3,0.08269877356787267,-0.05720786651584676,0.0027864515700155297,True,True,True,True,True,False,0
1.600106045,1772666268.0146527,-0.0033536655828356743,0.24508795142173767,1.1366816759109497,-0.01284708920866251,0.8584699630737305,0.014764565043151379,-0.031980760395526886,0.0676252692937851,0.08135576546192169,9.179165818079212e-16,0.0,3.1532315532934547e-15,-0.39765708018295565,-0.39765708018295565,-0.061087,-1.3167627849947496,-1.9933455156399307,0.0,-0.0469857731622819,-0.0469857731622819,-0.47049037840644836,0.5258377801843739,0.41091420586215466,0.0,-0.09691988354237928,-0.09691988354238067,-0.44159320129796803,1.2466658698394906,0.8536917326795671,0.0,0.28239368610983306,-0.0015518993321272617,0.2999666652043088,0.286004181576,-0.0045031361820000015,0.3,0.07949836797856602,-0.05333426651791445,0.003805322311441747,True,True,True,True,True,False,0
1.620156937,1772666268.0347037,-0.0033536655828356743,0.24508795142173767,1.1366816759109497,-0.01284708920866251,0.8584699630737305,0.014764565043151379,-0.031980760395526886,0.0676252692937851,0.08135576546192169,9.179165818079212e-16,0.0,3.1532315532934547e-15,-0.39859679564620126,-0.39859679564620126,-0.061087,-1.306246029391062,-1.9851272315226876,0.0,-0.04889853182463645,-0.04889853182463651,-0.47946551410320104,0.550288961452898,0.42773685776180803,0.0,-0.0956379331177276,-0.09563793311773038,-0.44875678483763354,1.222559063426203,0.8411325949826679,0.0,0.28239368610983306,-0.0015518993321272617,0.2999666652043088,0.28652320000000003,-0.004892400000000001,0.3,0.0860186004185664,-0.05822444084791445,0.003805322311441747,True,True,True,True,True,False,0
1.640256855,1772666268.0548034,-0.0033536655828356743,0.24508795142173767,1.1366816759109497,-0.01284708920866251,0.8584699630737305,0.014764565043151379,-0.031980760395526886,0.0676252692937851,0.08135576546192169,9.179165818079212e-16,0.0,3.1532315532934547e-15,-0.399574766282694,-0.399574766282694,-0.061087,-1.2952402501620042,-1.9765724943674514,0.0,-0.05078009971024901,-0.05078009971024898,-0.4885616454695343,0.5741672717352865,0.4442637874570351,0.0,-0.09407839428062773,-0.09407839428062356,-0.45480656831666205,1.1939155141194246,0.8263464847613525,0.0,0.28239368610983306,-0.0015518993321272617,0.2999666652043088,0.287062373624,-0.005296780218000003,0.3,0.09269984045856608,-0.06323537087791448,0.003805322311441747,True,True,True,True,True,False,0
1.660215256,1772666268.0747616,-0.0033536655828356743,0.24508795142173767,1.1366816759109497,-0.01284708920866251,0.8584699630737305,0.014764565043151379,-0.031980760395526886,0.0676252692937851,0.08135576546192169,9.179165818079212e-16,0.0,3.1532315532934547e-15,-0.400590368276899,-0.400590368276899,-0.061087,-1.2837569047272985,-1.9676872186183108,0.0,-0.05262459935092777,-0.05262459935092774,-0.49775519942888147,0.5973826032950298,0.4604490603927202,0.0,-0.09222498203393789,-0.09222498203393789,-0.4596776979673585,1.1607665779871645,0.809263646784255,0.0,0.28239368610983306,-0.0015518993321272617,0.2999666652043088,0.287621050368,-0.005715787776000002,0.3,0.09953191689856618,-0.06835942820791446,0.003805322311441747,True,True,True,True,True,False,0
1.680228805,1772666268.0947752,-0.0033536655828356743,0.24508795142173767,1.1366816759109497,-0.01284708920866251,0.8584699630737305,0.014764565043151379,-0.031980760395526886,0.0676252692937851,0.08135576546192169,9.179165818079212e-16,0.0,3.1532315532934547e-15,-0.40164286026391754,-0.40164286026391754,-0.061087,-1.271809252661398,-1.9584782374104563,0.0,-0.05442580803835592,-0.054425808038355894,-0.5070214210929658,0.6198459673637622,0.4762451941359686,0.0,-0.09006043437140765,-0.09006043437140765,-0.46331108320421494,1.1231682034366188,0.7898066871624192,0.0,0.28239368610983306,-0.0015518993321272617,0.2999666652043088,0.2881985234320001,-0.006148892574000004,0.3,0.10650429853856694,-0.0735887144379145,0.003805322311441747,True,True,True,True,True,False,0
1.700195167,1772666268.1147418,-0.007685243617743254,0.2540866732597351,1.148109793663025,-0.01284708920866251,0.8588694334030151,0.010929613374173641,-0.04471828043460846,0.09703797847032547,0.1199449673295021,9.179165818079212e-16,0.007133467122912407,-0.05478502810001373,-0.40273137642468465,-0.40273137642468465,-0.061087,-1.259412333314123,-1.9489533335277371,0.0,-0.056177150550881724,-0.056177150550881724,-0.5163345301768018,0.6414700167387104,0.4916030696558636,0.0,-0.08756712562629101,-0.0875671256262924,-0.46565545419180376,1.081202468747422,0.7678937759947569,0.0,0.28443897700343523,-0.0027910473824298626,0.3000892369111404,0.288794034176,-0.006595525631999999,0.3,0.09800598433149232,-0.06582706401003105,0.004181099784970521,True,True,True,True,True,False,0
1.720198893,1772666268.1347454,-0.007685243617743254,0.2540866732597351,1.148109793663025,-0.01284708920866251,0.8588694334030151,0.010929613374173641,-0.04471828043460846,0.09703797847032547,0.1199449673295021,9.179165818079212e-16,0.007133467122912407,-0.05478502810001373,-0.4038549194357023,-0.4038549194357023,-0.061087,-1.2465829329793487,-1.9391212721346198,0.0,-0.05787170427924014,-0.05787170427924014,-0.5256679237240796,0.6621697019502121,0.506471923354528,0.0,-0.08472768641792076,-0.08472768641792076,-0.4666696773638897,1.0349842605750827,0.7434426849332175,0.0,0.28443897700343523,-0.0027910473824298626,0.3000892369111404,0.28940677500000006,-0.0070550812499999985,0.3,0.10522608677149269,-0.07124214084003105,0.004181099784970521,True,True,True,True,True,False,0
1.740163264,1772666268.1547098,-0.007685243617743254,0.2540866732597351,1.148109793663025,-0.01284708920866251,0.8588694334030151,0.010929613374173641,-0.04471828043460846,0.09703797847032547,0.1199449673295021,9.179165818079212e-16,0.007133467122912407,-0.05478502810001373,-0.4050123535212871,-0.4050123535212871,-0.061087,-1.2333395389403445,-1.9289918336675294,0.0,-0.05950221377129648,-0.05950221377129648,-0.5349944166325566,0.6818630404351776,0.5207993933461705,0.0,-0.08152547460281705,-0.08152547460281705,-0.46632464542385416,0.9846669242482777,0.7163734995821285,0.0,0.28443897700343523,-0.0027910473824298626,0.3000892369111404,0.290035892224,-0.007526919168,0.3,0.1125530288114921,-0.07673734737003107,0.004181099784970521,True,True,True,True,True,False,0
1.760222687,1772666268.1747692,-0.007685243617743254,0.2540866732597351,1.148109793663025,-0.01284708920866251,0.8588694334030151,0.010929613374173641,-0.04471828043460846,0.09703797847032547,0.1199449673295021,9.179165818079212e-16,0.007133467122912407,-0.05478502810001373,-0.406202397796713,-0.406202397796713,-0.061087,-1.219702278131641,-1.918575845800606,0.0,-0.061061122515940154,-0.061061122515940154,-0.5442865232064833,0.7004719189428512,0.534531652450394,0.0,-0.07794543723218347,-0.07794543723218347,-0.46460532869633214,0.9304439253836775,0.6866129552111738,0.0,0.28443897700343523,-0.0027910473824298626,0.3000892369111404,0.29068048896800003,-0.008010366726,0.3,0.11997512725149237,-0.08230392120003106,0.004181099784970521,True,True,True,True,True,False,0
1.780239661,1772666268.1947863,-0.007685243617743254,0.2540866732597351,1.148109793663025,-0.01284708920866251,0.8588694334030151,0.010929613374173641,-0.04471828043460846,0.09703797847032547,0.1199449673295021,9.179165818079212e-16,0.007133467122912407,-0.05478502810001373,-0.4074236202470318,-0.4074236202470318,-0.061087,-1.205692839752784,-1.907885212751598,0.0,-0.06254062210169822,-0.06254062210169822,-0.553516775934029,0.7179229810267513,0.547613661828983,0.0,-0.07397497928790339,-0.07397497928790339,-0.4615126363772866,0.8725531041950055,0.6541004689294466,0.0,0.28443897700343523,-0.0027910473824298626,0.3000892369111404,0.29133962803200003,-0.008504721024000001,0.3,0.12748048289149239,-0.0879329379300311,0.004181099784970521,True,True,True,True,True,False,0
1.800127298,1772666268.214674,-0.013163472525775433,0.2654419541358948,1.1624410152435303,-0.01284708920866251,0.8607869148254395,0.007478156127035618,-0.05646282061934471,0.12056130170822144,0.15130940079689026,9.179165818079212e-16,0.018547015264630318,-0.05136096477508545,-0.4086744326890658,-0.4086744326890658,-0.061087,-1.191334380132249,-1.8969329395150183,0.0,-0.0639327133095631,-0.06393271330956307,-0.5626580751894821,0.7341485877021151,0.5599894835099544,0.0,-0.06960456039324375,-0.06960456039324237,-0.4570649627726516,0.8112803337681878,0.6187910840485694,0.0,0.28690369041683056,-0.004382873835977427,0.3001982335061932,0.292012334776,-0.009009251082,0.3,0.11418595598178516,-0.07688436892830465,0.004327541830087015,True,True,True,True,True,False,0
1.820219573,1772666268.234766,-0.013163472525775433,0.2654419541358948,1.1624410152435303,-0.01284708920866251,0.8607869148254395,0.007478156127035618,-0.05646282061934471,0.12056130170822144,0.15130940079689026,9.179165818079212e-16,0.018547015264630318,-0.05136096477508545,-0.40995308695525706,-0.40995308695525706,-0.061087,-1.1766514083782067,-1.885733149844819,0.0,-0.06522928979716364,-0.06522928979716366,-0.5716840573541253,0.7490877028450503,0.5716027172537265,0.0,-0.0648288243800268,-0.06482882438002957,-0.4512991082321612,0.7469557571467604,0.5806616871886044,0.0,0.28690369041683056,-0.004382873835977427,0.3001982335061932,0.29269760000000006,-0.009523200000000004,0.3,0.12182140842178546,-0.0826109582583047,0.004327541830087015,True,True,True,True,True,False,0
1.840187695,1772666268.2547343,-0.013163472525775433,0.2654419541358948,1.1624410152435303,-0.01284708920866251,0.8607869148254395,0.007478156127035618,-0.05646282061934471,0.12056130170822144,0.15130940079689026,9.179165818079212e-16,0.018547015264630318,-0.05136096477508545,-0.41125767275120034,-0.41125767275120034,-0.061087,-1.1616696543213056,-1.8743010954997446,0.0,-0.0664222353647437,-0.0664222353647437,-0.5805694827610334,0.7626868475295832,0.5823970441650834,0.0,-0.0596472783790033,-0.05964727837900191,-0.44427127034540287,0.6799572342266408,0.5397163455678473,0.0,0.28690369041683056,-0.004382873835977427,0.3001982335061932,0.293394382824,-0.010045787117999999,0.3,0.12950341246178476,-0.08837246128830464,0.004327541830087015,True,True,True,True,True,False,0
1.860230443,1772666268.2747772,-0.013163472525775433,0.2654419541358948,1.1624410152435303,-0.01284708920866251,0.8607869148254395,0.007478156127035618,-0.05646282061934471,0.12056130170822144,0.15130940079689026,9.179165818079212e-16,0.018547015264630318,-0.05136096477508545,-0.4125861174584952,-0.4125861174584952,-0.061087,-1.146415917370714,-1.8626531546164429,0.0,-0.06750353628241818,-0.06750353628241815,-0.5892906115596354,0.7749008973517998,0.5923168170533217,0.0,-0.054065045883723524,-0.054065045883722136,-0.43605643993009885,0.6107024911108311,0.49598864441191504,0.0,0.28690369041683056,-0.004382873835977427,0.3001982335061932,0.294101613568,-0.010576210176,0.3,0.1372194929017851,-0.09415952161830465,0.004327541830087015,True,True,True,True,True,False,0
1.880212623,1772666268.2947593,-0.013163472525775433,0.2654419541358948,1.1624410152435303,-0.01284708920866251,0.8607869148254395,0.007478156127035618,-0.05646282061934471,0.12056130170822144,0.15130940079689026,9.179165818079212e-16,0.018547015264630318,-0.05136096477508545,-0.41393618818414357,-0.41393618818414357,-0.061087,-1.130917899423678,-1.8508068182753765,0.0,-0.06846540606206887,-0.06846540606206887,-0.5978255780659986,0.7856938650920725,0.601307762617818,0.0,-0.048093488982534724,-0.04809348898253611,-0.4267483253181599,0.5396483870136355,0.44954727822481516,0.0,0.28690369041683056,-0.004382873835977427,0.3001982335061932,0.29481819663200004,-0.011113647474,0.3,0.1449571025417853,-0.09996272884830466,0.004327541830087015,True,True,True,True,True,False,0
1.900095544,1772666268.3146422,-0.019891895353794098,0.2796657979488373,1.1805419921875,-0.01284708920866251,0.8639028072357178,0.0015339808305725455,-0.06998787075281143,0.14387917518615723,0.18620061874389648,9.179165818079212e-16,0.03424064442515373,-0.0616331584751606,-0.41530549630538494,-0.41530549630538494,-0.061087,-1.1152040221218364,-1.8387806630230201,0.0,-0.06930042227205163,-0.06930042227205166,-0.6061547326013499,0.7950394684345455,0.6093177397813527,0.0,-0.04175081049913803,-0.04175081049913942,-0.4164577267675658,0.4672801671236511,0.40049885817673403,0.0,0.28994237364438424,-0.006375899282372687,0.30033406947502694,0.29554301337600003,-0.011657260032000004,0.3,0.12623470938039372,-0.08470388604435242,0.00424495221354338,True,True,True,True,True,False,0
1.920201673,1772666268.3347483,-0.019891895353794098,0.2796657979488373,1.1805419921875,-0.01284708920866251,0.8639028072357178,0.0015339808305725455,-0.06998787075281143,0.14387917518615723,0.18620061874389648,9.179165818079212e-16,0.03424064442515373,-0.0616331584751606,-0.41669150475082595,-0.41669150475082595,-0.061087,-1.0993032327531456,-1.826594308227393,0.0,-0.07000166355606752,-0.07000166355606749,-0.6142609405499961,0.8029215829654252,0.616297498105828,0.0,-0.035062064200794246,-0.03506206420079147,-0.4053103974323121,0.39410572654398035,0.3489879162237638,0.0,0.28994237364438424,-0.006375899282372687,0.30033406947502694,0.296274925,-0.012206193750000004,0.3,0.13397759182039365,-0.09051104787435242,0.00424495221354338,True,True,True,True,True,False,0
1.940262174,1772666268.3548088,-0.019891895353794098,0.2796657979488373,1.1805419921875,-0.01284708920866251,0.8639028072357178,0.0015339808305725455,-0.06998787075281143,0.14387917518615723,0.18620061874389648,9.179165818079212e-16,0.03424064442515373,-0.0616331584751606,-0.41809153802194726,-0.41809153802194726,-0.061087,-1.0832448010938371,-1.8142683582652765,0.0,-0.0705628478332739,-0.0705628478332739,-0.6221298347218401,0.8093344899691839,0.6222014516481471,0.0,-0.028059213860319742,-0.02805921386032113,-0.39344470859220393,0.3206453501879402,0.2951976771159578,0.0,0.28994237364438424,-0.006375899282372687,0.30033406947502694,0.297012775424,-0.012759581568,0.3,0.1417042178603935,-0.09630601740435236,0.00424495221354338,True,True,True,True,True,False,0
1.960261885,1772666268.3748085,-0.019891895353794098,0.2796657979488373,1.1805419921875,-0.01284708920866251,0.8639028072357178,0.0015339808305725455,-0.06998787075281143,0.14387917518615723,0.18620061874389648,9.179165818079212e-16,0.03424064442515373,-0.0616331584751606,-0.41950279497861276,-0.41950279497861276,-0.061087,-1.0670581112944535,-1.8018243292323135,0.0,-0.07097846790713859,-0.07097846790713856,-0.6297499993124285,0.8142828866647025,0.6269884536075052,0.0,-0.020781003693234167,-0.02078100369323278,-0.3810082295294167,0.24741983477593021,0.23935009796790507,0.0,0.28994237364438424,-0.006375899282372687,0.30033406947502694,0.297755394168,-0.013316545626000001,0.3,0.14940204030039353,-0.1020793842343524,0.00424495221354338,True,True,True,True,True,False,0
1.980207523,1772666268.394754,-0.019891895353794098,0.2796657979488373,1.1805419921875,-0.01284708920866251,0.8639028072357178,0.0015339808305725455,-0.06998787075281143,0.14387917518615723,0.18620061874389648,9.179165818079212e-16,0.03424064442515373,-0.0616331584751606,-0.4209223643367555,-0.4209223643367555,-0.061087,-1.0507724535611593,-1.7892845601601635,0.0,-0.07124390864124304,-0.07124390864124304,-0.637113086165454,0.8177817534183144,0.6306224551850887,0.0,-0.013272036705222466,-0.013272036705223854,-0.36815434265127756,0.17494333768059406,0.18170007887917655,0.0,0.28994237364438424,-0.006375899282372687,0.30033406947502694,0.298501599232,-0.013876199424,0.3,0.15705858394039326,-0.10782179196435238,0.00424495221354338,True,True,True,True,True,False,0
2.000388765,1772666268.4149354,-0.027021070942282677,0.29521843791007996,1.2004185914993286,-0.01284708920866251,0.8685367107391357,-0.004793690051883459,-0.07282985001802444,0.1587396264076233,0.20780645310878754,9.179165818079212e-16,0.05421435087919235,-0.06505721807479858,-0.4223472425095804,-0.4223472425095804,-0.061087,-1.034416818492793,-1.7766721110564616,0.0,-0.07135555528784274,-0.07135555528784274,-0.6442138534580139,0.8198558989213522,0.6330731272686607,0.0,-0.005582332329984863,-0.005582332329984863,-0.35503836462799054,0.10370727515189294,0.12253360417859838,0.0,0.29316883905747915,-0.008533739713612487,0.30045638749185977,0.29925019997600005,-0.014437649982000006,0.3,0.13531008937808875,-0.09096449507055694,0.0037029568829576396,True,True,True,True,True,False,0
2.020202609,1772666268.4347491,-0.027021070942282677,0.29521843791007996,1.2004185914993286,-0.01284708920866251,0.8685367107391357,-0.004793690051883459,-0.07282985001802444,0.1587396264076233,0.20780645310878754,9.179165818079212e-16,0.05421435087919235,-0.06505721807479858,-0.4237743536153372,-0.4237743536153372,-0.061087,-1.018019700514366,-1.7640106485110885,0.0,-0.07131087418378322,-0.0713108741837832,-0.6510501319071509,0.8205394382564308,0.6343163495781701,0.0,0.0022340552029757855,0.0022340552029771732,-0.34181392245685144,0.03417696675392931,0.06216111547546749,0.0,0.29316883905747915,-0.008533739713612487,0.30045638749185977,0.30000000000000004,-0.015000000000000001,0.3,0.14284708181808867,-0.09661723940055691,0.0037029568829576396,True,True,True,True,True,False,0
2.040219392,1772666268.454766,-0.027021070942282677,0.29521843791007996,1.2004185914993286,-0.01284708920866251,0.8685367107391357,-0.004793690051883459,-0.07282985001802444,0.1587396264076233,0.20780645310878754,9.179165818079212e-16,0.05421435087919235,-0.06505721807479858,-0.4252005710990129,-0.4252005710990129,-0.061087,-1.0016089117492375,-1.751324321519525,0.0,-0.07110847234201922,-0.07110847234201922,-0.6576227151962146,0.8198750017201271,0.634334566002314,0.0,0.010120092088199825,0.010120092088198437,-0.32862916445318663,-0.033221826815188454,0.0009108212071950998,0.0,0.29316883905747915,-0.008533739713612487,0.30045638749185977,0.30074980002400004,-0.015562350018000009,0.3,0.15030608985808852,-0.10221149543055695,0.0037029568829576396,True,True,True,True,True,False,0
2.060147527,1772666268.4746943,-0.027021070942282677,0.29521843791007996,1.2004185914993286,-0.01284708920866251,0.8685367107391357,-0.004793690051883459,-0.07282985001802444,0.1587396264076233,0.20780645310878754,9.179165818079212e-16,0.05421435087919235,-0.06505721807479858,-0.42662274054585325,-0.42662274054585325,-0.061087,-0.985211411714835,-1.7386376301994788,0.0,-0.07074812854537986,-0.07074812854537986,-0.6639351846815483,0.8179128518950913,0.6331170073694399,0.0,0.018017189831968216,0.018017189831968216,-0.31562347426668497,-0.09810749125178644,-0.06087793164370464,0.0,0.29316883905747915,-0.008533739713612487,0.30045638749185977,0.30149840076800005,-0.016123800576,0.3,0.15767521429808873,-0.10773833876055688,0.0037029568829576396,True,True,True,True,True,False,0
2.080182119,1772666268.4947288,-0.027021070942282677,0.29521843791007996,1.2004185914993286,-0.01284708920866251,0.8685367107391357,-0.004793690051883459,-0.07282985001802444,0.1587396264076233,0.20780645310878754,9.179165818079212e-16,0.05421435087919235,-0.06505721807479858,-0.42803770311676087,-0.42803770311676087,-0.061087,-0.9688531546769331,-1.72597529005209,0.0,-0.07023079766447042,-0.07023079766447042,-0.6699936792024723,0.8147098748109388,0.6306597750106784,0.0,0.025866544045471927,0.025866544045471927,-0.3029247260461995,-0.16014885420762556,-0.12286161793807471,0.0,0.29316883905747915,-0.008533739713612487,0.30045638749185977,0.302244605832,-0.016683454373999998,0.3,0.16494277193808848,-0.11318900699055691,0.0037029568829576396,True,True,True,True,True,False,0
2.100195643,1772666268.5147424,-0.035062965005636215,0.313440203666687,1.2235913276672363,-0.01284708920866251,0.8729309439659119,-0.01131310872733593,-0.0819036141037941,0.18233142793178558,0.23554137349128723,9.179165818079212e-16,0.045654188841581345,-0.06848128885030746,-0.42944231907005026,-0.42944231907005026,-0.061087,-0.9525589571807144,-1.7133620945518764,0.0,-0.06955858663409888,-0.06955858663409888,-0.6758066119758017,0.8103285173756009,0.626965776651825,0.0,0.0336105515185772,0.0336105515185772,-0.2906466386664694,-0.21906787176689793,-0.184699917942671,0.0,0.2969576040112659,-0.011028899666768883,0.30051778499242904,0.302987224576,-0.017240418432,0.3,0.1381393168887864,-0.09266024417475163,0.0035087937805890305,True,True,True,True,True,False,0
2.120210586,1772666268.5347571,-0.035062965005636215,0.313440203666687,1.2235913276672363,-0.01284708920866251,0.8729309439659119,-0.01131310872733593,-0.0819036141037941,0.18233142793178558,0.23554137349128723,9.179165818079212e-16,0.045654188841581345,-0.06848128885030746,-0.43083349080273226,-0.43083349080273226,-0.061087,-0.9363523868332023,-1.70082277901884,0.0,-0.0687347053433385,-0.0687347053433385,-0.681384361778512,0.8048356800826337,0.6220445306196851,0.0,0.0411940645380186,0.0411940645380186,-0.27888749013551517,-0.27464186464835594,-0.2460623016069916,0.0,0.2969576040112659,-0.011028899666768883,0.30051778499242904,0.30372507500000007,-0.01779380625000001,0.3,0.14516969932878673,-0.09793303100475172,0.0035087937805890305,True,True,True,True,True,False,0
2.140264768,1772666268.5548115,-0.035062965005636215,0.313440203666687,1.2235913276672363,-0.01284708920866251,0.8729309439659119,-0.01131310872733593,-0.0819036141037941,0.18233142793178558,0.23554137349128723,9.179165818079212e-16,0.045654188841581345,-0.06848128885030746,-0.432208184909599,-0.432208184909599,-0.061087,-0.9202556732315497,-1.6883818884064463,0.0,-0.0677633946786077,-0.0677633946786077,-0.6867389381080814,0.7983016504479511,0.6159118679046304,0.0,0.04856553323654002,0.04856553323654002,-0.26772881647846836,-0.32670148173413155,-0.30663313575273715,0.0,0.2969576040112659,-0.011028899666768883,0.30051778499242904,0.304456986624,-0.018342739968000003,0.3,0.15206504936878615,-0.10310454353475165,0.0035087937805890305,True,True,True,True,True,False,0
2.160163351,1772666268.5747101,-0.035062965005636215,0.313440203666687,1.2235913276672363,-0.01284708920866251,0.8729309439659119,-0.01131310872733593,-0.0819036141037941,0.18233142793178558,0.23554137349128723,9.179165818079212e-16,0.045654188841581345,-0.06848128885030746,-0.43356345280317116,-0.43356345280317116,-0.061087,-0.9042896402225906,-1.6760636510483538,0.0,-0.06664983653955192,-0.06664983653955192,-0.6918836346069211,0.7907989901689223,0.6085895314480814,0.0,0.05567790695278902,0.05567790695278902,-0.25723482494198735,-0.3751330139514394,-0.36611682282744995,0.0,0.2969576040112659,-0.011028899666768883,0.30051778499242904,0.305181803368,-0.018886352526,0.3,0.15881483580878608,-0.10816688336475166,0.0035087937805890305,True,True,True,True,True,False,0
2.180195912,1772666268.5947425,-0.035062965005636215,0.313440203666687,1.2235913276672363,-0.01284708920866251,0.8729309439659119,-0.01131310872733593,-0.0819036141037941,0.18233142793178558,0.23554137349128723,9.179165818079212e-16,0.045654188841581345,-0.06848128885030746,-0.43489644953396217,-0.43489644953396217,-0.061087,-0.8884736604192122,-1.6638918604193922,0.0,-0.06540004885435831,-0.06540004885435831,-0.696832693666094,0.7824016172131866,0.600104731109877,0.0,0.062489384259680564,0.062489384259680564,-0.2474529529586431,-0.41986864778678595,-0.42424001691021523,0.0,0.2969576040112659,-0.011028899666768883,0.30051778499242904,0.305898386432,-0.019423789824000004,0.3,0.16540888744878623,-0.1131124220947517,0.0035087937805890305,True,True,True,True,True,False,0
2.200311172,1772666268.6148577,-0.04322182759642601,0.33223146200180054,1.2478435039520264,-0.01284708920866251,0.8784436583518982,-0.018791263923048973,-0.08354716747999191,0.19352811574935913,0.2500251829624176,9.179165818079212e-16,0.057067736983299255,-0.06848128885030746,-0.43620445051104934,-0.43620445051104934,-0.061087,-0.8728256280749485,-1.6518897657971947,0.0,-0.06402077061662262,-0.06402077061662262,-0.7016009738982335,0.7731838369003441,0.590489619375852,0.0,0.06896391188678444,0.06896391188678444,-0.23841401160697417,-0.46088901564212376,-0.4807555867012532,0.0,0.3008024040728861,-0.013624693384876582,0.30059819154068645,0.306605617176,-0.019954212882000003,0.3,0.13552106004416203,-0.09091798969172864,0.002768200932063078,True,True,True,True,True,False,0
2.22016055,1772666268.6347072,-0.04322182759642601,0.33223146200180054,1.2478435039520264,-0.01284708920866251,0.8784436583518982,-0.018791263923048973,-0.08354716747999191,0.19352811574935913,0.2500251829624176,9.179165818079212e-16,0.057067736983299255,-0.06848128885030746,-0.4374848659233818,-0.4374848659233818,-0.061087,-0.8573619513369416,-1.6400799734096776,0.0,-0.06251934203257789,-0.06251934203257789,-0.7062036482297321,0.763219578245672,0.579780784557004,0.0,0.07507142920223635,0.07507142920223635,-0.23013371657493156,-0.49821293273360445,-0.535441740942399,0.0,0.3008024040728861,-0.013624693384876582,0.30059819154068645,0.3073024000000001,-0.020476800000000003,0.3,0.141774712484163,-0.09560822902172869,0.002768200932063078,True,True,True,True,True,False,0
2.240213981,1772666268.6547604,-0.04322182759642601,0.33223146200180054,1.2478435039520264,-0.01284708920866251,0.8784436583518982,-0.018791263923048973,-0.08354716747999191,0.19352811574935913,0.2500251829624176,9.179165818079212e-16,0.057067736983299255,-0.06848128885030746,-0.43873525276403336,-0.43873525276403336,-0.061087,-0.8420975597720282,-1.6284843577185375,0.0,-0.06090358315805566,-0.06090358315805572,-0.7106559157050568,0.7525816554946656,0.5680187117863953,0.0,0.0807879437261113,0.08078794372610852,-0.22261337376623372,-0.5318961375503191,-0.5881036385304345,0.0,0.3008024040728861,-0.013624693384876582,0.30059819154068645,0.30798766522400006,-0.020990748918000006,0.3,0.14784456452416284,-0.10016061805172871,0.002768200932063078,True,True,True,True,True,False,0
2.260324078,1772666268.6748705,-0.04322182759642601,0.33223146200180054,1.2478435039520264,-0.01284708920866251,0.8784436583518982,-0.018791263923048973,-0.08354716747999191,0.19352811574935913,0.2500251829624176,9.179165818079212e-16,0.057067736983299255,-0.06848128885030746,-0.4399533244271945,-0.4399533244271945,-0.061087,-0.8270459266621348,-1.6171239834828095,0.0,-0.059181676608586156,-0.059181676608586156,-0.7149727584138064,0.7413411878823825,0.5552472960400778,0.0,0.08609532747347526,0.08609532747347803,-0.21584213543747713,-0.5620233806141568,-0.6385707873158725,0.0,0.3008024040728861,-0.013624693384876582,0.30059819154068645,0.30866037196800006,-0.021495278976000013,0.3,0.15372217296416274,-0.10456882438172879,0.002768200932063078,True,True,True,True,True,False,0
2.280313172,1772666268.6948597,-0.04322182759642601,0.33223146200180054,1.2478435039520264,-0.01284708920866251,0.8784436583518982,-0.018791263923048973,-0.08354716747999191,0.19352811574935913,0.2500251829624176,9.179165818079212e-16,0.057067736983299255,-0.06848128885030746,-0.4411369579593662,-0.4411369579593662,-0.061087,-0.8122191029044872,-1.606019037562008,0.0,-0.057362054007225716,-0.057362054007225716,-0.7191687192913733,0.729567114408944,0.5415133589612074,0.0,0.09098113006802194,0.09098113006802194,-0.20979804387834514,-0.5887036736719248,-0.6866968539435186,0.0,0.3008024040728861,-0.013624693384876582,0.30059819154068645,0.30931951103200006,-0.021989633274000015,0.3,0.15939959860416275,-0.1088268936117288,0.002768200932063078,True,True,True,True,True,False,0
2.300328886,1772666268.7148755,-0.0511716827750206,0.3515903055667877,1.2729854583740234,-0.013038836419582367,0.8837966322898865,-0.02473543956875801,-0.07690448313951492,0.18911106884479523,0.24636141955852509,-0.0034240642562508583,0.05421435087919235,-0.05820909142494202,-0.4422841990395107,-0.4422841990395107,-0.061087,-0.7976277606163082,-1.5951887703827838,0.0,-0.05545329352196958,-0.055453293521969524,-0.7232577227769348,0.7173257987480207,0.5268662328792213,0.0,0.09543802426280673,0.0954380242628095,-0.20445017427807557,-0.6120657830461612,-0.7323563040993069,0.0,0.3047559870715605,-0.01623601959080574,0.3006513223846577,0.30996410777600003,-0.022473080832000003,0.3,0.12513744747080743,-0.08632565624907729,0.0014588628872642135,True,True,True,True,True,False,0
2.320209545,1772666268.734756,-0.0511716827750206,0.3515903055667877,1.2729854583740234,-0.013038836419582367,0.8837966322898865,-0.02473543956875801,-0.07690448313951492,0.18911106884479523,0.24636141955852509,-0.0034240642562508583,0.05421435087919235,-0.05820909142494202,-0.4433932649099501,-0.4433932649099501,-0.061087,-0.7832812446413479,-1.5846514457251994,0.0,-0.0534640263712317,-0.0534640263712317,-0.7272529228977384,0.7046807535948626,0.5113573944629692,0.0,0.09946335753689374,0.09946335753689096,-0.19976000604017813,-0.6322522576579054,-0.7754419208126022,0.0,0.3047559870715605,-0.01623601959080574,0.3006513223846577,0.310593225,-0.022944918750000008,0.3,0.1303928499108068,-0.09026720807907729,0.0014588628872642135,True,True,True,True,True,False,0
2.340276263,1772666268.754823,-0.0511716827750206,0.3515903055667877,1.2729854583740234,-0.013038836419582367,0.8837966322898865,-0.02473543956875801,-0.07690448313951492,0.18911106884479523,0.24636141955852509,-0.0034240642562508583,0.05421435087919235,-0.05820909142494202,-0.44446254543737473,-0.44446254543737473,-0.061087,-0.7691876295694509,-1.5744242978359402,0.0,-0.051402856023552365,-0.051402856023552365,-0.7311665873313139,0.69169242450559,0.49504014601226487,0.0,0.10305851738396908,0.10305851738396908,-0.19568322167878155,-0.6494164544636444,-0.8158624225352359,0.0,0.3047559870715605,-0.01623601959080574,0.3006513223846577,0.311205965824,-0.023404474368000007,0.3,0.13542756395080707,-0.09404324360907733,0.0014588628872642135,True,True,True,True,True,False,0
2.360321398,1772666268.774868,-0.0511716827750206,0.3515903055667877,1.2729854583740234,-0.013038836419582367,0.8837966322898865,-0.02473543956875801,-0.07690448313951492,0.18911106884479523,0.24636141955852509,-0.0034240642562508583,0.05421435087919235,-0.05820909142494202,-0.4454906025578458,-0.4454906025578458,-0.061087,-0.755353781079339,-1.564523494915695,0.0,-0.04927829027224308,-0.04927829027224308,-0.7350100079980578,0.6784180593156156,0.4779693727649189,0.0,0.10622828756546428,0.10622828756546428,-0.19217103333719604,-0.6637182594987184,-0.8535386623672973,0.0,0.3047559870715605,-0.01623601959080574,0.3006513223846577,0.31180147656800006,-0.023851107426,0.3,0.1402359543908077,-0.09764953643907724,0.0014588628872642135,True,True,True,True,True,False,0
2.380291715,1772666268.7948382,-0.0511716827750206,0.3515903055667877,1.2729854583740234,-0.013038836419582367,0.8837966322898865,-0.02473543956875801,-0.07690448313951492,0.18911106884479523,0.24636141955852509,-0.0034240642562508583,0.05421435087919235,-0.05820909142494202,-0.4464761683632906,-0.4464761683632906,-0.061087,-0.7417854198930267,-1.5549641074603966,0.0,-0.047098686240768954,-0.047098686240768954,-0.7387934407226159,0.6649116427877275,0.4602013463767407,0.0,0.10898020157370608,0.10898020157370608,-0.18917163622790262,-0.6753208263944038,-0.8884013194089094,0.0,0.3047559870715605,-0.01623601959080574,0.3006513223846577,0.312378949632,-0.02428421222400001,0.3,0.14481303403080728,-0.1010823461690773,0.0014588628872642135,True,True,True,True,True,False,0
2.400142208,1772666268.8146887,-0.058509863913059235,0.36964911222457886,1.2966835498809814,-0.013038836419582367,0.8894691467285156,-0.031254857778549194,-0.07320649176836014,0.18311895430088043,0.24033507704734802,9.179165818079212e-16,0.055641043931245804,-0.05820909142494202,-0.447418142088106,-0.447418142088106,-0.061087,-0.7284871870372721,-1.5457600805328617,0.0,-0.044872207232127606,-0.044872207232127606,-0.742526069360958,0.6512239053675907,0.4417935885529415,0.0,0.1113239504320673,0.1113239504320673,-0.18663143191710568,-0.6843868710068418,-0.9203878911899602,0.0,0.3083844467605457,-0.018694761357502514,0.3006956217239259,0.312937626376,-0.02470321978200001,0.3,0.11226028672999921,-0.07922345757392028,0.0003491762016623011,True,True,True,True,True,False,0
2.420234561,1772666268.8347812,-0.058509863913059235,0.36964911222457886,1.2966835498809814,-0.013038836419582367,0.8894691467285156,-0.031254857778549194,-0.07320649176836014,0.18311895430088043,0.24033507704734802,9.179165818079212e-16,0.055641043931245804,-0.05820909142494202,-0.44831558623274853,-0.44831558623274853,-0.061087,-0.7154627089299203,-1.536924208761803,0.0,-0.04260679553726138,-0.04260679553726138,-0.7462159863112524,0.6374023193781639,0.42280479888915035,0.0,0.11327058474331135,0.11327058474331135,-0.18449584751472053,-0.691079299471336,-0.9494394831895561,0.0,0.3083844467605457,-0.018694761357502514,0.3006956217239259,0.3134768,-0.02510759999999999,0.3,0.11636251916999946,-0.08230013190392015,0.0003491762016623011,True,True,True,False,True,False,0
2.440257476,1772666268.854804,-0.058509863913059235,0.36964911222457886,1.2966835498809814,-0.013038836419582367,0.8894691467285156,-0.031254857778549194,-0.07320649176836014,0.18311895430088043,0.24033507704734802,9.179165818079212e-16,0.055641043931245804,-0.05820909142494202,-0.44916772214349376,-0.44916772214349376,-0.061087,-0.7027146625423569,-1.5284681127840198,0.0,-0.040310152677721985,-0.040310152677721985,-0.7498701974157487,0.6234912051740564,0.4032948081314096,0.0,0.11483214297696953,0.11483214297696953,-0.182710555224813,-0.6955557102053749,-0.9754995378870359,0.0,0.3083844467605457,-0.018694761357502514,0.3006956217239259,0.313995818424,-0.025496863817999996,0.3,0.12022265520999942,-0.08519523393392024,0.0003491762016623011,True,True,True,False,True,False,0
2.460257889,1772666268.8748045,-0.058509863913059235,0.36964911222457886,1.2966835498809814,-0.013038836419582367,0.8894691467285156,-0.031254857778549194,-0.07320649176836014,0.18311895430088043,0.24033507704734802,9.179165818079212e-16,0.055641043931245804,-0.05820909142494202,-0.4499739251970482,-0.4499739251970482,-0.061087,-0.6902448384388757,-1.5204022166213917,0.0,-0.03798973443825802,-0.03798973443825802,-0.7534946385886151,0.6095318155956402,0.3833245893292446,0.0,0.11602091197319826,0.11602091197319826,-0.18122205864332092,-0.6979694789208117,-0.9985109401082484,0.0,0.3083844467605457,-0.018694761357502514,0.3006956217239259,0.314494087168,-0.025870565376000014,0.3,0.12383858764999928,-0.08790718326392039,0.0003491762016623011,True,True,True,False,True,False,0
2.480138747,1772666268.8946855,-0.058509863913059235,0.36964911222457886,1.2966835498809814,-0.013038836419582367,0.8894691467285156,-0.031254857778549194,-0.07320649176836014,0.18311895430088043,0.24033507704734802,9.179165818079212e-16,0.055641043931245804,-0.05820909142494202,-0.45073371988581334,-0.45073371988581334,-0.061087,-0.6780542021269629,-1.5127357248348068,0.0,-0.03565275486987317,-0.03565275486987317,-0.7570942021563568,0.5955624516643379,0.3629563080642033,0.0,0.11684897841924236,0.11684897841924236,-0.17997817838708557,-0.6984681965651156,-1.0184140632520646,0.0,0.3083844467605457,-0.018694761357502514,0.3006956217239259,0.31497107223200005,-0.026228304174000017,0.3,0.12720900128999996,-0.09043499349392038,0.0003491762016623011,True,True,True,False,True,False,0
2.500219214,1772666268.9147658,-0.06538401544094086,0.3869428336620331,1.319419026374817,-0.013230584561824799,0.8941829800605774,-0.036432042717933655,-0.062557652592659,0.1655535101890564,0.2119838148355484,-0.0034240642562508583,0.047080881893634796,-0.05820909142494202,-0.4514467749832108,-0.4514467749832108,-0.061087,-0.6661429530936761,-1.5054765986735228,0.0,-0.033306199683907155,-0.033306199683907155,-0.760672779286094,0.5816185962059016,0.342253394846453,0.0,0.11732775929830057,0.11732775929830057,-0.17892885648685947,-0.6971927729218113,-1.0351456608875145,0.0,0.3118643197000483,-0.021062627304826897,0.30069458035667485,0.315426302976,-0.02656972723200001,0.3,0.09226780196106249,-0.06952668774715107,-0.0010244027912652016,True,True,True,False,True,False,0
2.520367341,1772666268.9349139,-0.06538401544094086,0.3869428336620331,1.319419026374817,-0.013230584561824799,0.8941829800605774,-0.036432042717933655,-0.062557652592659,0.1655535101890564,0.2119838148355484,-0.0034240642562508583,0.047080881893634796,-0.05820909142494202,-0.45211289897688894,-0.45211289897688894,-0.061087,-0.6545105811695581,-1.4986315307765938,0.0,-0.03095684819220583,-0.03095684819220583,-0.7642333070553954,0.5677330795007683,0.3212806469522433,0.0,0.11746757458506614,0.11746757458506614,-0.17802638846506885,-0.6942758352566629,-1.048637394710485,0.0,0.3118643197000483,-0.021062627304826897,0.30069458035667485,0.3158593750000001,-0.026894531250000006,0.3,0.09514654440106365,-0.07168574457715106,-0.0010244027912652016,True,True,True,False,True,False,0
2.540249043,1772666268.9547956,-0.06538401544094086,0.3869428336620331,1.319419026374817,-0.013230584561824799,0.8941829800605774,-0.036432042717933655,-0.062557652592659,0.1655535101890564,0.2119838148355484,-0.0034240642562508583,0.047080881893634796,-0.05820909142494202,-0.4527320359407331,-0.4527320359407331,-0.061087,-0.6431559195795427,-1.4922059178375489,0.0,-0.028611303043880057,-0.028611303043880057,-0.7677778219170387,0.5539362052676013,0.30010435721194756,0.0,0.11727725741628853,0.11727725741628853,-0.17722574308216538,-0.6898437116583493,-1.0588144870147855,0.0,0.3118643197000483,-0.021062627304826897,0.30069458035667485,0.316269953024,-0.027202464768000013,0.3,0.09778086244106257,-0.07366148310715107,-0.0010244027912652016,True,True,True,False,True,False,0
2.560367286,1772666268.9749138,-0.06538401544094086,0.3869428336620331,1.319419026374817,-0.013230584561824799,0.8941829800605774,-0.036432042717933655,-0.062557652592659,0.1655535101890564,0.2119838148355484,-0.0034240642562508583,0.047080881893634796,-0.05820909142494202,-0.45330426200161067,-0.45330426200161067,-0.061087,-0.6320771954741906,-1.4862038306933099,0.0,-0.026276026657405638,-0.026276026657405638,-0.7713075195533375,0.5402559274824021,0.27879245527568774,0.0,0.11676381932372086,0.11676381932372086,-0.1764848818149421,-0.6840138892599595,-1.0655950968129897,0.0,0.3118643197000483,-0.021062627304826897,0.30069458035667485,0.3166577737680001,-0.027493330326000015,0.3,0.10017289688106337,-0.0754555089371511,-0.0010244027912652016,True,True,True,False,True,False,0
2.580267526,1772666268.9948142,-0.06538401544094086,0.3869428336620331,1.319419026374817,-0.013230584561824799,0.8941829800605774,-0.036432042717933655,-0.062557652592659,0.1655535101890564,0.2119838148355484,-0.0034240642562508583,0.047080881893634796,-0.05820909142494202,-0.4538297825347588,-0.4538297825347588,-0.061087,-0.6212720769245426,-1.480627981587796,0.0,-0.02395738344295679,-0.02395738344295679,-0.7748228183484687,0.5267179968381728,0.2574146675504941,0.0,0.11593216072244221,0.11593216072244221,-0.17576493975655622,-0.6768965322114678,-1.0688893862596822,0.0,0.3118643197000483,-0.021062627304826897,0.30069458035667485,0.317022648832,-0.027766986624000005,0.3,0.10232572452106241,-0.07707012966715109,-0.0010244027912652016,True,True,True,False,True,False,0
2.600172479,1772666269.014719,-0.07122272998094559,0.4011666476726532,1.3381776809692383,-0.013230584561824799,0.8987369537353516,-0.040458742529153824,-0.055641043931245804,0.13980454206466675,0.1790100783109665,9.179165818079212e-16,0.04422749578952789,-0.037664707750082016,-0.45430893020361796,-0.45430893020361796,-0.061087,-0.6107377169877791,-1.4754796882367862,0.0,-0.021661687115831597,-0.021661687115831597,-0.7783234261649714,0.5133461302619318,0.23604268743231033,0.0,0.11478481635625964,0.11478481635625964,-0.175030390825137,-0.6685933288120499,-1.0685990059091868,0.0,0.31465235548781445,-0.02309349589545287,0.3006659484918108,0.317364467576,-0.028023350681999987,0.3,0.07186923506165852,-0.0588553338414931,-0.0019038876738567126,True,True,True,False,True,False,0
